; generated by PrusaSlicer 2.1.1+win64 on 2020-03-12 at 00:36:44 UTC

; 

; external perimeters extrusion width = 0.45mm
; perimeters extrusion width = 0.45mm
; infill extrusion width = 0.45mm
; solid infill extrusion width = 0.45mm
; top infill extrusion width = 0.40mm
; first layer extrusion width = 1.00mm

M73 P0 R43
M73 Q0 S43
M201 X1000 Y1000 Z1000 E5000 ; sets maximum accelerations, mm/sec^2
M203 X200 Y200 Z12 E120 ; sets maximum feedrates, mm/sec
M204 P1250 R1250 T1250 ; sets acceleration (P, T) and retract acceleration (R), mm/sec^2
M205 X8.00 Y8.00 Z0.40 E4.50 ; sets the jerk limits, mm/sec
M205 S0 T0 ; sets the minimum extruding and travel feed rate, mm/sec
M107
M862.3 P "MK3S" ; printer model check
M862.1 P0.4 ; nozzle diameter check
M115 U3.8.1 ; tell printer latest fw version
G90 ; use absolute coordinates
M83 ; extruder relative mode
M104 S215 ; set extruder temp
M140 S60 ; set bed temp
M190 S60 ; wait for bed temp
M109 S215 ; wait for extruder temp
G28 W ; home all without mesh bed level
G80 ; mesh bed leveling
G1 Y-3.0 F1000.0 ; go outside print area
G92 E0.0
G1 X60.0 E9.0 F1000.0 ; intro line
M73 Q0 S43
M73 P0 R43
G1 X100.0 E12.5 F1000.0 ; intro line
G92 E0.0
M221 S95
G21 ; set units to millimeters
G90 ; use absolute coordinates
M83 ; use relative distances for extrusion
M900 K30 ; Filament gcode
;BEFORE_LAYER_CHANGE
G92 E0.0
;0.2


G1 E-0.80000 F2100.00000
G1 Z0.600 F10800.000
;AFTER_LAYER_CHANGE
;0.2
G1 X106.777 Y85.219
G1 Z0.200
G1 E0.80000 F2100.00000
M204 S1000
G1 F1200
G1 X107.290 Y84.837 E0.05093
G1 X107.869 Y84.603 E0.04970
G1 X108.488 Y84.521 E0.04970
G1 X177.192 Y84.521 E5.46755
G1 X178.122 Y84.704 E0.07537
G1 X178.917 Y85.224 E0.07567
G1 X179.457 Y86.002 E0.07537
G1 X179.666 Y86.926 E0.07537
G1 X179.665 Y123.082 E2.87731
G1 X179.563 Y123.709 E0.05062
G1 X179.306 Y124.287 E0.05032
G1 X178.909 Y124.784 E0.05062
G1 X178.398 Y125.163 E0.05062
G1 X177.819 Y125.397 E0.04970
G1 X177.200 Y125.479 E0.04970
G1 X108.465 Y125.478 E5.47003
G1 X107.828 Y125.386 E0.05124
G1 X107.233 Y125.130 E0.05154
G1 X106.724 Y124.729 E0.05154
G1 X106.337 Y124.210 E0.05154
G1 X106.104 Y123.635 E0.04939
G1 X106.022 Y123.019 E0.04939
G1 X106.022 Y86.938 E2.87143
G1 X106.121 Y86.305 E0.05093
G1 X106.378 Y85.719 E0.05093
G1 X106.739 Y85.266 E0.04615
G1 F8640
G1 X107.290 Y84.837 E-0.16120
G1 X107.869 Y84.603 E-0.14421
G1 X108.488 Y84.521 E-0.14421
G1 X109.833 Y84.521 E-0.31038
G1 E-0.04000 F2100.00000
G1 Z0.800 F10800.000
G1 X111.770 Y118.709
G1 Z0.200
G1 E0.80000 F2100.00000
G1 F1200
G1 X112.229 Y118.648 E0.03687
G1 X112.727 Y118.708 E0.03988
G1 X113.177 Y118.894 E0.03877
G1 X113.561 Y119.189 E0.03852
G1 X113.856 Y119.573 E0.03852
G1 X114.041 Y120.020 E0.03852
G1 X114.104 Y120.500 E0.03852
G1 X114.041 Y120.980 E0.03852
G1 X113.856 Y121.427 E0.03852
G1 X113.561 Y121.811 E0.03852
G1 X113.177 Y122.106 E0.03852
G1 X112.730 Y122.291 E0.03852
G1 X112.250 Y122.354 E0.03852
G1 X111.770 Y122.291 E0.03852
G1 X111.323 Y122.106 E0.03852
G1 X110.939 Y121.811 E0.03852
G1 X110.644 Y121.427 E0.03852
G1 X110.459 Y120.980 E0.03852
G1 X110.396 Y120.500 E0.03852
G1 X110.459 Y120.020 E0.03852
G1 X110.644 Y119.573 E0.03852
G1 X110.939 Y119.189 E0.03852
G1 X111.323 Y118.894 E0.03852
G1 X111.715 Y118.732 E0.03375
G1 X111.874 Y118.322 F10800.000
G1 F8640
G1 X112.229 Y118.648 E-0.12042
G1 X112.727 Y118.708 E-0.11571
G1 X113.177 Y118.894 E-0.11250
G1 X113.561 Y119.189 E-0.11177
G1 X113.856 Y119.573 E-0.11177
G1 X114.041 Y120.020 E-0.11177
G1 X114.084 Y120.347 E-0.07605
G1 E-0.04000 F2100.00000
G1 Z0.800 F10800.000
G1 X135.894 Y105.927
G1 Z0.200
G1 E0.80000 F2100.00000
G1 F1200
G1 X135.717 Y105.499 E0.03687
G1 X135.645 Y105.003 E0.03988
G1 X135.709 Y104.520 E0.03877
G1 X135.894 Y104.073 E0.03852
G1 X136.189 Y103.689 E0.03852
G1 X136.573 Y103.394 E0.03852
G1 X137.020 Y103.209 E0.03852
G1 X137.479 Y103.148 E0.03687
G1 X137.977 Y103.208 E0.03988
G1 X138.427 Y103.394 E0.03877
G1 X138.811 Y103.689 E0.03852
G1 X139.106 Y104.073 E0.03852
G1 X139.283 Y104.501 E0.03687
G1 X139.355 Y104.997 E0.03988
G1 X139.291 Y105.480 E0.03877
G1 X139.106 Y105.927 E0.03852
G1 X138.811 Y106.311 E0.03852
G1 X138.427 Y106.606 E0.03852
G1 X137.999 Y106.783 E0.03687
G1 X137.503 Y106.855 E0.03988
G1 X137.020 Y106.791 E0.03877
G1 X136.573 Y106.606 E0.03852
G1 X136.189 Y106.311 E0.03852
G1 X135.931 Y105.975 E0.03375
G1 X135.494 Y105.927 F10800.000
G1 F8640
G1 X135.717 Y105.499 E-0.12042
G1 X135.645 Y105.003 E-0.11571
G1 X135.709 Y104.520 E-0.11250
G1 X135.894 Y104.073 E-0.11177
G1 X136.189 Y103.689 E-0.11177
G1 X136.573 Y103.394 E-0.11177
G1 X136.877 Y103.268 E-0.07605
G1 E-0.04000 F2100.00000
G1 Z0.800 F10800.000
G1 X140.043 Y106.166
G1 Z0.200
G1 E0.80000 F2100.00000
G1 F1200
G1 X140.043 Y121.543 E1.22373
G1 X138.898 Y121.543 E0.09110
G1 X138.970 Y121.000 E0.04358
G1 X138.886 Y120.361 E0.05131
G1 X138.639 Y119.765 E0.05131
G1 X138.246 Y119.254 E0.05131
G1 X137.735 Y118.861 E0.05131
G1 X137.131 Y118.611 E0.05204
G1 X136.478 Y118.533 E0.05231
G1 X135.861 Y118.614 E0.04954
G1 X135.265 Y118.861 E0.05131
G1 X134.754 Y119.254 E0.05131
G1 X134.361 Y119.765 E0.05131
G1 X134.114 Y120.361 E0.05131
G1 X134.030 Y121.000 E0.05131
G1 X134.102 Y121.543 E0.04358
G1 X133.898 Y121.543 E0.01621
G1 X133.970 Y121.000 E0.04358
G1 X133.886 Y120.361 E0.05131
G1 X133.639 Y119.765 E0.05131
G1 X133.246 Y119.254 E0.05131
G1 X132.735 Y118.861 E0.05131
G1 X132.131 Y118.611 E0.05204
G1 X131.478 Y118.533 E0.05231
G1 X130.861 Y118.614 E0.04954
G1 X130.265 Y118.861 E0.05131
G1 X129.754 Y119.254 E0.05131
G1 X129.361 Y119.765 E0.05131
G1 X129.114 Y120.361 E0.05131
G1 X129.030 Y121.000 E0.05131
G1 X129.102 Y121.543 E0.04358
G1 X128.898 Y121.543 E0.01621
G1 X128.970 Y121.000 E0.04358
G1 X128.886 Y120.361 E0.05131
G1 X128.639 Y119.765 E0.05131
G1 X128.246 Y119.254 E0.05131
G1 X127.735 Y118.861 E0.05131
G1 X127.131 Y118.611 E0.05204
G1 X126.478 Y118.533 E0.05231
G1 X125.861 Y118.614 E0.04954
G1 X125.265 Y118.861 E0.05131
G1 X124.754 Y119.254 E0.05131
G1 X124.361 Y119.765 E0.05131
G1 X124.114 Y120.361 E0.05131
G1 X124.030 Y121.000 E0.05131
G1 X124.102 Y121.543 E0.04358
G1 X123.898 Y121.543 E0.01621
G1 X123.970 Y121.000 E0.04358
G1 X123.886 Y120.361 E0.05131
G1 X123.639 Y119.765 E0.05131
G1 X123.246 Y119.254 E0.05131
G1 X122.735 Y118.861 E0.05131
G1 X122.131 Y118.611 E0.05204
G1 X121.478 Y118.533 E0.05231
G1 X120.861 Y118.614 E0.04954
G1 X120.265 Y118.861 E0.05131
G1 X119.746 Y119.259 E0.05203
G1 X119.353 Y119.786 E0.05231
G1 X119.115 Y120.361 E0.04954
G1 X119.030 Y121.000 E0.05131
G1 X119.102 Y121.543 E0.04358
G1 X118.898 Y121.543 E0.01621
G1 X118.970 Y121.000 E0.04358
G1 X118.885 Y120.361 E0.05131
G1 X118.639 Y119.765 E0.05131
G1 X118.246 Y119.254 E0.05131
G1 X117.735 Y118.861 E0.05131
G1 X117.131 Y118.611 E0.05204
G1 X116.478 Y118.533 E0.05231
G1 X115.861 Y118.614 E0.04954
G1 X115.265 Y118.861 E0.05131
G1 X114.758 Y119.250 E0.05086
G1 X114.692 Y119.090 E0.01379
G1 X114.244 Y118.506 E0.05858
G1 X113.660 Y118.058 E0.05858
G1 X112.971 Y117.773 E0.05931
G1 X112.223 Y117.684 E0.05994
G1 X111.520 Y117.776 E0.05645
G1 X110.840 Y118.058 E0.05858
G1 X110.256 Y118.506 E0.05858
G1 X109.957 Y118.896 E0.03910
G1 X109.957 Y91.104 E2.21173
G1 X110.262 Y91.501 E0.03983
G1 X110.865 Y91.952 E0.05994
G1 X111.520 Y92.224 E0.05645
G1 X112.259 Y92.321 E0.05931
G1 X113.005 Y92.213 E0.05994
G1 X113.660 Y91.942 E0.05645
G1 X114.251 Y91.488 E0.05931
G1 X114.702 Y90.885 E0.05994
G1 X114.758 Y90.750 E0.01166
G1 X115.265 Y91.139 E0.05086
G1 X115.861 Y91.386 E0.05131
G1 X116.500 Y91.470 E0.05131
G1 X117.139 Y91.386 E0.05131
G1 X117.735 Y91.139 E0.05131
G1 X118.254 Y90.741 E0.05204
G1 X118.647 Y90.214 E0.05231
G1 X118.885 Y89.639 E0.04954
G1 X118.970 Y89.000 E0.05131
G1 X118.898 Y88.457 E0.04358
G1 X119.102 Y88.457 E0.01621
G1 X119.030 Y89.000 E0.04358
G1 X119.115 Y89.639 E0.05131
G1 X119.361 Y90.235 E0.05131
G1 X119.754 Y90.746 E0.05131
G1 X120.265 Y91.139 E0.05131
G1 X120.861 Y91.386 E0.05131
G1 X121.500 Y91.470 E0.05131
G1 X122.139 Y91.386 E0.05131
G1 X122.735 Y91.139 E0.05131
G1 X123.246 Y90.746 E0.05131
G1 X123.639 Y90.235 E0.05131
G1 X123.886 Y89.639 E0.05131
G1 X123.970 Y89.000 E0.05131
G1 X123.898 Y88.457 E0.04358
G1 X124.102 Y88.457 E0.01621
G1 X124.030 Y89.000 E0.04358
G1 X124.114 Y89.639 E0.05131
G1 X124.361 Y90.235 E0.05131
G1 X124.754 Y90.746 E0.05131
G1 X125.265 Y91.139 E0.05131
G1 X125.861 Y91.386 E0.05131
G1 X126.500 Y91.470 E0.05131
G1 X127.139 Y91.386 E0.05131
G1 X127.735 Y91.139 E0.05131
G1 X128.246 Y90.746 E0.05131
G1 X128.639 Y90.235 E0.05131
G1 X128.886 Y89.639 E0.05131
G1 X128.970 Y89.000 E0.05131
G1 X128.898 Y88.457 E0.04358
G1 X129.102 Y88.457 E0.01621
G1 X129.030 Y89.000 E0.04358
G1 X129.114 Y89.639 E0.05131
G1 X129.361 Y90.235 E0.05131
G1 X129.754 Y90.746 E0.05131
G1 X130.265 Y91.139 E0.05131
G1 X130.861 Y91.386 E0.05131
G1 X131.500 Y91.470 E0.05131
G1 X132.139 Y91.386 E0.05131
G1 X132.735 Y91.139 E0.05131
G1 X133.254 Y90.741 E0.05204
G1 X133.647 Y90.214 E0.05231
G1 X133.886 Y89.639 E0.04954
G1 X133.970 Y89.000 E0.05131
G1 X133.898 Y88.457 E0.04358
G1 X134.102 Y88.457 E0.01621
G1 X134.030 Y89.000 E0.04358
G1 X134.114 Y89.639 E0.05131
G1 X134.361 Y90.235 E0.05131
G1 X134.754 Y90.746 E0.05131
G1 X135.265 Y91.139 E0.05131
G1 X135.861 Y91.386 E0.05131
G1 X136.500 Y91.470 E0.05131
G1 X137.139 Y91.386 E0.05131
G1 X137.735 Y91.139 E0.05131
G1 X138.246 Y90.746 E0.05131
G1 X138.639 Y90.235 E0.05131
G1 X138.886 Y89.639 E0.05131
G1 X138.970 Y89.000 E0.05131
G1 X138.898 Y88.457 E0.04358
G1 X140.043 Y88.457 E0.09110
G1 X140.043 Y103.834 E1.22373
G1 X139.942 Y103.590 E0.02101
G1 X139.494 Y103.006 E0.05858
G1 X138.910 Y102.558 E0.05858
G1 X138.221 Y102.273 E0.05931
G1 X137.473 Y102.184 E0.05994
G1 X136.770 Y102.276 E0.05645
G1 X136.090 Y102.558 E0.05858
G1 X135.506 Y103.006 E0.05858
G1 X135.058 Y103.590 E0.05858
G1 X134.776 Y104.270 E0.05858
G1 X134.679 Y105.009 E0.05931
G1 X134.787 Y105.755 E0.05994
G1 X135.058 Y106.410 E0.05645
G1 X135.506 Y106.994 E0.05858
G1 X136.090 Y107.442 E0.05858
G1 X136.770 Y107.724 E0.05858
G1 X137.509 Y107.821 E0.05931
G1 X138.255 Y107.713 E0.05994
G1 X138.910 Y107.442 E0.05645
G1 X139.494 Y106.994 E0.05858
G1 X139.942 Y106.410 E0.05858
G1 X140.020 Y106.221 E0.01624
G1 F8640
G1 X140.025 Y109.513 E-0.76000
G1 E-0.04000 F2100.00000
G1 Z0.800 F10800.000
G1 X113.864 Y90.408
G1 Z0.200
G1 E0.80000 F2100.00000
G1 F1200
G1 X113.564 Y90.809 E0.03988
G1 X113.177 Y91.106 E0.03877
G1 X112.749 Y91.283 E0.03687
G1 X112.253 Y91.355 E0.03988
G1 X111.770 Y91.291 E0.03877
G1 X111.342 Y91.114 E0.03687
G1 X110.941 Y90.814 E0.03988
G1 X110.644 Y90.427 E0.03877
G1 X110.459 Y89.980 E0.03852
G1 X110.396 Y89.500 E0.03852
G1 X110.459 Y89.020 E0.03852
G1 X110.636 Y88.592 E0.03687
G1 X110.936 Y88.191 E0.03988
G1 X111.323 Y87.894 E0.03877
G1 X111.770 Y87.709 E0.03852
G1 X112.229 Y87.648 E0.03687
G1 X112.727 Y87.708 E0.03988
G1 X113.177 Y87.894 E0.03877
G1 X113.561 Y88.189 E0.03852
G1 X113.856 Y88.573 E0.03852
G1 X114.041 Y89.020 E0.03852
G1 X114.104 Y89.500 E0.03852
G1 X114.041 Y89.980 E0.03852
G1 X113.887 Y90.353 E0.03210
G1 X114.067 Y90.753 F10800.000
G1 F8640
G1 X113.564 Y90.809 E-0.12918
G1 X113.177 Y91.106 E-0.11250
G1 X112.749 Y91.283 E-0.10698
G1 X112.253 Y91.355 E-0.11571
G1 X111.770 Y91.291 E-0.11250
G1 X111.342 Y91.114 E-0.10698
G1 X111.078 Y90.916 E-0.07615
G1 E-0.04000 F2100.00000
G1 Z0.800 F10800.000
G1 X116.467 Y87.500
G1 Z0.200
G1 E0.80000 F2100.00000
G1 F1200
G1 X116.111 Y87.547 E0.02862
G1 X115.748 Y87.697 E0.03125
G1 X115.434 Y87.938 E0.03150
G1 X115.191 Y88.263 E0.03226
G1 X115.047 Y88.611 E0.02996
G1 X114.996 Y89.000 E0.03125
G1 X115.047 Y89.389 E0.03125
G1 X115.197 Y89.752 E0.03125
G1 X115.436 Y90.064 E0.03125
G1 X115.748 Y90.303 E0.03125
G1 X116.111 Y90.453 E0.03125
G1 X116.500 Y90.504 E0.03125
G1 X116.889 Y90.453 E0.03125
G1 X117.252 Y90.303 E0.03125
G1 X117.566 Y90.062 E0.03150
G1 X117.809 Y89.737 E0.03226
G1 X117.953 Y89.389 E0.02996
G1 X118.004 Y89.000 E0.03125
G1 X117.953 Y88.611 E0.03125
G1 X117.803 Y88.248 E0.03125
G1 X117.564 Y87.936 E0.03125
G1 X117.252 Y87.697 E0.03125
G1 X116.886 Y87.546 E0.03150
G1 X116.502 Y87.500 E0.03078
G1 X121.467 Y87.500 E0.39511
G1 X121.111 Y87.547 E0.02862
G1 X120.748 Y87.697 E0.03125
G1 X120.434 Y87.938 E0.03150
G1 X120.191 Y88.263 E0.03226
G1 X120.047 Y88.611 E0.02996
G1 X119.996 Y89.000 E0.03125
G1 X120.047 Y89.389 E0.03125
G1 X120.197 Y89.752 E0.03125
G1 X120.436 Y90.064 E0.03125
G1 X120.748 Y90.303 E0.03125
G1 X121.111 Y90.453 E0.03125
G1 X121.500 Y90.504 E0.03125
G1 X121.889 Y90.453 E0.03125
G1 X122.252 Y90.303 E0.03125
G1 X122.564 Y90.064 E0.03125
G1 X122.803 Y89.752 E0.03125
G1 X122.953 Y89.389 E0.03125
G1 X123.004 Y89.000 E0.03125
G1 X122.953 Y88.611 E0.03125
G1 X122.803 Y88.248 E0.03125
G1 X122.564 Y87.936 E0.03125
G1 X122.252 Y87.697 E0.03125
G1 X121.886 Y87.546 E0.03150
G1 X121.502 Y87.500 E0.03078
G1 X126.467 Y87.500 E0.39511
G1 X126.111 Y87.547 E0.02862
G1 X125.748 Y87.697 E0.03125
G1 X125.436 Y87.936 E0.03125
G1 X125.197 Y88.248 E0.03125
G1 X125.047 Y88.611 E0.03125
G1 X124.996 Y89.000 E0.03125
G1 X125.047 Y89.389 E0.03125
G1 X125.197 Y89.752 E0.03125
G1 X125.436 Y90.064 E0.03125
G1 X125.748 Y90.303 E0.03125
G1 X126.111 Y90.453 E0.03125
G1 X126.500 Y90.504 E0.03125
G1 X126.889 Y90.453 E0.03125
G1 X127.252 Y90.303 E0.03125
G1 X127.564 Y90.064 E0.03125
G1 X127.803 Y89.752 E0.03125
G1 X127.953 Y89.389 E0.03125
G1 X128.004 Y89.000 E0.03125
G1 X127.953 Y88.611 E0.03125
G1 X127.803 Y88.248 E0.03125
G1 X127.564 Y87.936 E0.03125
G1 X127.252 Y87.697 E0.03125
G1 X126.886 Y87.546 E0.03150
G1 X126.502 Y87.500 E0.03078
G1 X131.467 Y87.500 E0.39511
G1 X131.111 Y87.547 E0.02862
G1 X130.748 Y87.697 E0.03125
G1 X130.436 Y87.936 E0.03125
G1 X130.197 Y88.248 E0.03125
G1 X130.047 Y88.611 E0.03125
G1 X129.996 Y89.000 E0.03125
G1 X130.047 Y89.389 E0.03125
G1 X130.197 Y89.752 E0.03125
G1 X130.436 Y90.064 E0.03125
G1 X130.748 Y90.303 E0.03125
G1 X131.111 Y90.453 E0.03125
G1 X131.500 Y90.504 E0.03125
G1 X131.889 Y90.453 E0.03125
G1 X132.252 Y90.303 E0.03125
G1 X132.566 Y90.062 E0.03150
G1 X132.809 Y89.737 E0.03226
G1 X132.953 Y89.389 E0.02996
G1 X133.004 Y89.000 E0.03125
G1 X132.953 Y88.611 E0.03125
G1 X132.803 Y88.248 E0.03125
G1 X132.564 Y87.936 E0.03125
G1 X132.252 Y87.697 E0.03125
G1 X131.886 Y87.546 E0.03150
G1 X131.502 Y87.500 E0.03078
G1 X136.467 Y87.500 E0.39511
G1 X136.111 Y87.547 E0.02862
G1 X135.748 Y87.697 E0.03125
G1 X135.436 Y87.936 E0.03125
G1 X135.197 Y88.248 E0.03125
G1 X135.047 Y88.611 E0.03125
G1 X134.996 Y89.000 E0.03125
G1 X135.047 Y89.389 E0.03125
G1 X135.197 Y89.752 E0.03125
G1 X135.436 Y90.064 E0.03125
G1 X135.748 Y90.303 E0.03125
G1 X136.111 Y90.453 E0.03125
G1 X136.500 Y90.504 E0.03125
G1 X136.889 Y90.453 E0.03125
G1 X137.252 Y90.303 E0.03125
G1 X137.564 Y90.064 E0.03125
G1 X137.803 Y89.752 E0.03125
G1 X137.953 Y89.389 E0.03125
G1 X138.004 Y89.000 E0.03125
G1 X137.953 Y88.611 E0.03125
G1 X137.803 Y88.248 E0.03125
G1 X137.564 Y87.936 E0.03125
G1 X137.252 Y87.697 E0.03125
G1 X136.886 Y87.546 E0.03150
G1 X136.502 Y87.500 E0.03078
G1 X141.000 Y87.500 E0.35792
G1 X141.000 Y122.500 E2.78535
G1 X136.533 Y122.500 E0.35551
G1 X136.889 Y122.453 E0.02862
G1 X137.252 Y122.303 E0.03125
G1 X137.564 Y122.064 E0.03125
G1 X137.803 Y121.752 E0.03125
G1 X137.953 Y121.389 E0.03125
G1 X138.004 Y121.000 E0.03125
G1 X137.953 Y120.611 E0.03125
G1 X137.803 Y120.248 E0.03125
G1 X137.564 Y119.936 E0.03125
G1 X137.252 Y119.697 E0.03125
G1 X136.886 Y119.546 E0.03150
G1 X136.484 Y119.498 E0.03226
G1 X136.111 Y119.547 E0.02996
G1 X135.748 Y119.697 E0.03125
G1 X135.436 Y119.936 E0.03125
G1 X135.197 Y120.248 E0.03125
G1 X135.047 Y120.611 E0.03125
G1 X134.996 Y121.000 E0.03125
G1 X135.047 Y121.389 E0.03125
G1 X135.197 Y121.752 E0.03125
G1 X135.436 Y122.064 E0.03125
G1 X135.748 Y122.303 E0.03125
G1 X136.111 Y122.453 E0.03125
G1 X136.467 Y122.500 E0.02862
G1 X131.533 Y122.500 E0.39269
G1 X131.889 Y122.453 E0.02862
G1 X132.252 Y122.303 E0.03125
G1 X132.564 Y122.064 E0.03125
G1 X132.803 Y121.752 E0.03125
G1 X132.953 Y121.389 E0.03125
G1 X133.004 Y121.000 E0.03125
