; generated by PrusaSlicer 2.1.1+win64 on 2020-03-11 at 02:11:38 UTC

; 

; external perimeters extrusion width = 0.45mm
; perimeters extrusion width = 0.45mm
; infill extrusion width = 0.45mm
; solid infill extrusion width = 0.45mm
; top infill extrusion width = 0.40mm
; first layer extrusion width = 1.00mm

M73 P0 R44
M73 Q0 S45
M201 X1000 Y1000 Z1000 E5000 ; sets maximum accelerations, mm/sec^2
M203 X200 Y200 Z12 E120 ; sets maximum feedrates, mm/sec
M204 P1250 R1250 T1250 ; sets acceleration (P, T) and retract acceleration (R), mm/sec^2
M205 X8.00 Y8.00 Z0.40 E4.50 ; sets the jerk limits, mm/sec
M205 S0 T0 ; sets the minimum extruding and travel feed rate, mm/sec
M107
M862.3 P "MK3S" ; printer model check
M862.1 P0.4 ; nozzle diameter check
M115 U3.8.1 ; tell printer latest fw version
G90 ; use absolute coordinates
M83 ; extruder relative mode
M104 S215 ; set extruder temp
M140 S60 ; set bed temp
M190 S60 ; wait for bed temp
M109 S215 ; wait for extruder temp
G28 W ; home all without mesh bed level
G80 ; mesh bed leveling
G1 Y-3.0 F1000.0 ; go outside print area
G92 E0.0
G1 X60.0 E9.0 F1000.0 ; intro line
M73 Q0 S45
M73 P0 R44
G1 X100.0 E12.5 F1000.0 ; intro line
G92 E0.0
M221 S95
G21 ; set units to millimeters
G90 ; use absolute coordinates
M83 ; use relative distances for extrusion
M900 K30 ; Filament gcode
;BEFORE_LAYER_CHANGE
G92 E0.0
;0.2


G1 E-0.80000 F2100.00000
G1 Z0.600 F10800.000
;AFTER_LAYER_CHANGE
;0.2
G1 X107.496 Y84.499
G1 Z0.200
G1 E0.80000 F2100.00000
M204 S1000
G1 F1200
G1 X107.989 Y84.116 E0.04970
G1 X108.593 Y83.860 E0.05216
G1 X109.238 Y83.771 E0.05185
G1 X176.852 Y83.771 E5.38078
G1 X177.781 Y83.954 E0.07537
G1 X178.577 Y84.474 E0.07567
G1 X179.117 Y85.252 E0.07537
G1 X179.325 Y86.176 E0.07537
G1 X179.325 Y123.828 E2.99637
G1 X179.228 Y124.441 E0.04939
G1 X178.980 Y125.014 E0.04970
G1 X178.599 Y125.504 E0.04939
G1 X178.108 Y125.884 E0.04939
G1 X177.505 Y126.140 E0.05216
G1 X176.860 Y126.229 E0.05185
G1 X109.219 Y126.228 E5.38294
G1 X108.589 Y126.139 E0.05062
G1 X108.006 Y125.894 E0.05032
G1 X107.504 Y125.509 E0.05032
G1 X107.116 Y125.011 E0.05032
G1 X106.862 Y124.415 E0.05154
G1 X106.772 Y123.773 E0.05154
G1 X106.772 Y86.196 E2.99049
G1 X106.865 Y85.574 E0.05001
G1 X107.112 Y84.996 E0.05001
G1 X107.459 Y84.546 E0.04523
G1 F8640
G1 X107.989 Y84.116 E-0.15766
G1 X108.593 Y83.860 E-0.15133
G1 X109.238 Y83.771 E-0.15044
G1 X110.540 Y83.771 E-0.30057
G1 E-0.04000 F2100.00000
G1 Z0.800 F10800.000
G1 X111.683 Y119.007
G1 Z0.200
G1 E0.80000 F2100.00000
G1 F1200
G1 X112.130 Y118.948 E0.03588
G1 X112.614 Y119.006 E0.03879
G1 X113.052 Y119.187 E0.03773
G1 X113.426 Y119.474 E0.03748
G1 X113.713 Y119.848 E0.03748
G1 X113.893 Y120.283 E0.03748
G1 X113.954 Y120.750 E0.03748
G1 X113.893 Y121.217 E0.03748
G1 X113.720 Y121.634 E0.03588
G1 X113.428 Y122.024 E0.03879
G1 X113.052 Y122.313 E0.03773
G1 X112.617 Y122.493 E0.03748
G1 X112.150 Y122.554 E0.03748
G1 X111.683 Y122.493 E0.03748
G1 X111.248 Y122.313 E0.03748
G1 X110.874 Y122.026 E0.03748
G1 X110.587 Y121.652 E0.03748
G1 X110.407 Y121.217 E0.03748
G1 X110.346 Y120.750 E0.03748
G1 X110.407 Y120.283 E0.03748
G1 X110.587 Y119.848 E0.03748
G1 X110.874 Y119.474 E0.03748
G1 X111.248 Y119.187 E0.03748
G1 X111.628 Y119.030 E0.03271
G1 X111.787 Y118.621 F10800.000
G1 F8640
G1 X112.130 Y118.948 E-0.11755
G1 X112.614 Y119.006 E-0.11255
G1 X113.052 Y119.187 E-0.10948
G1 X113.426 Y119.474 E-0.10876
G1 X113.713 Y119.848 E-0.10876
G1 X113.893 Y120.283 E-0.10876
G1 X113.946 Y120.687 E-0.09413
G1 E-0.04000 F2100.00000
G1 Z0.800 F10800.000
G1 X135.837 Y105.902
G1 Z0.200
G1 E0.80000 F2100.00000
G1 F1200
G1 X135.657 Y105.467 E0.03748
G1 X135.596 Y105.000 E0.03748
G1 X135.657 Y104.533 E0.03748
G1 X135.830 Y104.116 E0.03588
G1 X136.122 Y103.726 E0.03879
G1 X136.498 Y103.437 E0.03773
G1 X136.933 Y103.257 E0.03748
G1 X137.380 Y103.198 E0.03588
G1 X137.864 Y103.256 E0.03879
G1 X138.302 Y103.437 E0.03773
G1 X138.676 Y103.724 E0.03748
G1 X138.963 Y104.098 E0.03748
G1 X139.143 Y104.533 E0.03748
G1 X139.204 Y105.000 E0.03748
G1 X139.143 Y105.467 E0.03748
G1 X138.970 Y105.884 E0.03588
G1 X138.678 Y106.274 E0.03879
G1 X138.302 Y106.563 E0.03773
G1 X137.867 Y106.743 E0.03748
G1 X137.400 Y106.804 E0.03748
G1 X136.933 Y106.743 E0.03748
G1 X136.498 Y106.563 E0.03748
G1 X136.124 Y106.276 E0.03748
G1 X135.874 Y105.950 E0.03271
G1 X135.437 Y105.902 F10800.000
G1 F8640
G1 X135.657 Y105.467 E-0.12220
G1 X135.596 Y105.000 E-0.10876
G1 X135.657 Y104.533 E-0.10876
G1 X135.830 Y104.116 E-0.10412
G1 X136.122 Y103.726 E-0.11255
G1 X136.498 Y103.437 E-0.10949
G1 X136.874 Y103.281 E-0.09413
G1 E-0.04000 F2100.00000
G1 Z0.800 F10800.000
G1 X139.293 Y107.009
G1 Z0.200
G1 E0.80000 F2100.00000
G1 F1200
G1 X139.293 Y122.293 E1.21634
G1 X138.148 Y122.293 E0.09110
G1 X138.220 Y121.750 E0.04358
G1 X138.136 Y121.111 E0.05131
G1 X137.889 Y120.515 E0.05131
G1 X137.496 Y120.004 E0.05131
G1 X136.985 Y119.611 E0.05131
G1 X136.381 Y119.361 E0.05204
G1 X135.728 Y119.283 E0.05231
G1 X135.111 Y119.364 E0.04954
G1 X134.515 Y119.611 E0.05131
G1 X134.004 Y120.004 E0.05131
G1 X133.611 Y120.515 E0.05131
G1 X133.364 Y121.111 E0.05131
G1 X133.280 Y121.750 E0.05131
G1 X133.352 Y122.293 E0.04358
G1 X133.148 Y122.293 E0.01621
G1 X133.220 Y121.750 E0.04358
G1 X133.136 Y121.111 E0.05131
G1 X132.889 Y120.515 E0.05131
G1 X132.496 Y120.004 E0.05131
G1 X131.985 Y119.611 E0.05131
G1 X131.381 Y119.361 E0.05204
G1 X130.728 Y119.283 E0.05231
G1 X130.111 Y119.364 E0.04954
G1 X129.515 Y119.611 E0.05131
G1 X129.004 Y120.004 E0.05131
G1 X128.611 Y120.515 E0.05131
G1 X128.364 Y121.111 E0.05131
G1 X128.280 Y121.750 E0.05131
G1 X128.352 Y122.293 E0.04358
G1 X128.148 Y122.293 E0.01621
G1 X128.220 Y121.750 E0.04358
G1 X128.136 Y121.111 E0.05131
G1 X127.889 Y120.515 E0.05131
G1 X127.496 Y120.004 E0.05131
G1 X126.985 Y119.611 E0.05131
G1 X126.381 Y119.361 E0.05204
G1 X125.728 Y119.283 E0.05231
G1 X125.111 Y119.364 E0.04954
G1 X124.515 Y119.611 E0.05131
G1 X124.004 Y120.004 E0.05131
G1 X123.611 Y120.515 E0.05131
G1 X123.364 Y121.111 E0.05131
G1 X123.280 Y121.750 E0.05131
G1 X123.352 Y122.293 E0.04358
G1 X123.148 Y122.293 E0.01621
G1 X123.220 Y121.750 E0.04358
G1 X123.135 Y121.111 E0.05131
G1 X122.889 Y120.515 E0.05131
G1 X122.496 Y120.004 E0.05131
G1 X121.985 Y119.611 E0.05131
G1 X121.381 Y119.361 E0.05204
G1 X120.728 Y119.283 E0.05231
G1 X120.111 Y119.364 E0.04954
G1 X119.515 Y119.611 E0.05131
G1 X119.004 Y120.004 E0.05131
G1 X118.611 Y120.515 E0.05131
G1 X118.364 Y121.111 E0.05131
G1 X118.280 Y121.750 E0.05131
G1 X118.352 Y122.293 E0.04358
G1 X118.148 Y122.293 E0.01621
G1 X118.220 Y121.750 E0.04358
G1 X118.135 Y121.111 E0.05131
G1 X117.889 Y120.515 E0.05131
G1 X117.496 Y120.004 E0.05131
G1 X116.985 Y119.611 E0.05131
G1 X116.381 Y119.361 E0.05204
G1 X115.728 Y119.283 E0.05231
G1 X115.111 Y119.364 E0.04954
G1 X114.631 Y119.563 E0.04136
G1 X114.549 Y119.365 E0.01707
G1 X114.108 Y118.792 E0.05754
G1 X113.535 Y118.351 E0.05754
G1 X112.858 Y118.071 E0.05827
G1 X112.124 Y117.984 E0.05885
G1 X111.433 Y118.075 E0.05546
G1 X110.765 Y118.351 E0.05754
G1 X110.707 Y118.396 E0.00583
G1 X110.707 Y91.604 E2.13215
G1 X110.765 Y91.649 E0.00583
G1 X111.433 Y91.925 E0.05754
G1 X112.150 Y92.020 E0.05754
G1 X112.867 Y91.925 E0.05754
G1 X113.535 Y91.649 E0.05754
G1 X114.116 Y91.203 E0.05827
G1 X114.559 Y90.611 E0.05885
G1 X114.631 Y90.437 E0.01499
G1 X115.111 Y90.636 E0.04136
G1 X115.750 Y90.720 E0.05131
G1 X116.389 Y90.636 E0.05131
G1 X116.985 Y90.389 E0.05131
G1 X117.496 Y89.996 E0.05131
G1 X117.889 Y89.485 E0.05131
G1 X118.135 Y88.889 E0.05131
G1 X118.220 Y88.250 E0.05131
G1 X118.148 Y87.707 E0.04358
G1 X118.352 Y87.707 E0.01621
G1 X118.280 Y88.250 E0.04358
G1 X118.364 Y88.889 E0.05131
G1 X118.611 Y89.485 E0.05131
G1 X119.009 Y90.004 E0.05204
G1 X119.536 Y90.397 E0.05231
G1 X120.111 Y90.636 E0.04954
G1 X120.750 Y90.720 E0.05131
G1 X121.389 Y90.636 E0.05131
G1 X121.985 Y90.389 E0.05131
G1 X122.496 Y89.996 E0.05131
G1 X122.889 Y89.485 E0.05131
G1 X123.135 Y88.889 E0.05131
G1 X123.220 Y88.250 E0.05131
G1 X123.148 Y87.707 E0.04358
G1 X123.352 Y87.707 E0.01621
G1 X123.280 Y88.250 E0.04358
G1 X123.364 Y88.889 E0.05131
G1 X123.611 Y89.485 E0.05131
G1 X124.009 Y90.004 E0.05204
G1 X124.536 Y90.397 E0.05231
G1 X125.111 Y90.636 E0.04954
G1 X125.750 Y90.720 E0.05131
G1 X126.389 Y90.636 E0.05131
G1 X126.985 Y90.389 E0.05131
G1 X127.496 Y89.996 E0.05131
G1 X127.889 Y89.485 E0.05131
G1 X128.136 Y88.889 E0.05131
G1 X128.220 Y88.250 E0.05131
G1 X128.148 Y87.707 E0.04358
G1 X128.352 Y87.707 E0.01621
G1 X128.280 Y88.250 E0.04358
G1 X128.364 Y88.889 E0.05131
G1 X128.611 Y89.485 E0.05131
G1 X129.009 Y90.004 E0.05204
G1 X129.536 Y90.397 E0.05231
G1 X130.111 Y90.636 E0.04954
G1 X130.750 Y90.720 E0.05131
G1 X131.389 Y90.636 E0.05131
G1 X131.985 Y90.389 E0.05131
G1 X132.496 Y89.996 E0.05131
G1 X132.889 Y89.485 E0.05131
G1 X133.136 Y88.889 E0.05131
G1 X133.220 Y88.250 E0.05131
G1 X133.148 Y87.707 E0.04358
G1 X133.352 Y87.707 E0.01621
G1 X133.280 Y88.250 E0.04358
G1 X133.364 Y88.889 E0.05131
G1 X133.611 Y89.485 E0.05131
G1 X134.009 Y90.004 E0.05204
G1 X134.536 Y90.397 E0.05231
G1 X135.111 Y90.636 E0.04954
G1 X135.750 Y90.720 E0.05131
G1 X136.389 Y90.636 E0.05131
G1 X136.985 Y90.389 E0.05131
G1 X137.496 Y89.996 E0.05131
G1 X137.889 Y89.485 E0.05131
G1 X138.136 Y88.889 E0.05131
G1 X138.220 Y88.250 E0.05131
G1 X138.148 Y87.707 E0.04358
G1 X139.293 Y87.707 E0.09110
G1 X139.293 Y102.991 E1.21634
G1 X138.785 Y102.601 E0.05097
G1 X138.108 Y102.321 E0.05827
G1 X137.374 Y102.234 E0.05885
G1 X136.683 Y102.325 E0.05546
G1 X136.015 Y102.601 E0.05754
G1 X135.434 Y103.047 E0.05827
G1 X134.991 Y103.639 E0.05885
G1 X134.725 Y104.283 E0.05546
G1 X134.630 Y105.000 E0.05754
G1 X134.725 Y105.717 E0.05754
G1 X135.001 Y106.385 E0.05754
G1 X135.442 Y106.958 E0.05754
G1 X136.015 Y107.399 E0.05754
G1 X136.683 Y107.675 E0.05754
G1 X137.400 Y107.770 E0.05754
G1 X138.117 Y107.675 E0.05754
G1 X138.785 Y107.399 E0.05754
G1 X139.245 Y107.045 E0.04619
G1 F8640
G1 X139.256 Y110.337 E-0.76000
G1 E-0.04000 F2100.00000
G1 Z0.800 F10800.000
G1 X113.720 Y90.134
G1 Z0.200
G1 E0.80000 F2100.00000
G1 F1200
G1 X113.428 Y90.524 E0.03879
G1 X113.052 Y90.813 E0.03773
G1 X112.617 Y90.993 E0.03748
G1 X112.150 Y91.054 E0.03748
G1 X111.683 Y90.993 E0.03748
G1 X111.248 Y90.813 E0.03748
G1 X110.874 Y90.526 E0.03748
G1 X110.587 Y90.152 E0.03748
G1 X110.407 Y89.717 E0.03748
G1 X110.346 Y89.250 E0.03748
G1 X110.407 Y88.783 E0.03748
G1 X110.587 Y88.348 E0.03748
G1 X110.874 Y87.974 E0.03748
G1 X111.248 Y87.687 E0.03748
G1 X111.683 Y87.507 E0.03748
G1 X112.130 Y87.448 E0.03588
G1 X112.614 Y87.506 E0.03879
G1 X113.052 Y87.687 E0.03773
G1 X113.426 Y87.974 E0.03748
G1 X113.713 Y88.348 E0.03748
G1 X113.893 Y88.783 E0.03748
G1 X113.954 Y89.250 E0.03748
G1 X113.893 Y89.717 E0.03748
G1 X113.743 Y90.078 E0.03111
G1 X113.923 Y90.478 F10800.000
G1 F8640
G1 X113.428 Y90.524 E-0.12602
G1 X113.052 Y90.813 E-0.10948
G1 X112.617 Y90.993 E-0.10876
G1 X112.150 Y91.054 E-0.10876
G1 X111.683 Y90.993 E-0.10876
G1 X111.248 Y90.813 E-0.10876
G1 X110.941 Y90.577 E-0.08945
G1 E-0.04000 F2100.00000
G1 Z0.800 F10800.000
G1 X115.717 Y86.750
G1 Z0.200
G1 E0.80000 F2100.00000
G1 F1200
G1 X115.361 Y86.797 E0.02862
G1 X114.998 Y86.947 E0.03125
G1 X114.686 Y87.186 E0.03125
G1 X114.447 Y87.498 E0.03125
G1 X114.297 Y87.861 E0.03125
G1 X114.246 Y88.250 E0.03125
G1 X114.297 Y88.639 E0.03125
G1 X114.447 Y89.002 E0.03125
G1 X114.688 Y89.316 E0.03150
G1 X115.013 Y89.559 E0.03226
G1 X115.361 Y89.703 E0.02996
G1 X115.750 Y89.754 E0.03125
G1 X116.139 Y89.703 E0.03125
G1 X116.502 Y89.553 E0.03125
G1 X116.814 Y89.314 E0.03125
G1 X117.053 Y89.002 E0.03125
G1 X117.203 Y88.639 E0.03125
G1 X117.254 Y88.250 E0.03125
G1 X117.203 Y87.861 E0.03125
G1 X117.053 Y87.498 E0.03125
G1 X116.814 Y87.186 E0.03125
G1 X116.502 Y86.947 E0.03125
G1 X116.136 Y86.796 E0.03150
G1 X115.752 Y86.750 E0.03078
G1 X120.717 Y86.750 E0.39511
G1 X120.361 Y86.797 E0.02862
G1 X119.998 Y86.947 E0.03125
G1 X119.686 Y87.186 E0.03125
G1 X119.447 Y87.498 E0.03125
G1 X119.297 Y87.861 E0.03125
G1 X119.246 Y88.250 E0.03125
G1 X119.297 Y88.639 E0.03125
G1 X119.447 Y89.002 E0.03125
G1 X119.688 Y89.316 E0.03150
G1 X120.013 Y89.559 E0.03226
G1 X120.361 Y89.703 E0.02996
G1 X120.750 Y89.754 E0.03125
G1 X121.139 Y89.703 E0.03125
G1 X121.502 Y89.553 E0.03125
G1 X121.814 Y89.314 E0.03125
G1 X122.053 Y89.002 E0.03125
G1 X122.203 Y88.639 E0.03125
G1 X122.254 Y88.250 E0.03125
G1 X122.203 Y87.861 E0.03125
G1 X122.053 Y87.498 E0.03125
G1 X121.814 Y87.186 E0.03125
G1 X121.502 Y86.947 E0.03125
G1 X121.136 Y86.796 E0.03150
G1 X120.752 Y86.750 E0.03078
G1 X125.717 Y86.750 E0.39511
G1 X125.361 Y86.797 E0.02862
G1 X124.998 Y86.947 E0.03125
G1 X124.686 Y87.186 E0.03125
G1 X124.447 Y87.498 E0.03125
G1 X124.297 Y87.861 E0.03125
G1 X124.246 Y88.250 E0.03125
G1 X124.297 Y88.639 E0.03125
G1 X124.447 Y89.002 E0.03125
G1 X124.688 Y89.316 E0.03150
G1 X125.013 Y89.559 E0.03226
G1 X125.361 Y89.703 E0.02996
G1 X125.750 Y89.754 E0.03125
G1 X126.139 Y89.703 E0.03125
G1 X126.502 Y89.553 E0.03125
G1 X126.814 Y89.314 E0.03125
G1 X127.053 Y89.002 E0.03125
G1 X127.203 Y88.639 E0.03125
G1 X127.254 Y88.250 E0.03125
G1 X127.203 Y87.861 E0.03125
G1 X127.053 Y87.498 E0.03125
G1 X126.814 Y87.186 E0.03125
G1 X126.502 Y86.947 E0.03125
G1 X126.136 Y86.796 E0.03150
G1 X125.752 Y86.750 E0.03078
G1 X130.717 Y86.750 E0.39511
G1 X130.361 Y86.797 E0.02862
G1 X129.998 Y86.947 E0.03125
G1 X129.686 Y87.186 E0.03125
G1 X129.447 Y87.498 E0.03125
G1 X129.297 Y87.861 E0.03125
G1 X129.246 Y88.250 E0.03125
G1 X129.297 Y88.639 E0.03125
G1 X129.447 Y89.002 E0.03125
G1 X129.688 Y89.316 E0.03150
G1 X130.013 Y89.559 E0.03226
G1 X130.361 Y89.703 E0.02996
G1 X130.750 Y89.754 E0.03125
G1 X131.139 Y89.703 E0.03125
G1 X131.502 Y89.553 E0.03125
G1 X131.814 Y89.314 E0.03125
G1 X132.053 Y89.002 E0.03125
G1 X132.203 Y88.639 E0.03125
G1 X132.254 Y88.250 E0.03125
G1 X132.203 Y87.861 E0.03125
G1 X132.053 Y87.498 E0.03125
G1 X131.814 Y87.186 E0.03125
G1 X131.502 Y86.947 E0.03125
G1 X131.136 Y86.796 E0.03150
G1 X130.752 Y86.750 E0.03078
G1 X135.717 Y86.750 E0.39511
G1 X135.361 Y86.797 E0.02862
G1 X134.998 Y86.947 E0.03125
G1 X134.686 Y87.186 E0.03125
G1 X134.447 Y87.498 E0.03125
G1 X134.297 Y87.861 E0.03125
G1 X134.246 Y88.250 E0.03125
G1 X134.297 Y88.639 E0.03125
G1 X134.447 Y89.002 E0.03125
G1 X134.688 Y89.316 E0.03150
G1 X135.013 Y89.559 E0.03226
G1 X135.361 Y89.703 E0.02996
G1 X135.750 Y89.754 E0.03125
G1 X136.139 Y89.703 E0.03125
G1 X136.502 Y89.553 E0.03125
G1 X136.814 Y89.314 E0.03125
G1 X137.053 Y89.002 E0.03125
G1 X137.203 Y88.639 E0.03125
G1 X137.254 Y88.250 E0.03125
G1 X137.203 Y87.861 E0.03125
G1 X137.053 Y87.498 E0.03125
G1 X136.814 Y87.186 E0.03125
G1 X136.502 Y86.947 E0.03125
G1 X136.136 Y86.796 E0.03150
G1 X135.752 Y86.750 E0.03078
G1 X140.250 Y86.750 E0.35792
G1 X140.250 Y123.250 E2.90472
G1 X135.783 Y123.250 E0.35551
G1 X136.139 Y123.203 E0.02862
G1 X136.502 Y123.053 E0.03125
G1 X136.814 Y122.814 E0.03125
G1 X137.053 Y122.502 E0.03125
G1 X137.203 Y122.139 E0.03125
G1 X137.254 Y121.750 E0.03125
G1 X137.203 Y121.361 E0.03125
G1 X137.053 Y120.998 E0.03125
G1 X136.814 Y120.686 E0.03125
G1 X136.502 Y120.447 E0.03125
G1 X136.136 Y120.296 E0.03150
G1 X135.734 Y120.248 E0.03226
G1 X135.361 Y120.297 E0.02996
G1 X134.998 Y120.447 E0.03125
G1 X134.686 Y120.686 E0.03125
G1 X134.447 Y120.998 E0.03125
G1 X134.297 Y121.361 E0.03125
G1 X134.246 Y121.750 E0.03125
G1 X134.297 Y122.139 E0.03125
G1 X134.447 Y122.502 E0.03125
G1 X134.686 Y122.814 E0.03125
G1 X134.998 Y123.053 E0.03125
G1 X135.361 Y123.203 E0.03125
G1 X135.717 Y123.250 E0.02862
G1 X130.783 Y123.250 E0.39269
G1 X131.139 Y123.203 E0.02862
G1 X131.502 Y123.053 E0.03125
G1 X131.814 Y122.814 E0.03125
G1 X132.053 Y122.502 E0.03125
G1 X132.203 Y122.139 E0.03125
G1 X132.254 Y121.750 E0.03125
G1 X132.203 Y121.361 E0.03125
G1 X132.053 Y120.998 E0.03125
G1 X131.814 Y120.686 E0.03125
G1 X131.502 Y120.447 E0.03125
G1 X131.136 Y120.296 E0.03150
G1 X130.734 Y120.248 E0.03226
G1 X130.361 Y120.297 E0.02996
G1 X129.998 Y120.447 E0.03125
