; generated by PrusaSlicer 2.3.0+win64 on 2021-02-27 at 22:06:59 UTC

; 

; external perimeters extrusion width = 0.45mm
; perimeters extrusion width = 0.45mm
; infill extrusion width = 0.45mm
; solid infill extrusion width = 0.45mm
; top infill extrusion width = 0.40mm
; support material extrusion width = 0.35mm
; first layer extrusion width = 0.42mm

M73 P0 R99
M73 Q0 S101
M201 X1000 Y1000 Z200 E5000 ; sets maximum accelerations, mm/sec^2
M203 X200 Y200 Z12 E120 ; sets maximum feedrates, mm/sec
M204 P1250 R1250 T1250 ; sets acceleration (P, T) and retract acceleration (R), mm/sec^2
M205 X8.00 Y8.00 Z0.40 E4.50 ; sets the jerk limits, mm/sec
M205 S0 T0 ; sets the minimum extruding and travel feed rate, mm/sec
M107
;TYPE:Custom
M862.3 P "MK3S" ; printer model check
M862.1 P0.4 ; nozzle diameter check
M115 U3.9.1 ; tell printer latest fw version
G90 ; use absolute coordinates
M83 ; extruder relative mode
M104 S215 ; set extruder temp
M140 S60 ; set bed temp
M190 S60 ; wait for bed temp
M109 S215 ; wait for extruder temp
G28 W ; home all without mesh bed level
G80 ; mesh bed leveling
G1 Y-3.0 F1000.0 ; go outside print area
G92 E0.0
G1 X60.0 E9.0 F1000.0 ; intro line
G1 X100.0 E12.5 F1000.0 ; intro line
G92 E0.0
M221 S95

; Don't change E values below. Excessive value can damage the printer.
M907 E430 ; set extruder motor current
G21 ; set units to millimeters
G90 ; use absolute coordinates
M83 ; use relative distances for extrusion
M900 K0.05 ; Filament gcode LA 1.5
M900 K30 ; Filament gcode LA 1.0
;LAYER_CHANGE
;Z:0.2
;HEIGHT:0.2
;BEFORE_LAYER_CHANGE
G92 E0.0
;0.2


G1 E-0.80000 F2100.000
G1 Z0.600 F10800.000
;AFTER_LAYER_CHANGE
;0.2
G1 X150.791 Y107.213
G1 Z0.200
G1 E0.80000 F2100.000
M204 S1000
;TYPE:Skirt
;WIDTH:0.42
G1 F1200.000
G1 X99.207 Y107.213 E1.61739
M73 Q0 S100
G1 X99.174 Y113.295 E0.19067
G1 X98.846 Y114.408 E0.03639
G1 X98.315 Y115.314 E0.03294
G1 X97.469 Y116.184 E0.03803
G1 X96.449 Y116.827 E0.03783
G1 X95.029 Y117.214 E0.04614
G1 X81.784 Y117.186 E0.41528
G1 X80.501 Y116.806 E0.04194
G1 X79.434 Y116.105 E0.04006
G1 X78.513 Y115.079 E0.04322
G1 X78.149 Y114.403 E0.02406
G1 X77.900 Y113.709 E0.02313
G1 X77.798 Y109.370 E0.13607
G1 X77.506 Y108.870 E0.01816
G1 X77.111 Y107.430 E0.04682
G1 X77.111 Y102.570 E0.15239
G1 X77.505 Y101.130 E0.04680
G1 X77.787 Y100.646 E0.01756
G1 X77.805 Y96.897 E0.11756
G1 X78.019 Y95.933 E0.03098
G1 X78.688 Y94.681 E0.04449
G1 X79.616 Y93.744 E0.04135
G1 X80.415 Y93.233 E0.02976
G1 X81.304 Y92.896 E0.02979
G1 X81.406 Y92.879 E0.00325
G1 X168.510 Y92.859 E2.73109
G1 X169.405 Y93.157 E0.02956
G1 X170.512 Y93.841 E0.04084
G1 X171.309 Y94.679 E0.03624
G1 X171.830 Y95.553 E0.03192
G1 X172.167 Y96.679 E0.03685
G1 X172.205 Y100.635 E0.12402
G1 X172.494 Y101.130 E0.01798
G1 X172.889 Y102.570 E0.04682
G1 X172.889 Y107.430 E0.15239
G1 X172.495 Y108.870 E0.04681
G1 X172.207 Y109.362 E0.01788
G1 X172.140 Y113.515 E0.13021
G1 X171.843 Y114.405 E0.02944
G1 X171.146 Y115.526 E0.04138
G1 X170.080 Y116.487 E0.04500
G1 X169.403 Y116.851 E0.02408
G1 X168.704 Y117.101 E0.02329
G1 X155.001 Y117.214 E0.42967
G1 X153.768 Y116.916 E0.03976
G1 X152.932 Y116.496 E0.02935
G1 X151.505 Y115.070 E0.06325
G1 X151.093 Y114.258 E0.02853
G1 X150.830 Y113.326 E0.03037
G1 X150.791 Y107.273 E0.18979
G1 X151.166 Y106.836 F10800.000
G1 F1200.000
G1 X98.832 Y106.836 E1.64092
G1 X98.797 Y113.266 E0.20159
G1 X98.508 Y114.238 E0.03182
G1 X98.027 Y115.069 E0.03011
G1 X97.246 Y115.879 E0.03525
G1 X96.320 Y116.472 E0.03450
G1 X95.003 Y116.836 E0.04283
G1 X81.863 Y116.816 E0.41200
G1 X80.683 Y116.474 E0.03852
G1 X79.696 Y115.833 E0.03689
G1 X78.833 Y114.879 E0.04033
G1 X78.499 Y114.262 E0.02199
G1 X78.266 Y113.610 E0.02171
G1 X78.173 Y109.261 E0.13642
G1 X77.861 Y108.743 E0.01895
G1 X77.488 Y107.404 E0.04358
G1 X77.488 Y102.596 E0.15075
G1 X77.861 Y101.257 E0.04357
G1 X78.164 Y100.753 E0.01846
G1 X78.177 Y96.957 E0.11902
G1 X78.365 Y96.085 E0.02797
G1 X78.977 Y94.925 E0.04109
G1 X79.838 Y94.049 E0.03853
G1 X80.569 Y93.578 E0.02727
G1 X81.426 Y93.256 E0.02868
G1 X168.422 Y93.226 E2.72770
M73 P0 R98
G1 X169.227 Y93.490 E0.02658
G1 X170.257 Y94.120 E0.03783
G1 X171.021 Y94.923 E0.03477
G1 X171.494 Y95.725 E0.02920
G1 X171.790 Y96.710 E0.03224
G1 X171.829 Y100.743 E0.12645
G1 X172.139 Y101.257 E0.01884
G1 X172.512 Y102.596 E0.04358
G1 X172.512 Y107.404 E0.15075
G1 X172.139 Y108.743 E0.04358
G1 X171.831 Y109.254 E0.01871
G1 X171.773 Y113.425 E0.13079
G1 X171.509 Y114.228 E0.02649
G1 X170.872 Y115.266 E0.03818
G1 X169.880 Y116.167 E0.04203
G1 X169.262 Y116.501 E0.02201
G1 X168.607 Y116.736 E0.02183
G1 X155.022 Y116.837 E0.42595
G1 X153.881 Y116.555 E0.03686
G1 X153.129 Y116.173 E0.02642
G1 X151.827 Y114.871 E0.05774
G1 X151.451 Y114.137 E0.02586
G1 X151.199 Y113.248 E0.02897
G1 X151.167 Y106.896 E0.19916
G1 X151.542 Y106.459 F10800.000
G1 F1200.000
G1 X98.456 Y106.459 E1.66446
G1 X98.420 Y113.235 E0.21246
G1 X98.154 Y114.107 E0.02857
G1 X97.739 Y114.826 E0.02602
G1 X97.022 Y115.575 E0.03253
G1 X96.189 Y116.117 E0.03116
G1 X94.977 Y116.459 E0.03948
G1 X81.940 Y116.446 E0.40877
G1 X80.862 Y116.141 E0.03512
G1 X79.958 Y115.560 E0.03371
G1 X79.153 Y114.678 E0.03743
G1 X78.849 Y114.121 E0.01989
G1 X78.631 Y113.512 E0.02027
G1 X78.549 Y109.149 E0.13684
G1 X78.216 Y108.613 E0.01977
G1 X77.865 Y107.377 E0.04028
G1 X77.865 Y102.623 E0.14908
G1 X78.216 Y101.387 E0.04027
G1 X78.541 Y100.861 E0.01938
G1 X78.550 Y97.014 E0.12063
G1 X78.712 Y96.234 E0.02496
G1 X79.266 Y95.168 E0.03768
G1 X80.062 Y94.353 E0.03570
G1 X80.723 Y93.922 E0.02474
G1 X81.478 Y93.634 E0.02535
G1 X168.335 Y93.594 E2.72334
G1 X169.052 Y93.825 E0.02362
G1 X170.001 Y94.398 E0.03476
G1 X170.732 Y95.167 E0.03326
G1 X171.157 Y95.896 E0.02646
G1 X171.413 Y96.741 E0.02769
G1 X171.453 Y100.853 E0.12894
G1 X171.784 Y101.387 E0.01971
G1 X172.135 Y102.623 E0.04028
G1 X172.135 Y107.377 E0.14908
G1 X171.784 Y108.613 E0.04027
G1 X171.455 Y109.144 E0.01957
G1 X171.405 Y113.337 E0.13149
G1 X171.175 Y114.052 E0.02355
G1 X170.597 Y115.006 E0.03497
G1 X169.678 Y115.847 E0.03904
G1 X169.121 Y116.151 E0.01991
G1 X168.510 Y116.370 E0.02036
G1 X155.044 Y116.460 E0.42221
G1 X153.995 Y116.195 E0.03393
G1 X153.328 Y115.852 E0.02350
G1 X152.148 Y114.672 E0.05233
G1 X151.808 Y114.016 E0.02316
G1 X151.569 Y113.170 E0.02755
G1 X151.542 Y106.519 E0.20854
G1 X151.918 Y106.082 F10800.000
G1 F1200.000
G1 X98.081 Y106.082 E1.68804
G1 X98.051 Y113.154 E0.22172
G1 X97.815 Y113.940 E0.02574
G1 X97.449 Y114.583 E0.02322
G1 X96.794 Y115.273 E0.02982
G1 X96.055 Y115.763 E0.02781
G1 X94.950 Y116.082 E0.03607
G1 X82.015 Y116.076 E0.40557
G1 X81.039 Y115.808 E0.03172
G1 X80.218 Y115.286 E0.03052
G1 X79.472 Y114.476 E0.03452
G1 X79.199 Y113.979 E0.01776
G1 X78.997 Y113.414 E0.01882
G1 X78.924 Y109.035 E0.13734
G1 X78.570 Y108.480 E0.02062
G1 X78.242 Y107.350 E0.03690
G1 X78.242 Y102.650 E0.14738
G1 X78.570 Y101.520 E0.03690
G1 X78.918 Y100.972 E0.02033
G1 X78.924 Y97.068 E0.12240
G1 X79.060 Y96.381 E0.02196
G1 X79.557 Y95.409 E0.03423
G1 X80.286 Y94.657 E0.03282
G1 X80.911 Y94.250 E0.02341
G1 X81.578 Y93.998 E0.02236
G1 X168.250 Y93.963 E2.71752
G1 X168.879 Y94.160 E0.02068
G1 X169.746 Y94.677 E0.03165
G1 X170.444 Y95.410 E0.03174
G1 X170.804 Y96.029 E0.02244
G1 X171.037 Y96.773 E0.02443
G1 X171.077 Y100.966 E0.13148
G1 X171.430 Y101.520 E0.02060
G1 X171.758 Y102.650 E0.03690
G1 X171.758 Y107.350 E0.14737
G1 X171.430 Y108.480 E0.03690
G1 X171.079 Y109.031 E0.02047
G1 X171.037 Y113.251 E0.13233
G1 X170.839 Y113.879 E0.02063
G1 X170.321 Y114.748 E0.03174
G1 X169.476 Y115.528 E0.03604
G1 X168.979 Y115.801 E0.01777
G1 X168.413 Y116.004 E0.01888
G1 X155.067 Y116.083 E0.41846
G1 X154.111 Y115.836 E0.03095
G1 X153.529 Y115.531 E0.02059
G1 X152.469 Y114.471 E0.04702
G1 X152.166 Y113.894 E0.02043
G1 X151.939 Y113.093 E0.02611
G1 X151.918 Y106.142 E0.21793
G1 X152.295 Y105.705 F10800.000
G1 F1200.000
G1 X97.705 Y105.705 E1.71164
G1 X97.682 Y113.073 E0.23103
G1 X97.476 Y113.775 E0.02294
G1 X97.159 Y114.341 E0.02035
G1 X96.535 Y114.999 E0.02841
G1 X95.920 Y115.410 E0.02319
M73 P1 R98
G1 X94.922 Y115.705 E0.03263
G1 X82.087 Y115.705 E0.40243
M73 Q1 S100
G1 X81.214 Y115.472 E0.02833
G1 X80.476 Y115.010 E0.02730
G1 X79.790 Y114.272 E0.03160
G1 X79.549 Y113.837 E0.01559
G1 X79.362 Y113.317 E0.01734
G1 X79.299 Y108.919 E0.13792
G1 X78.923 Y108.345 E0.02152
G1 X78.619 Y107.322 E0.03345
G1 X78.619 Y102.678 E0.14563
G1 X78.923 Y101.655 E0.03345
G1 X79.295 Y101.086 E0.02131
G1 X79.298 Y97.120 E0.12434
G1 X79.410 Y96.525 E0.01897
G1 X79.850 Y95.649 E0.03074
G1 X80.511 Y94.960 E0.02996
G1 X81.064 Y94.595 E0.02077
G1 X81.680 Y94.363 E0.02062
G1 X168.167 Y94.331 E2.71175
G1 X168.708 Y94.497 E0.01776
G1 X169.492 Y94.957 E0.02847
G1 X170.155 Y95.654 E0.03019
G1 X170.452 Y96.165 E0.01852
G1 X170.660 Y96.806 E0.02112
G1 X170.701 Y101.081 E0.13405
G1 X171.077 Y101.655 E0.02152
G1 X171.381 Y102.678 E0.03345
G1 X171.381 Y107.322 E0.14562
G1 X171.077 Y108.345 E0.03345
G1 X170.703 Y108.916 E0.02141
G1 X170.668 Y113.168 E0.13331
G1 X170.503 Y113.708 E0.01773
G1 X170.043 Y114.492 E0.02848
G1 X169.272 Y115.210 E0.03302
G1 X168.837 Y115.451 E0.01559
G1 X168.316 Y115.638 E0.01738
G1 X155.091 Y115.705 E0.41467
G1 X154.230 Y115.477 E0.02792
G1 X153.731 Y115.212 E0.01771
G1 X152.788 Y114.269 E0.04182
G1 X152.523 Y113.771 E0.01767
G1 X152.309 Y113.015 E0.02465
G1 X152.295 Y105.765 E0.22732
G1 X152.672 Y105.328 F10800.000
G1 F1200.000
G1 X97.328 Y105.328 E1.73526
M73 Q1 S99
G1 X97.313 Y112.993 E0.24032
G1 X97.120 Y113.649 E0.02144
G1 X96.869 Y114.099 E0.01617
G1 X96.275 Y114.725 E0.02704
G1 X95.782 Y115.058 E0.01865
G1 X94.894 Y115.328 E0.02913
G1 X82.113 Y115.328 E0.40072
G1 X81.342 Y115.117 E0.02509
G1 X80.734 Y114.735 E0.02249
G1 X80.107 Y114.067 E0.02873
G1 X79.898 Y113.695 E0.01337
G1 X79.728 Y113.219 E0.01584
G1 X79.675 Y108.749 E0.14018
G1 X79.511 Y108.575 E0.00750
G1 X79.276 Y108.210 E0.01359
G1 X78.996 Y107.294 E0.03005
G1 X78.996 Y102.706 E0.14383
G1 X79.276 Y101.790 E0.03005
G1 X79.511 Y101.425 E0.01360
G1 X79.672 Y101.254 E0.00738
G1 X79.672 Y97.168 E0.12810
G1 X79.761 Y96.666 E0.01599
G1 X80.143 Y95.887 E0.02721
G1 X80.739 Y95.261 E0.02711
G1 X81.218 Y94.940 E0.01807
G1 X81.781 Y94.728 E0.01885
G1 X168.086 Y94.701 E2.70606
G1 X168.541 Y94.836 E0.01487
G1 X169.238 Y95.237 E0.02521
G1 X169.867 Y95.898 E0.02860
G1 X170.101 Y96.305 E0.01473
G1 X170.283 Y96.841 E0.01775
G1 X170.325 Y101.251 E0.13828
G1 X170.489 Y101.425 E0.00751
G1 X170.724 Y101.790 E0.01359
G1 X171.004 Y102.706 E0.03005
G1 X171.004 Y107.294 E0.14382
G1 X170.724 Y108.210 E0.03005
G1 X170.489 Y108.575 E0.01360
G1 X170.327 Y108.747 E0.00743
G1 X170.299 Y113.087 E0.13607
G1 X170.164 Y113.541 E0.01485
G1 X169.763 Y114.237 E0.02519
G1 X169.067 Y114.893 E0.02999
G1 X168.695 Y115.102 E0.01337
G1 X168.219 Y115.272 E0.01586
G1 X155.115 Y115.328 E0.41086
G1 X154.351 Y115.120 E0.02483
G1 X153.935 Y114.894 E0.01484
G1 X153.106 Y114.065 E0.03678
G1 X152.880 Y113.648 E0.01486
G1 X152.679 Y112.937 E0.02315
G1 X152.672 Y105.388 E0.23671
;WIPE_START
G1 F8640.000
G1 X149.380 Y105.385 E-0.76000
;WIPE_END
G1 E-0.04000 F2100.000
G1 Z0.800 F10800.000
G1 X169.950 Y108.591
G1 Z0.200
G1 E0.80000 F2100.000
G1 F1200.000
G1 X169.930 Y113.009 E0.13852
G1 X169.824 Y113.377 E0.01200
G1 X169.482 Y113.985 E0.02186
G1 X168.859 Y114.577 E0.02696
G1 X168.552 Y114.753 E0.01110
G1 X168.122 Y114.906 E0.01431
G1 X155.141 Y114.951 E0.40701
G1 X154.476 Y114.763 E0.02166
G1 X154.142 Y114.578 E0.01200
G1 X153.422 Y113.858 E0.03191
G1 X153.237 Y113.524 E0.01200
G1 X153.049 Y112.860 E0.02162
G1 X153.049 Y104.951 E0.24798
G1 X96.951 Y104.951 E1.75891
G1 X96.943 Y112.912 E0.24962
G1 X96.764 Y113.523 E0.01995
G1 X96.578 Y113.857 E0.01199
G1 X96.015 Y114.452 E0.02568
G1 X95.642 Y114.707 E0.01419
G1 X94.864 Y114.951 E0.02555
G1 X82.140 Y114.951 E0.39895
G1 X81.471 Y114.762 E0.02179
G1 X80.991 Y114.458 E0.01781
G1 X80.423 Y113.859 E0.02589
G1 X80.247 Y113.552 E0.01110
G1 X80.094 Y113.122 E0.01430
G1 X80.050 Y108.592 E0.14205
G1 X79.813 Y108.349 E0.01067
G1 X79.627 Y108.069 E0.01053
G1 X79.373 Y107.264 E0.02647
G1 X79.373 Y102.736 E0.14197
G1 X79.627 Y101.931 E0.02647
G1 X79.813 Y101.651 E0.01053
G1 X80.049 Y101.409 E0.01060
G1 X80.049 Y97.183 E0.13251
G1 X80.113 Y96.803 E0.01207
G1 X80.438 Y96.125 E0.02359
G1 X80.997 Y95.537 E0.02545
G1 X81.406 Y95.268 E0.01535
G1 X81.879 Y95.093 E0.01580
G1 X168.009 Y95.070 E2.70054
M73 P1 R97
G1 X168.377 Y95.176 E0.01201
G1 X168.985 Y95.518 E0.02186
G1 X169.577 Y96.141 E0.02696
G1 X169.753 Y96.448 E0.01110
G1 X169.906 Y96.878 E0.01430
G1 X169.950 Y101.408 E0.14205
G1 X170.187 Y101.651 E0.01067
G1 X170.373 Y101.931 E0.01053
G1 X170.627 Y102.736 E0.02647
G1 X170.627 Y107.264 E0.14196
G1 X170.373 Y108.069 E0.02647
G1 X170.187 Y108.349 E0.01053
G1 X169.992 Y108.548 E0.00874
;WIPE_START
G1 F8640.000
G1 X169.946 Y111.839 E-0.76000
;WIPE_END
G1 E-0.04000 F2100.000
G1 Z0.800 F10800.000
G1 X169.573 Y101.567
G1 Z0.200
G1 E0.80000 F2100.000
G1 F1200.000
G1 X169.884 Y101.877 E0.01377
G1 X170.045 Y102.118 E0.00907
G1 X170.250 Y102.765 E0.02129
G1 X170.250 Y107.235 E0.14014
G1 X170.045 Y107.882 E0.02129
G1 X169.884 Y108.123 E0.00907
G1 X169.574 Y108.433 E0.01375
G1 X169.559 Y112.935 E0.14115
G1 X169.482 Y113.217 E0.00919
G1 X169.199 Y113.734 E0.01848
G1 X168.649 Y114.263 E0.02392
G1 X168.408 Y114.404 E0.00876
G1 X168.025 Y114.541 E0.01274
G1 X155.169 Y114.574 E0.40311
G1 X154.606 Y114.409 E0.01839
G1 X154.351 Y114.263 E0.00919
G1 X153.737 Y113.649 E0.02726
G1 X153.591 Y113.394 E0.00919
G1 X153.426 Y112.832 E0.01838
G1 X153.426 Y104.574 E0.25892
G1 X96.574 Y104.574 E1.78256
G1 X96.574 Y112.832 E0.25892
G1 X96.409 Y113.394 E0.01838
G1 X96.263 Y113.649 E0.00919
G1 X95.756 Y114.177 E0.02298
G1 X95.497 Y114.358 E0.00990
G1 X94.833 Y114.574 E0.02187
G1 X82.168 Y114.574 E0.39711
G1 X81.605 Y114.408 E0.01842
G1 X81.247 Y114.180 E0.01328
G1 X80.737 Y113.649 E0.02310
G1 X80.596 Y113.408 E0.00876
G1 X80.459 Y113.025 E0.01274
G1 X80.427 Y108.433 E0.14398
G1 X80.116 Y108.123 E0.01377
G1 X79.955 Y107.882 E0.00907
G1 X79.750 Y107.235 E0.02129
G1 X79.750 Y102.765 E0.14014
G1 X79.955 Y102.118 E0.02129
G1 X80.116 Y101.877 E0.00907
G1 X80.426 Y101.567 E0.01375
G1 X80.426 Y97.196 E0.13706
G1 X80.465 Y96.940 E0.00812
G1 X80.764 Y96.317 E0.02167
G1 X81.251 Y95.816 E0.02189
G1 X81.591 Y95.597 E0.01269
G1 X81.975 Y95.459 E0.01278
G1 X167.935 Y95.441 E2.69521
G1 X168.217 Y95.518 E0.00919
G1 X168.734 Y95.801 E0.01848
G1 X169.263 Y96.351 E0.02392
G1 X169.404 Y96.592 E0.00876
G1 X169.541 Y96.975 E0.01274
G1 X169.573 Y101.507 E0.14210
G1 X169.197 Y101.724 F10800.000
G1 F1200.000
G1 X169.603 Y102.129 E0.01799
G1 X169.714 Y102.301 E0.00642
G1 X169.873 Y102.795 E0.01626
G1 X169.873 Y107.205 E0.13828
G1 X169.714 Y107.699 E0.01626
G1 X169.603 Y107.871 E0.00642
G1 X169.197 Y108.276 E0.01799
G1 X169.188 Y112.865 E0.14388
G1 X169.137 Y113.063 E0.00641
G1 X168.913 Y113.486 E0.01501
G1 X168.436 Y113.952 E0.02091
G1 X168.262 Y114.055 E0.00633
G1 X167.929 Y114.175 E0.01112
G1 X155.198 Y114.197 E0.39917
G1 X154.741 Y114.056 E0.01500
G1 X154.564 Y113.952 E0.00641
G1 X154.048 Y113.436 E0.02289
G1 X153.944 Y113.259 E0.00641
G1 X153.803 Y112.802 E0.01500
G1 X153.803 Y104.197 E0.26982
G1 X96.197 Y104.197 E1.80620
G1 X96.197 Y112.802 E0.26982
G1 X96.056 Y113.259 E0.01500
G1 X95.951 Y113.436 E0.00643
G1 X95.496 Y113.903 E0.02044
G1 X95.346 Y114.012 E0.00580
G1 X94.801 Y114.197 E0.01806
G1 X82.198 Y114.197 E0.39517
G1 X81.742 Y114.056 E0.01495
G1 X81.502 Y113.902 E0.00894
G1 X81.048 Y113.436 E0.02040
G1 X80.945 Y113.262 E0.00633
G1 X80.825 Y112.928 E0.01112
G1 X80.803 Y108.276 E0.14587
G1 X80.397 Y107.871 E0.01799
G1 X80.286 Y107.699 E0.00642
G1 X80.127 Y107.205 E0.01626
G1 X80.127 Y102.795 E0.13828
G1 X80.286 Y102.301 E0.01626
G1 X80.397 Y102.129 E0.00642
G1 X80.803 Y101.724 E0.01799
G1 X80.803 Y97.212 E0.14146
G1 X80.833 Y97.030 E0.00579
G1 X81.087 Y96.513 E0.01806
G1 X81.503 Y96.098 E0.01842
G1 X81.739 Y95.944 E0.00882
G1 X82.071 Y95.825 E0.01107
G1 X167.865 Y95.812 E2.69000
G1 X168.063 Y95.863 E0.00641
