; generated by PrusaSlicer 2.3.0+win64 on 2021-02-27 at 22:05:32 UTC

; 

; external perimeters extrusion width = 0.45mm
; perimeters extrusion width = 0.45mm
; infill extrusion width = 0.45mm
; solid infill extrusion width = 0.45mm
; top infill extrusion width = 0.40mm
; first layer extrusion width = 0.42mm

M73 P0 R137
M73 Q0 S137
M201 X1000 Y1000 Z200 E5000 ; sets maximum accelerations, mm/sec^2
M203 X200 Y200 Z12 E120 ; sets maximum feedrates, mm/sec
M204 P1250 R1250 T1250 ; sets acceleration (P, T) and retract acceleration (R), mm/sec^2
M205 X8.00 Y8.00 Z0.40 E4.50 ; sets the jerk limits, mm/sec
M205 S0 T0 ; sets the minimum extruding and travel feed rate, mm/sec
M107
;TYPE:Custom
M862.3 P "MK3S" ; printer model check
M862.1 P0.4 ; nozzle diameter check
M115 U3.9.1 ; tell printer latest fw version
G90 ; use absolute coordinates
M83 ; extruder relative mode
M104 S215 ; set extruder temp
M140 S60 ; set bed temp
M190 S60 ; wait for bed temp
M109 S215 ; wait for extruder temp
G28 W ; home all without mesh bed level
G80 ; mesh bed leveling
G1 Y-3.0 F1000.0 ; go outside print area
G92 E0.0
G1 X60.0 E9.0 F1000.0 ; intro line
G1 X100.0 E12.5 F1000.0 ; intro line
G92 E0.0
M221 S95

; Don't change E values below. Excessive value can damage the printer.
M907 E430 ; set extruder motor current
G21 ; set units to millimeters
G90 ; use absolute coordinates
M83 ; use relative distances for extrusion
M900 K0.05 ; Filament gcode LA 1.5
M900 K30 ; Filament gcode LA 1.0
;LAYER_CHANGE
;Z:0.2
;HEIGHT:0.2
;BEFORE_LAYER_CHANGE
G92 E0.0
;0.2


G1 E-0.80000 F2100.000
G1 Z0.600 F10800.000
;AFTER_LAYER_CHANGE
;0.2
G1 X47.763 Y14.197
G1 Z0.200
G1 E0.80000 F2100.000
M204 S1000
;TYPE:Skirt
;WIDTH:0.42
G1 F1200.000
G1 X48.163 Y13.492 E0.02543
G1 X48.535 Y13.128 E0.01633
G1 X48.978 Y12.854 E0.01633
G1 X49.470 Y12.683 E0.01633
G1 X49.987 Y12.623 E0.01633
G1 X200.004 Y12.623 E4.70366
G1 X200.906 Y12.802 E0.02884
G1 X201.675 Y13.313 E0.02896
G1 X202.190 Y14.076 E0.02884
G1 X202.377 Y14.976 E0.02884
G1 X202.377 Y195.008 E5.64476
M73 P0 R136
G1 X202.237 Y195.803 E0.02532
G1 X201.837 Y196.508 E0.02543
G1 X201.462 Y196.875 E0.01645
G1 X201.018 Y197.148 E0.01633
G1 X200.526 Y197.318 E0.01633
G1 X200.005 Y197.377 E0.01645
G1 X49.992 Y197.377 E4.70354
G1 X49.197 Y197.237 E0.02532
G1 X48.492 Y196.837 E0.02543
G1 X48.125 Y196.462 E0.01645
G1 X47.852 Y196.018 E0.01633
G1 X47.682 Y195.526 E0.01633
G1 X47.623 Y195.005 E0.01645
G1 X47.623 Y14.992 E5.64417
G1 X47.752 Y14.256 E0.02343
;WIPE_START
G1 F8640.000
G1 X48.163 Y13.492 E-0.20040
G1 X48.535 Y13.128 E-0.12025
G1 X48.978 Y12.854 E-0.12025
G1 X49.470 Y12.683 E-0.12025
G1 X49.987 Y12.623 E-0.12025
G1 X50.328 Y12.623 E-0.07860
;WIPE_END
G1 E-0.04000 F2100.000
G1 Z0.800 F10800.000
G1 X130.026 Y113.023
G1 Z0.200
G1 E0.80000 F2100.000
;TYPE:Perimeter
G1 F1200.000
G1 X130.265 Y113.151 E0.00851
G1 X130.374 Y113.272 E0.00510
G1 X129.939 Y113.348 E0.01385
G1 X130.010 Y113.080 E0.00869
;WIPE_START
G1 F8640.000
G1 X130.265 Y113.151 E-0.06123
G1 X130.374 Y113.272 E-0.03753
G1 X129.939 Y113.348 E-0.10201
G1 X130.010 Y113.080 E-0.06396
;WIPE_END
G1 E-0.53527 F2100.000
G1 Z0.800 F10800.000
G1 X131.276 Y114.156
G1 Z0.200
G1 E0.80000 F2100.000
G1 F1200.000
G1 X131.675 Y114.078 E0.01274
G1 X131.548 Y114.653 E0.01846
G1 X131.305 Y114.209 E0.01585
;WIPE_START
G1 F8640.000
G1 X131.675 Y114.078 E-0.09064
G1 X131.548 Y114.653 E-0.13596
G1 X131.305 Y114.209 E-0.11676
;WIPE_END
G1 E-0.45664 F2100.000
G1 Z0.800 F10800.000
G1 X126.333 Y119.953
G1 Z0.200
G1 E0.80000 F2100.000
G1 F1200.000
G1 X125.959 Y120.090 E0.01250
G1 X125.973 Y119.822 E0.00843
G1 X126.277 Y119.933 E0.01013
G1 X126.705 Y120.090 F10800.000
G1 F1200.000
G1 X126.888 Y120.157 E0.00612
G1 X126.895 Y120.281 E0.00389
G1 X126.747 Y120.132 E0.00656
;WIPE_START
G1 F8640.000
G1 X126.888 Y120.157 E-0.03304
G1 X126.895 Y120.281 E-0.02862
G1 X126.747 Y120.132 E-0.04830
;WIPE_END
G1 E-0.69004 F2100.000
G1 Z0.800 F10800.000
G1 X125.814 Y123.524
G1 Z0.200
M73 Q0 S136
G1 E0.80000 F2100.000
G1 F1200.000
G1 X125.898 Y123.652 E0.00479
G1 X126.308 Y124.470 E0.02871
G1 X126.549 Y125.331 E0.02802
G1 X126.571 Y125.586 E0.00803
G1 X125.767 Y125.392 E0.02596
G1 X125.429 Y125.951 E0.02048
G1 X125.207 Y126.087 E0.00818
G1 X125.107 Y124.693 E0.04383
G1 X124.949 Y123.959 E0.02354
G1 X124.881 Y123.767 E0.00639
G1 X125.756 Y123.539 E0.02836
;WIPE_START
G1 F8640.000
G1 X125.898 Y123.652 E-0.04175
G1 X126.308 Y124.470 E-0.21142
G1 X126.549 Y125.331 E-0.20632
G1 X126.571 Y125.586 E-0.05915
G1 X125.767 Y125.392 E-0.19115
G1 X125.654 Y125.578 E-0.05021
;WIPE_END
G1 E-0.04000 F2100.000
G1 Z0.800 F10800.000
G1 X124.404 Y123.268
G1 Z0.200
G1 E0.80000 F2100.000
G1 F1200.000
G1 X123.734 Y123.232 E0.02103
G1 X123.876 Y122.452 E0.02487
G1 X123.969 Y122.558 E0.00444
G1 X124.376 Y123.215 E0.02423
;WIPE_START
G1 F8640.000
G1 X123.734 Y123.232 E-0.14828
G1 X123.876 Y122.452 E-0.18315
G1 X123.969 Y122.558 E-0.03270
G1 X124.376 Y123.215 E-0.17841
;WIPE_END
G1 E-0.25746 F2100.000
G1 Z0.800 F10800.000
G1 X123.303 Y123.977
G1 Z0.200
G1 E0.80000 F2100.000
G1 F1200.000
G1 X123.202 Y124.188 E0.00734
G1 X123.060 Y124.387 E0.00767
G1 X122.867 Y124.126 E0.01021
G1 X123.246 Y123.996 E0.01258
;WIPE_START
G1 F8640.000
G1 X123.202 Y124.188 E-0.04547
G1 X123.060 Y124.387 E-0.05652
G1 X122.867 Y124.126 E-0.07517
G1 X123.246 Y123.996 E-0.09265
;WIPE_END
G1 E-0.53020 F2100.000
G1 Z0.800 F10800.000
G1 X122.264 Y123.742
G1 Z0.200
G1 E0.80000 F2100.000
G1 F1200.000
G1 X122.040 Y123.755 E0.00702
G1 X122.149 Y123.643 E0.00490
G1 X122.219 Y123.702 E0.00286
;WIPE_START
G1 F8640.000
G1 X122.040 Y123.755 E-0.04304
G1 X122.149 Y123.643 E-0.03605
G1 X122.219 Y123.702 E-0.02103
;WIPE_END
G1 E-0.69987 F2100.000
G1 Z0.800 F10800.000
G1 X120.685 Y128.877
G1 Z0.200
G1 E0.80000 F2100.000
G1 F1200.000
G1 X120.958 Y130.573 E0.05386
G1 X120.554 Y130.049 E0.02076
G1 X120.214 Y129.706 E0.01514
G1 X119.286 Y129.117 E0.03446
G1 X119.367 Y128.977 E0.00509
G1 X119.412 Y128.980 E0.00141
G1 X120.136 Y129.272 E0.02449
G1 X120.636 Y128.913 E0.01929
;WIPE_START
G1 F8640.000
G1 X120.958 Y130.573 E-0.39064
G1 X120.554 Y130.049 E-0.15288
G1 X120.214 Y129.706 E-0.11148
G1 X119.830 Y129.462 E-0.10500
;WIPE_END
G1 E-0.04000 F2100.000
G1 Z0.800 F10800.000
G1 X118.600 Y132.107
G1 Z0.200
G1 E0.80000 F2100.000
G1 F1200.000
G1 X118.536 Y132.802 E0.02189
G1 X118.386 Y137.173 E0.13713
G1 X118.575 Y137.409 E0.00948
G1 X118.495 Y137.517 E0.00423
G1 X117.721 Y137.100 E0.02757
G1 X117.671 Y135.849 E0.03926
G1 X117.565 Y134.235 E0.05073
G1 X117.189 Y132.593 E0.05282
G1 X116.398 Y129.383 E0.10363
G1 X115.984 Y128.128 E0.04143
G1 X116.858 Y130.209 E0.07074
G1 X117.358 Y132.168 E0.06341
G1 X118.541 Y132.110 E0.03711
;WIPE_START
G1 F8640.000
G1 X118.536 Y132.802 E-0.15982
G1 X118.447 Y135.400 E-0.60018
;WIPE_END
G1 E-0.04000 F2100.000
G1 Z0.800 F10800.000
G1 X112.586 Y122.672
G1 Z0.200
G1 E0.80000 F2100.000
G1 F1200.000
G1 X111.744 Y121.599 E0.04275
G1 X111.959 Y121.604 E0.00675
G1 X112.556 Y122.620 E0.03694
;WIPE_START
G1 F8640.000
G1 X111.744 Y121.599 E-0.30112
G1 X111.959 Y121.604 E-0.04968
G1 X112.556 Y122.620 E-0.27204
;WIPE_END
G1 E-0.17716 F2100.000
G1 Z0.800 F10800.000
G1 X99.906 Y129.333
G1 Z0.200
G1 E0.80000 F2100.000
G1 F1200.000
G1 X98.938 Y129.903 E0.03523
G1 X98.709 Y129.132 E0.02524
G1 X98.565 Y128.371 E0.02429
G1 X98.545 Y127.690 E0.02135
G1 X98.603 Y127.390 E0.00956
G1 X98.972 Y126.521 E0.02961
G1 X99.096 Y127.021 E0.01615
G1 X99.408 Y127.760 E0.02516
G1 X100.569 Y130.048 E0.08043
G1 X100.347 Y129.859 E0.00912
G1 X99.945 Y129.379 E0.01963
;WIPE_START
G1 F8640.000
G1 X98.938 Y129.903 E-0.26211
G1 X98.709 Y129.132 E-0.18587
G1 X98.565 Y128.371 E-0.17886
G1 X98.548 Y127.794 E-0.13316
;WIPE_END
G1 E-0.04000 F2100.000
G1 Z0.800 F10800.000
G1 X98.771 Y125.709
G1 Z0.200
G1 E0.80000 F2100.000
G1 F1200.000
G1 X98.605 Y125.276 E0.01453
G1 X97.877 Y123.125 E0.07119
G1 X97.686 Y122.062 E0.03387
G1 X98.606 Y125.045 E0.09787
G1 X98.756 Y125.651 E0.01957
;WIPE_START
G1 F8640.000
G1 X98.605 Y125.276 E-0.09328
G1 X97.877 Y123.125 E-0.52427
G1 X97.768 Y122.518 E-0.14245
;WIPE_END
G1 E-0.04000 F2100.000
G1 Z0.800 F10800.000
G1 X97.194 Y119.339
G1 Z0.200
G1 E0.80000 F2100.000
G1 F1200.000
G1 X96.991 Y118.212 E0.03590
G1 X96.471 Y115.805 E0.07720
G1 X96.655 Y116.367 E0.01854
G1 X96.934 Y117.661 E0.04151
G1 X97.185 Y119.280 E0.05134
;WIPE_START
G1 F8640.000
G1 X96.991 Y118.212 E-0.25055
G1 X96.525 Y116.055 E-0.50945
;WIPE_END
G1 E-0.04000 F2100.000
G1 Z0.800 F10800.000
G1 X94.692 Y109.692
G1 Z0.200
G1 E0.80000 F2100.000
G1 F1200.000
G1 X94.295 Y107.861 E0.05873
G1 X94.247 Y107.757 E0.00361
G1 X95.607 Y109.206 E0.06232
G1 X94.745 Y109.664 E0.03059
;WIPE_START
G1 F8640.000
G1 X94.295 Y107.861 E-0.42895
G1 X94.247 Y107.757 E-0.02661
G1 X95.149 Y108.718 E-0.30445
;WIPE_END
G1 E-0.04000 F2100.000
G1 Z0.800 F10800.000
G1 X95.100 Y103.368
G1 Z0.200
G1 E0.80000 F2100.000
G1 F1200.000
G1 X94.852 Y102.997 E0.01400
G1 X95.606 Y102.452 E0.02917
G1 X95.888 Y102.304 E0.00999
G1 X95.519 Y102.759 E0.01838
G1 X95.134 Y103.319 E0.02129
;WIPE_START
G1 F8640.000
G1 X94.852 Y102.997 E-0.09882
G1 X95.606 Y102.452 E-0.21479
G1 X95.888 Y102.304 E-0.07360
G1 X95.519 Y102.759 E-0.13533
G1 X95.134 Y103.319 E-0.15681
;WIPE_END
G1 E-0.12065 F2100.000
G1 Z0.800 F10800.000
G1 X93.033 Y104.127
G1 Z0.200
G1 E0.80000 F2100.000
G1 F1200.000
G1 X93.303 Y104.786 E0.02233
G1 X92.847 Y104.758 E0.01433
G1 X92.554 Y105.204 E0.01672
G1 X92.258 Y104.367 E0.02785
G1 X92.224 Y104.189 E0.00568
G1 X93.002 Y104.087 E0.02458
;WIPE_START
G1 F8640.000
G1 X93.303 Y104.786 E-0.17575
G1 X92.847 Y104.758 E-0.10551
G1 X92.554 Y105.204 E-0.12311
G1 X92.258 Y104.367 E-0.20507
G1 X92.224 Y104.189 E-0.04183
G1 X92.691 Y104.128 E-0.10872
;WIPE_END
G1 E-0.04000 F2100.000
G1 Z0.800 F10800.000
G1 X92.505 Y101.672
G1 Z0.200
G1 E0.80000 F2100.000
G1 F1200.000
G1 X92.457 Y101.293 E0.01198
G1 X92.462 Y101.211 E0.00257
G1 X92.634 Y101.247 E0.00551
G1 X92.940 Y101.378 E0.01046
G1 X92.554 Y101.638 E0.01460
;WIPE_START
G1 F8640.000
G1 X92.457 Y101.293 E-0.08291
G1 X92.462 Y101.211 E-0.01894
G1 X92.634 Y101.247 E-0.04055
G1 X92.940 Y101.378 E-0.07703
G1 X92.554 Y101.638 E-0.10752
;WIPE_END
G1 E-0.47305 F2100.000
G1 Z0.800 F10800.000
G1 X106.609 Y95.281
G1 Z0.200
G1 E0.80000 F2100.000
G1 F1200.000
G1 X106.555 Y95.148 E0.00451
G1 X107.082 Y95.241 E0.01679
G1 X107.620 Y95.371 E0.01737
G1 X107.145 Y96.131 E0.02811
G1 X106.996 Y95.934 E0.00773
G1 X106.640 Y95.333 E0.02191
;WIPE_START
G1 F8640.000
G1 X106.555 Y95.148 E-0.04695
G1 X107.082 Y95.241 E-0.12362
G1 X107.620 Y95.371 E-0.12792
G1 X107.145 Y96.131 E-0.20699
G1 X106.996 Y95.934 E-0.05693
G1 X106.640 Y95.333 E-0.16136
;WIPE_END
G1 E-0.07623 F2100.000
G1 Z0.800 F10800.000
G1 X108.297 Y97.811
G1 Z0.200
G1 E0.80000 F2100.000
G1 F1200.000
G1 X109.005 Y98.676 E0.03504
G1 X109.261 Y99.064 E0.01459
G1 X108.779 Y99.212 E0.01579
G1 X108.786 Y100.246 E0.03243
G1 X107.727 Y99.957 E0.03442
G1 X107.434 Y99.915 E0.00928
G1 X107.812 Y98.773 E0.03773
G1 X107.598 Y98.659 E0.00761
G1 X108.259 Y97.857 E0.03259
;WIPE_START
G1 F8640.000
G1 X109.005 Y98.676 E-0.25568
G1 X109.261 Y99.064 E-0.10748
G1 X108.779 Y99.212 E-0.11630
G1 X108.786 Y100.246 E-0.23881
G1 X108.612 Y100.199 E-0.04174
;WIPE_END
G1 E-0.04000 F2100.000
G1 Z0.800 F10800.000
G1 X122.021 Y93.443
G1 Z0.200
G1 E0.80000 F2100.000
G1 F1200.000
G1 X122.129 Y93.327 E0.00496
G1 X122.387 Y92.871 E0.01643
G1 X122.686 Y93.441 E0.02017
G1 X122.715 Y93.546 E0.00341
G1 X122.743 Y93.820 E0.00863
G1 X122.074 Y93.471 E0.02364
;WIPE_START
G1 F8640.000
G1 X122.129 Y93.327 E-0.03550
G1 X122.387 Y92.871 E-0.12101
G1 X122.686 Y93.441 E-0.14856
G1 X122.715 Y93.546 E-0.02509
G1 X122.743 Y93.820 E-0.06359
G1 X122.074 Y93.471 E-0.17410
;WIPE_END
G1 E-0.23215 F2100.000
G1 Z0.800 F10800.000
G1 X121.853 Y92.000
G1 Z0.200
G1 E0.80000 F2100.000
G1 F1200.000
G1 X121.624 Y91.911 E0.00772
G1 X121.602 Y91.602 E0.00970
G1 X121.821 Y91.950 E0.01289
;WIPE_START
G1 F8640.000
G1 X121.624 Y91.911 E-0.04645
G1 X121.602 Y91.602 E-0.07146
G1 X121.821 Y91.950 E-0.09491
;WIPE_END
G1 E-0.58718 F2100.000
G1 Z0.800 F10800.000
G1 X123.933 Y85.224
G1 Z0.200
G1 E0.80000 F2100.000
G1 F1200.000
G1 X123.691 Y85.081 E0.00881
G1 X124.026 Y85.099 E0.01052
G1 X123.969 Y85.176 E0.00299
;WIPE_START
G1 F8640.000
G1 X123.691 Y85.081 E-0.06778
G1 X124.026 Y85.099 E-0.07746
G1 X123.969 Y85.176 E-0.02203
;WIPE_END
G1 E-0.63274 F2100.000
G1 Z0.800 F10800.000
G1 X125.215 Y83.874
G1 Z0.200
G1 E0.80000 F2100.000
G1 F1200.000
G1 X125.284 Y83.631 E0.00790
G1 X125.281 Y83.113 E0.01625
G1 X125.193 Y82.322 E0.02497
G1 X126.227 Y81.708 E0.03769
G1 X126.405 Y81.739 E0.00565
G1 X126.577 Y81.828 E0.00609
G1 X126.993 Y82.143 E0.01634
G1 X126.073 Y82.664 E0.03314
G1 X126.252 Y83.359 E0.02250
G1 X125.610 Y83.639 E0.02197
G1 X125.267 Y83.843 E0.01251
;WIPE_START
G1 F8640.000
G1 X125.284 Y83.631 E-0.04910
G1 X125.281 Y83.113 E-0.11965
G1 X125.193 Y82.322 E-0.18385
G1 X126.227 Y81.708 E-0.27755
G1 X126.405 Y81.739 E-0.04164
G1 X126.577 Y81.828 E-0.04483
G1 X126.727 Y81.942 E-0.04338
;WIPE_END
G1 E-0.04000 F2100.000
G1 Z0.800 F10800.000
G1 X128.236 Y83.118
G1 Z0.200
G1 E0.80000 F2100.000
G1 F1200.000
G1 X128.391 Y82.636 E0.01586
G1 X128.454 Y83.364 E0.02292
G1 X128.276 Y83.163 E0.00843
;WIPE_START
G1 F8640.000
G1 X128.391 Y82.636 E-0.12444
G1 X128.454 Y83.364 E-0.16877
G1 X128.276 Y83.163 E-0.06209
;WIPE_END
G1 E-0.44470 F2100.000
G1 Z0.800 F10800.000
G1 X128.833 Y81.715
G1 Z0.200
G1 E0.80000 F2100.000
G1 F1200.000
G1 X128.960 Y81.625 E0.00487
G1 X129.189 Y81.305 E0.01235
G1 X129.290 Y80.993 E0.01028
G1 X129.216 Y81.513 E0.01648
G1 X128.886 Y81.687 E0.01167
;WIPE_START
G1 F8640.000
G1 X128.960 Y81.625 E-0.02218
G1 X129.189 Y81.305 E-0.09097
G1 X129.290 Y80.993 E-0.07570
G1 X129.216 Y81.513 E-0.12140
G1 X128.886 Y81.687 E-0.08594
;WIPE_END
G1 E-0.40381 F2100.000
G1 Z0.800 F10800.000
G1 X129.791 Y77.600
G1 Z0.200
G1 E0.80000 F2100.000
G1 F1200.000
G1 X129.790 Y74.804 E0.08766
G1 X129.379 Y71.634 E0.10023
G1 X128.666 Y68.530 E0.09985
G1 X127.739 Y65.619 E0.09580
G1 X128.604 Y67.938 E0.07761
G1 X129.390 Y70.504 E0.08414
G1 X129.952 Y73.065 E0.08222
G1 X130.037 Y74.819 E0.05504
G1 X129.877 Y77.019 E0.06916
G1 X129.800 Y77.541 E0.01655
;WIPE_START
G1 F8640.000
G1 X129.790 Y74.804 E-0.63185
G1 X129.719 Y74.254 E-0.12815
;WIPE_END
G1 E-0.04000 F2100.000
G1 Z0.800 F10800.000
G1 X127.635 Y65.341
G1 Z0.200
G1 E0.80000 F2100.000
G1 F1200.000
G1 X127.539 Y65.108 E0.00791
G1 X127.614 Y65.284 E0.00603
;WIPE_START
G1 F8640.000
G1 X127.539 Y65.108 E-0.04438
G1 X127.614 Y65.284 E-0.04438
;WIPE_END
G1 E-0.71124 F2100.000
G1 Z0.800 F10800.000
G1 X126.030 Y61.884
G1 Z0.200
G1 E0.80000 F2100.000
G1 F1200.000
G1 X125.713 Y61.327 E0.02009
G1 X125.955 Y61.296 E0.00763
G1 X126.022 Y61.824 E0.01668
;WIPE_START
G1 F8640.000
G1 X125.713 Y61.327 E-0.13521
G1 X125.955 Y61.296 E-0.05621
G1 X126.022 Y61.824 E-0.12284
;WIPE_END
G1 E-0.48574 F2100.000
G1 Z0.800 F10800.000
G1 X123.143 Y61.118
G1 Z0.200
G1 E0.80000 F2100.000
G1 F1200.000
G1 X122.743 Y61.329 E0.01417
G1 X122.503 Y61.402 E0.00787
G1 X122.287 Y61.428 E0.00681
G1 X121.982 Y61.431 E0.00957
G1 X123.124 Y60.994 E0.03832
G1 X123.154 Y60.913 E0.00271
G1 X123.146 Y61.058 E0.00455
;WIPE_START
G1 F8640.000
G1 X122.743 Y61.329 E-0.11207
G1 X122.503 Y61.402 E-0.05798
G1 X122.287 Y61.428 E-0.05012
G1 X121.982 Y61.431 E-0.07045
G1 X123.124 Y60.994 E-0.28218
G1 X123.154 Y60.913 E-0.01994
G1 X123.146 Y61.058 E-0.03354
;WIPE_END
G1 E-0.17371 F2100.000
G1 Z0.800 F10800.000
G1 X127.643 Y59.552
G1 Z0.200
G1 E0.80000 F2100.000
G1 F1200.000
G1 X127.816 Y58.747 E0.02580
G1 X128.117 Y57.889 E0.02851
G1 X128.076 Y58.086 E0.00633
G1 X128.832 Y58.361 E0.02524
G1 X129.191 Y58.434 E0.01147
G1 X129.769 Y58.785 E0.02121
G1 X130.127 Y58.957 E0.01245
G1 X130.434 Y59.043 E0.00999
G1 X130.654 Y59.292 E0.01041
G1 X129.201 Y59.053 E0.04617
G1 X128.725 Y59.056 E0.01493
G1 X127.919 Y59.335 E0.02673
G1 X127.687 Y59.512 E0.00915
;WIPE_START
G1 F8640.000
G1 X127.816 Y58.747 E-0.17909
G1 X128.117 Y57.889 E-0.20999
