; generated by PrusaSlicer 2.2.0+win64 on 2021-01-06 at 01:07:38 UTC

; 

; external perimeters extrusion width = 0.45mm
; perimeters extrusion width = 0.45mm
; infill extrusion width = 0.45mm
; solid infill extrusion width = 0.45mm
; top infill extrusion width = 0.40mm
; first layer extrusion width = 0.42mm

M73 P0 R153
M73 Q0 S154
M201 X1000 Y1000 Z200 E5000 ; sets maximum accelerations, mm/sec^2
M203 X200 Y200 Z12 E120 ; sets maximum feedrates, mm/sec
M204 P1250 R1250 T1250 ; sets acceleration (P, T) and retract acceleration (R), mm/sec^2
M205 X8.00 Y8.00 Z0.40 E4.50 ; sets the jerk limits, mm/sec
M205 S0 T0 ; sets the minimum extruding and travel feed rate, mm/sec
M107
M862.3 P "MK3S" ; printer model check
M862.1 P0.4 ; nozzle diameter check
M115 U3.9.1 ; tell printer latest fw version
G90 ; use absolute coordinates
M83 ; extruder relative mode
M104 S215 ; set extruder temp
M140 S60 ; set bed temp
M190 S60 ; wait for bed temp
M109 S215 ; wait for extruder temp
G28 W ; home all without mesh bed level
G80 ; mesh bed leveling
G1 Y-3.0 F1000.0 ; go outside print area
G92 E0.0
G1 X60.0 E9.0 F1000.0 ; intro line
M73 Q0 S154
M73 P0 R153
G1 X100.0 E12.5 F1000.0 ; intro line
G92 E0.0
M221 S95

; Don't change E values below. Excessive value can damage the printer.
M907 E430 ; set extruder motor current
G21 ; set units to millimeters
G90 ; use absolute coordinates
M83 ; use relative distances for extrusion
M900 K0.05 ; Filament gcode LA 1.5
M900 K30 ; Filament gcode LA 1.0
;BEFORE_LAYER_CHANGE
G92 E0.0
;0.2


G1 E-0.80000 F2100.00000
G1 Z0.600 F10800.000
;AFTER_LAYER_CHANGE
;0.2
G1 X67.766 Y39.186
G1 Z0.200
G1 E0.80000 F2100.00000
M204 S1000
G1 F1200.000
G1 X68.173 Y38.480 E0.02555
G1 X68.541 Y38.123 E0.01609
G1 X68.982 Y37.852 E0.01621
G1 X69.466 Y37.684 E0.01609
G1 X69.980 Y37.623 E0.01621
G1 X180.004 Y37.623 E3.44972
G1 X180.906 Y37.802 E0.02884
G1 X181.670 Y38.308 E0.02872
G1 X182.187 Y39.069 E0.02884
G1 X182.377 Y39.968 E0.02884
G1 X182.377 Y170.011 E4.07741
G1 X182.234 Y170.814 E0.02555
G1 X181.827 Y171.520 E0.02555
G1 X181.453 Y171.882 E0.01633
G1 X181.011 Y172.151 E0.01621
G1 X180.522 Y172.319 E0.01621
G1 X180.005 Y172.377 E0.01633
G1 X69.989 Y172.377 E3.44948
G1 X69.186 Y172.234 E0.02555
G1 X68.480 Y171.827 E0.02555
G1 X68.118 Y171.453 E0.01633
G1 X67.849 Y171.011 E0.01621
G1 X67.681 Y170.522 E0.01621
G1 X67.623 Y170.005 E0.01633
G1 X67.623 Y39.989 E4.07657
G1 X67.756 Y39.245 E0.02367
G1 F8640.000
G1 X68.173 Y38.480 E-0.20126
G1 X68.541 Y38.123 E-0.11850
G1 X68.982 Y37.852 E-0.11938
G1 X69.466 Y37.684 E-0.11850
G1 X69.980 Y37.623 E-0.11938
G1 X70.339 Y37.623 E-0.08299
G1 E-0.04000 F2100.00000
G1 Z0.800 F10800.000
G1 X125.764 Y90.121
G1 Z0.200
G1 E0.80000 F2100.00000
G1 F1200.000
G1 X125.971 Y90.119 E0.00648
G1 X126.520 Y90.182 E0.01733
G1 X126.141 Y90.839 E0.02378
G1 X127.195 Y92.255 E0.05534
G1 X127.115 Y92.275 E0.00257
G1 X127.006 Y92.241 E0.00357
G1 X126.574 Y92.035 E0.01504
G1 X125.121 Y91.133 E0.05363
G1 X125.914 Y90.479 E0.03224
G1 X125.787 Y90.176 E0.01030
G1 F8640.000
G1 X125.971 Y90.119 E-0.04440
G1 X126.520 Y90.182 E-0.12766
G1 X126.141 Y90.839 E-0.17514
G1 X127.195 Y92.255 E-0.40752
G1 X127.173 Y92.260 E-0.00528
G1 E-0.04000 F2100.00000
G1 Z0.800 F10800.000
G1 X119.585 Y90.967
G1 Z0.200
G1 E0.80000 F2100.00000
G1 F1200.000
G1 X119.510 Y91.505 E0.01706
G1 X118.714 Y90.970 E0.03008
G1 X117.848 Y91.583 E0.03326
G1 X117.959 Y92.080 E0.01597
G1 X117.765 Y91.957 E0.00719
G1 X117.109 Y92.454 E0.02580
G1 X116.610 Y91.204 E0.04220
G1 X117.841 Y90.820 E0.04043
G1 X117.682 Y90.042 E0.02490
G1 X118.039 Y90.206 E0.01230
G1 X118.455 Y90.320 E0.01353
G1 X119.532 Y90.937 E0.03893
G1 F8640.000
G1 X119.510 Y91.505 E-0.13143
G1 X118.714 Y90.970 E-0.22149
G1 X117.848 Y91.583 E-0.24495
G1 X117.959 Y92.080 E-0.11758
G1 X117.796 Y91.977 E-0.04454
G1 E-0.04000 F2100.00000
G1 Z0.800 F10800.000
G1 X114.352 Y86.818
G1 Z0.200
G1 E0.80000 F2100.00000
G1 F1200.000
G1 X114.005 Y86.980 E0.01201
G1 X114.047 Y86.462 E0.01630
G1 X114.313 Y86.773 E0.01282
G1 F8640.000
G1 X114.005 Y86.980 E-0.08578
G1 X114.047 Y86.462 E-0.12004
G1 X114.313 Y86.773 E-0.09443
G1 E-0.49975 F2100.00000
G1 Z0.800 F10800.000
G1 X112.489 Y85.019
G1 Z0.200
G1 E0.80000 F2100.00000
G1 F1200.000
G1 X112.331 Y84.982 E0.00509
G1 X112.137 Y85.081 E0.00681
G1 X112.157 Y84.766 E0.00990
G1 X112.441 Y84.983 E0.01120
G1 F8640.000
G1 X112.331 Y84.982 E-0.02551
G1 X112.137 Y85.081 E-0.05018
G1 X112.157 Y84.766 E-0.07289
G1 X112.441 Y84.983 E-0.08247
G1 E-0.56895 F2100.00000
G1 Z0.800 F10800.000
G1 X110.138 Y83.347
G1 Z0.200
G1 E0.80000 F2100.00000
G1 F1200.000
G1 X110.024 Y83.408 E0.00405
G1 X110.040 Y83.285 E0.00391
G1 X110.087 Y83.315 E0.00175
G1 F8640.000
G1 X110.024 Y83.408 E-0.02609
G1 X110.040 Y83.285 E-0.02879
G1 X110.087 Y83.315 E-0.01288
G1 E-0.73224 F2100.00000
G1 Z0.800 F10800.000
G1 X107.874 Y86.082
G1 Z0.200
G1 E0.80000 F2100.00000
G1 F1200.000
G1 X108.039 Y86.967 E0.02823
G1 X108.330 Y87.923 E0.03133
G1 X107.959 Y87.651 E0.01441
G1 X107.536 Y87.454 E0.01463
G1 X107.105 Y87.538 E0.01378
G1 X107.013 Y87.386 E0.00558
G1 X106.655 Y86.513 E0.02959
G1 X106.558 Y86.113 E0.01292
G1 X107.334 Y86.478 E0.02690
G1 X107.826 Y86.118 E0.01912
G1 F8640.000
G1 X108.039 Y86.967 E-0.20230
G1 X108.330 Y87.923 E-0.23070
G1 X107.959 Y87.651 E-0.10613
G1 X107.536 Y87.454 E-0.10774
G1 X107.105 Y87.538 E-0.10144
G1 X107.079 Y87.495 E-0.01169
G1 E-0.04000 F2100.00000
G1 Z0.800 F10800.000
G1 X102.103 Y76.567
G1 Z0.200
G1 E0.80000 F2100.00000
G1 F1200.000
G1 X101.741 Y76.735 E0.01249
G1 X101.750 Y76.218 E0.01620
G1 X102.060 Y76.525 E0.01369
G1 F8640.000
G1 X101.741 Y76.735 E-0.08811
G1 X101.750 Y76.218 E-0.11932
G1 X102.060 Y76.525 E-0.10081
G1 E-0.49176 F2100.00000
G1 Z0.800 F10800.000
G1 X105.845 Y105.002
G1 Z0.200
G1 E0.80000 F2100.00000
G1 F1200.000
G1 X105.374 Y105.344 E0.01824
G1 X106.243 Y106.175 E0.03770
G1 X106.514 Y106.369 E0.01043
G1 X106.759 Y106.466 E0.00825
G1 X106.981 Y106.485 E0.00699
G1 X107.675 Y106.958 E0.02635
G1 X108.377 Y107.268 E0.02407
G1 X109.573 Y107.582 E0.03875
G1 X109.467 Y107.640 E0.00378
G1 X109.729 Y107.971 E0.01323
G1 X109.643 Y108.133 E0.00575
G1 X109.395 Y108.039 E0.00832
G1 X108.672 Y108.808 E0.03310
G1 X108.948 Y109.410 E0.02078
G1 X108.329 Y108.886 E0.02542
G1 X108.129 Y109.617 E0.02376
G1 X107.363 Y109.123 E0.02856
G1 X107.334 Y109.491 E0.01160
G1 X105.298 Y106.809 E0.10557
G1 X104.044 Y105.324 E0.06093
G1 X105.124 Y105.621 E0.03511
G1 X105.463 Y105.220 E0.01647
G1 X105.612 Y105.104 E0.00591
G1 X105.788 Y105.021 E0.00610
G1 F8640.000
G1 X105.374 Y105.344 E-0.12124
G1 X106.243 Y106.175 E-0.27765
G1 X106.514 Y106.369 E-0.07684
G1 X106.759 Y106.466 E-0.06075
G1 X106.981 Y106.485 E-0.05147
G1 X107.597 Y106.904 E-0.17205
G1 E-0.04000 F2100.00000
G1 Z0.800 F10800.000
G1 X135.667 Y94.686
G1 Z0.200
G1 E0.80000 F2100.00000
G1 F1200.000
G1 X135.390 Y93.855 E0.02746
G1 X136.014 Y94.382 E0.02560
G1 X135.712 Y94.647 E0.01260
G1 F8640.000
G1 X135.390 Y93.855 E-0.19726
G1 X136.014 Y94.382 E-0.18853
G1 X135.712 Y94.647 E-0.09282
G1 E-0.32139 F2100.00000
G1 Z0.800 F10800.000
G1 X141.817 Y115.423
G1 Z0.200
G1 E0.80000 F2100.00000
G1 F1200.000
G1 X141.962 Y115.563 E0.00635
G1 X141.698 Y115.588 E0.00830
G1 X141.734 Y115.507 E0.00278
G1 X141.775 Y115.465 E0.00183
G1 F8640.000
G1 X141.962 Y115.563 E-0.04885
G1 X141.698 Y115.588 E-0.06115
G1 X141.734 Y115.507 E-0.02048
G1 X141.775 Y115.465 E-0.01345
G1 E-0.65608 F2100.00000
G1 Z0.800 F10800.000
G1 X143.000 Y104.843
G1 Z0.200
G1 E0.80000 F2100.00000
G1 F1200.000
G1 X142.941 Y104.392 E0.01425
G1 X142.855 Y104.108 E0.00932
G1 X143.483 Y104.094 E0.01970
G1 X143.050 Y104.640 E0.02185
G1 X143.014 Y104.785 E0.00467
G1 F8640.000
G1 X142.941 Y104.392 E-0.09217
G1 X142.855 Y104.108 E-0.06867
G1 X143.483 Y104.094 E-0.14505
G1 X143.050 Y104.640 E-0.16091
G1 X143.014 Y104.785 E-0.03442
G1 E-0.29878 F2100.00000
G1 Z0.800 F10800.000
G1 X143.909 Y103.677
G1 Z0.200
G1 E0.80000 F2100.00000
G1 F1200.000
G1 X144.097 Y103.228 E0.01524
G1 X144.185 Y103.310 E0.00377
G1 X144.236 Y103.387 E0.00290
G1 X144.409 Y103.802 E0.01408
G1 X143.968 Y103.691 E0.01427
G1 F8640.000
G1 X144.097 Y103.228 E-0.11099
G1 X144.185 Y103.310 E-0.02779
G1 X144.236 Y103.387 E-0.02132
G1 X144.409 Y103.802 E-0.10370
G1 X143.968 Y103.691 E-0.10510
G1 E-0.43109 F2100.00000
G1 Z0.800 F10800.000
G1 X154.509 Y103.434
G1 Z0.200
G1 E0.80000 F2100.00000
G1 F1200.000
G1 X154.593 Y103.132 E0.00983
G1 X154.720 Y102.533 E0.01920
G1 X154.877 Y101.640 E0.02845
G1 X154.974 Y103.374 E0.05447
G1 X154.945 Y103.340 E0.00139
G1 X154.567 Y103.422 E0.01211
G1 F8640.000
G1 X154.593 Y103.132 E-0.06707
G1 X154.720 Y102.533 E-0.14140
G1 X154.877 Y101.640 E-0.20955
G1 X154.959 Y103.118 E-0.34198
G1 E-0.04000 F2100.00000
G1 Z0.800 F10800.000
G1 X154.940 Y109.968
G1 Z0.200
G1 E0.80000 F2100.00000
G1 F1200.000
G1 X154.959 Y110.017 E0.00164
G1 X154.902 Y110.005 E0.00182
G1 F8640.000
G1 X154.959 Y110.017 E-0.01341
G1 X154.902 Y110.005 E-0.01341
G1 E-0.77318 F2100.00000
G1 Z0.800 F10800.000
G1 X155.848 Y111.781
G1 Z0.200
G1 E0.80000 F2100.00000
G1 F1200.000
G1 X156.320 Y111.869 E0.01505
G1 X156.009 Y112.614 E0.02531
G1 X155.930 Y112.133 E0.01530
G1 X155.862 Y111.839 E0.00946
G1 F8640.000
G1 X156.320 Y111.869 E-0.10602
G1 X156.009 Y112.614 E-0.18641
G1 X155.930 Y112.133 E-0.11264
G1 X155.862 Y111.839 E-0.06969
G1 E-0.32524 F2100.00000
G1 Z0.800 F10800.000
G1 X140.408 Y150.372
G1 Z0.200
G1 E0.80000 F2100.00000
G1 F1200.000
G1 X140.294 Y150.458 E0.00450
G1 X140.269 Y150.319 E0.00443
G1 X140.352 Y150.351 E0.00281
G1 F8640.000
G1 X140.294 Y150.458 E-0.02824
G1 X140.269 Y150.319 E-0.03261
G1 X140.352 Y150.351 E-0.02067
G1 E-0.71848 F2100.00000
G1 Z0.800 F10800.000
G1 X142.583 Y151.044
G1 Z0.200
G1 E0.80000 F2100.00000
G1 F1200.000
G1 X143.034 Y150.948 E0.01448
G1 X143.032 Y151.876 E0.02910
G1 X142.987 Y152.185 E0.00979
G1 X142.605 Y151.099 E0.03608
G1 F8640.000
G1 X143.034 Y150.948 E-0.10517
G1 X143.032 Y151.876 E-0.21432
G1 X142.987 Y152.185 E-0.07207
G1 X142.605 Y151.099 E-0.26572
G1 E-0.14271 F2100.00000
G1 Z0.800 F10800.000
G1 X108.166 Y65.764
G1 Z0.200
G1 E0.80000 F2100.00000
G1 F1200.000
G1 X106.807 Y65.433 E0.04386
G1 X106.873 Y64.363 E0.03362
G1 X107.032 Y63.186 E0.03723
G1 X107.228 Y62.385 E0.02583
G1 X108.259 Y62.220 E0.03275
G1 X108.723 Y62.963 E0.02745
G1 X108.871 Y63.260 E0.01042
G1 X109.022 Y63.757 E0.01626
G1 X108.868 Y64.183 E0.01421
G1 X108.190 Y65.709 E0.05236
G1 X107.949 Y65.323 F10800.000
G1 F1200.000
G1 X107.203 Y65.141 E0.02408
G1 X107.249 Y64.400 E0.02330
G1 X107.403 Y63.256 E0.03618
G1 X107.535 Y62.718 E0.01736
G1 X108.072 Y62.632 E0.01706
G1 X108.394 Y63.147 E0.01904
G1 X108.520 Y63.400 E0.00886
G1 X108.625 Y63.746 E0.01134
G1 X108.518 Y64.042 E0.00986
G1 X107.973 Y65.268 E0.04206
G1 X107.833 Y65.706 F10800.000
G1 X108.159 Y65.922
G1 F1200.000
G1 X108.290 Y65.885 E0.00425
G1 X108.600 Y66.096 E0.01177
G1 X108.612 Y66.022 E0.00235
G1 X109.845 Y65.796 E0.03933
G1 X110.164 Y66.833 E0.03403
G1 X110.368 Y67.669 E0.02698
G1 X110.466 Y69.657 E0.06242
G1 X110.493 Y70.664 E0.03157
G1 X110.610 Y70.578 E0.00456
G1 X111.442 Y70.096 E0.03015
G1 X112.640 Y72.324 E0.07929
G1 X113.403 Y74.052 E0.05925
G1 X114.679 Y77.472 E0.11445
G1 X114.878 Y77.922 E0.01544
G1 X115.061 Y78.193 E0.01024
G1 X115.166 Y78.298 E0.00466
G1 X115.316 Y78.408 E0.00583
G1 X115.418 Y78.462 E0.00361
G1 X115.669 Y78.514 E0.00803
G1 X116.009 Y78.519 E0.01067
G1 X116.994 Y78.351 E0.03135
G1 X117.141 Y78.066 E0.01004
G1 X117.737 Y78.264 E0.01970
G1 X119.406 Y78.418 E0.05257
G1 X119.202 Y77.564 E0.02751
G1 X119.169 Y76.847 E0.02250
G1 X119.363 Y74.612 E0.07035
G1 X120.523 Y74.316 E0.03756
G1 X121.081 Y75.204 E0.03289
G1 X121.501 Y76.000 E0.02819
G1 X122.457 Y75.625 E0.03221
G1 X122.963 Y76.173 E0.02338
G1 X124.096 Y77.521 E0.05521
G1 X124.941 Y77.509 E0.02650
G1 X125.971 Y77.653 E0.03260
G1 X128.502 Y77.957 E0.07995
G1 X130.267 Y78.439 E0.05734
G1 X131.682 Y79.144 E0.04957
G1 X131.719 Y78.099 E0.03278
G1 X132.756 Y78.160 E0.03259
G1 X133.409 Y78.432 E0.02217
G1 X136.028 Y79.676 E0.09091
G1 X137.823 Y80.716 E0.06504
G1 X139.645 Y82.208 E0.07382
G1 X141.481 Y84.088 E0.08242
G1 X143.166 Y86.071 E0.08160
G1 X144.102 Y87.236 E0.04683
G1 X144.919 Y88.202 E0.03969
G1 X145.377 Y88.646 E0.01999
G1 X145.511 Y88.732 E0.00498
G1 X146.303 Y88.531 E0.02562
G1 X146.763 Y88.819 E0.01700
G1 X148.839 Y90.510 E0.08394
G1 X150.525 Y92.189 E0.07463
G1 X151.244 Y93.035 E0.03481
G1 X151.808 Y93.926 E0.03306
G1 X152.098 Y94.504 E0.02026
G1 X152.378 Y94.133 E0.01457
G1 X152.734 Y93.597 E0.02020
G1 X153.552 Y92.612 E0.04011
G1 X154.198 Y93.788 E0.04207
G1 X154.344 Y94.113 E0.01118
G1 X154.568 Y94.715 E0.02013
G1 X155.057 Y96.716 E0.06459
G1 X155.238 Y97.745 E0.03277
G1 X155.299 Y98.713 E0.03041
G1 X155.290 Y99.137 E0.01330
G1 X156.110 Y97.925 E0.04589
G1 X157.066 Y98.051 E0.03026
G1 X157.767 Y99.958 E0.06370
G1 X158.497 Y102.046 E0.06935
G1 X158.884 Y103.767 E0.05530
G1 X158.916 Y107.039 E0.10260
G1 X158.887 Y108.142 E0.03459
G1 X159.831 Y106.870 E0.04967
G1 X160.665 Y108.048 E0.04524
G1 X161.240 Y109.179 E0.03979
G1 X161.333 Y109.839 E0.02090
G1 X161.337 Y110.669 E0.02603
G1 X161.201 Y112.039 E0.04317
G1 X160.722 Y113.747 E0.05560
G1 X159.958 Y115.326 E0.05500
G1 X159.245 Y116.473 E0.04236
G1 X157.037 Y119.580 E0.11951
G1 X155.896 Y121.151 E0.06087
G1 X154.783 Y122.445 E0.05351
G1 X152.751 Y124.455 E0.08963
G1 X150.639 Y126.166 E0.08521
G1 X149.356 Y127.012 E0.04818
G1 X148.221 Y127.595 E0.04000
G1 X146.619 Y128.079 E0.05249
G1 X144.978 Y128.270 E0.05180
G1 X140.145 Y128.543 E0.15177
G1 X136.990 Y128.970 E0.09983
G1 X133.384 Y129.759 E0.11574
G1 X131.997 Y130.207 E0.04570
G1 X130.324 Y130.882 E0.05654
G1 X127.541 Y132.083 E0.09504
G1 X126.270 Y132.893 E0.04726
G1 X125.185 Y133.818 E0.04471
G1 X124.095 Y135.121 E0.05325
G1 X123.529 Y136.011 E0.03309
G1 X122.793 Y137.448 E0.05060
G1 X122.820 Y139.634 E0.06856
G1 X122.865 Y140.090 E0.01437
G1 X123.331 Y141.263 E0.03957
G1 X122.817 Y141.942 E0.02671
G1 X122.334 Y142.783 E0.03040
G1 X122.118 Y143.318 E0.01811
G1 X121.963 Y143.865 E0.01783
G1 X121.879 Y144.554 E0.02175
G1 X121.877 Y144.803 E0.00783
G1 X121.900 Y144.911 E0.00346
G1 X122.231 Y145.603 E0.02406
G1 X122.589 Y143.508 E0.06666
G1 X122.835 Y142.796 E0.02363
G1 X123.139 Y142.292 E0.01842
G1 X123.500 Y141.853 E0.01784
G1 X123.972 Y141.420 E0.02008
G1 X124.572 Y141.007 E0.02284
G1 X126.169 Y140.197 E0.05612
G1 X128.302 Y139.312 E0.07242
G1 X129.940 Y138.913 E0.05287
G1 X131.634 Y138.779 E0.05327
G1 X134.917 Y139.043 E0.10328
G1 X135.526 Y139.196 E0.01967
G1 X135.886 Y139.384 E0.01273
G1 X136.200 Y139.665 E0.01321
G1 X136.544 Y140.160 E0.01890
G1 X136.858 Y140.780 E0.02180
G1 X136.975 Y141.159 E0.01244
G1 X137.037 Y141.550 E0.01241
G1 X137.051 Y142.235 E0.02149
G1 X136.994 Y142.965 E0.02296
G1 X136.873 Y143.395 E0.01400
G1 X136.679 Y143.721 E0.01189
G1 X136.431 Y143.977 E0.01118
G1 X136.123 Y144.189 E0.01171
G1 X135.788 Y144.356 E0.01175
G1 X135.389 Y144.485 E0.01314
G1 X134.511 Y144.581 E0.02768
G1 X132.054 Y144.699 E0.07714
G1 X131.417 Y144.772 E0.02011
G1 X130.960 Y144.910 E0.01497
G1 X130.164 Y145.299 E0.02777
G1 X129.422 Y145.858 E0.02913
G1 X128.908 Y146.327 E0.02180
G1 X127.843 Y147.229 E0.04377
G1 X127.266 Y146.716 E0.02421
G1 X127.057 Y147.459 E0.02420
G1 X126.017 Y147.554 E0.03273
G1 X125.828 Y147.214 E0.01220
G1 X125.662 Y147.761 E0.01791
G1 X125.390 Y149.172 E0.04507
G1 X125.386 Y149.801 E0.01972
G1 X125.496 Y150.361 E0.01790
G1 X125.736 Y150.944 E0.01975
G1 X126.038 Y151.417 E0.01763
G1 X126.147 Y151.507 E0.00443
G1 X126.300 Y151.703 E0.00779
G1 X127.013 Y153.028 E0.04718
G1 X127.390 Y153.503 E0.01900
G1 X127.861 Y153.868 E0.01868
G1 X128.437 Y154.149 E0.02012
G1 X129.464 Y154.462 E0.03367
G1 X130.531 Y154.627 E0.03382
G1 X131.016 Y154.634 E0.01523
G1 X131.333 Y154.584 E0.01005
G1 X132.689 Y153.888 E0.04778
G1 X133.624 Y153.223 E0.03600
G1 X133.950 Y152.882 E0.01480
G1 X134.285 Y152.414 E0.01802
G1 X135.491 Y150.244 E0.07785
G1 X136.230 Y149.285 E0.03795
G1 X137.371 Y148.080 E0.05203
G1 X138.311 Y147.283 E0.03866
