; generated by PrusaSlicer 2.3.0+win64 on 2021-02-07 at 22:29:03 UTC

; 

; external perimeters extrusion width = 0.45mm
; perimeters extrusion width = 0.45mm
; infill extrusion width = 0.45mm
; solid infill extrusion width = 0.45mm
; top infill extrusion width = 0.40mm
; support material extrusion width = 0.35mm
; first layer extrusion width = 0.42mm

M73 P0 R85
M73 Q0 S85
M201 X1000 Y1000 Z200 E5000 ; sets maximum accelerations, mm/sec^2
M203 X200 Y200 Z12 E120 ; sets maximum feedrates, mm/sec
M204 P1250 R1250 T1250 ; sets acceleration (P, T) and retract acceleration (R), mm/sec^2
M205 X8.00 Y8.00 Z0.40 E4.50 ; sets the jerk limits, mm/sec
M205 S0 T0 ; sets the minimum extruding and travel feed rate, mm/sec
M107
;TYPE:Custom
M862.3 P "MK3S" ; printer model check
M862.1 P0.4 ; nozzle diameter check
M115 U3.9.1 ; tell printer latest fw version
G90 ; use absolute coordinates
M83 ; extruder relative mode
M104 S215 ; set extruder temp
M140 S60 ; set bed temp
M190 S60 ; wait for bed temp
M109 S215 ; wait for extruder temp
G28 W ; home all without mesh bed level
G80 ; mesh bed leveling
G1 Y-3.0 F1000.0 ; go outside print area
G92 E0.0
G1 X60.0 E9.0 F1000.0 ; intro line
G1 X100.0 E12.5 F1000.0 ; intro line
G92 E0.0
M221 S95

; Don't change E values below. Excessive value can damage the printer.
M907 E430 ; set extruder motor current
G21 ; set units to millimeters
G90 ; use absolute coordinates
M83 ; use relative distances for extrusion
M900 K0.05 ; Filament gcode LA 1.5
M900 K30 ; Filament gcode LA 1.0
;LAYER_CHANGE
;Z:0.2
;HEIGHT:0.2
;BEFORE_LAYER_CHANGE
G92 E0.0
;0.2


G1 E-0.80000 F2100.000
G1 Z0.600 F10800.000
;AFTER_LAYER_CHANGE
;0.2
G1 X67.428 Y41.116
G1 Z0.200
G1 E0.80000 F2100.000
M204 S1000
;TYPE:Skirt
;WIDTH:0.42
G1 F1200.000
G1 X67.834 Y40.410 E0.02555
G1 X68.203 Y40.053 E0.01609
G1 X68.643 Y39.782 E0.01621
G1 X69.128 Y39.614 E0.01609
G1 X69.641 Y39.553 E0.01621
G1 X179.665 Y39.553 E3.44972
M73 P0 R84
G1 X180.567 Y39.732 E0.02884
G1 X181.331 Y40.238 E0.02872
G1 X181.849 Y40.998 E0.02884
G1 X182.038 Y41.898 E0.02884
G1 X182.039 Y171.941 E4.07741
G1 X181.895 Y172.744 E0.02555
G1 X181.489 Y173.450 E0.02555
G1 X181.114 Y173.812 E0.01633
G1 X180.673 Y174.081 E0.01621
G1 X180.184 Y174.249 E0.01621
G1 X179.666 Y174.307 E0.01633
G1 X69.650 Y174.307 E3.44948
G1 X68.848 Y174.163 E0.02555
G1 X68.141 Y173.757 E0.02555
G1 X67.780 Y173.383 E0.01633
G1 X67.510 Y172.941 E0.01621
G1 X67.343 Y172.452 E0.01621
G1 X67.284 Y171.935 E0.01633
G1 X67.285 Y41.919 E4.07657
M73 Q0 S84
G1 X67.417 Y41.175 E0.02367
;WIPE_START
G1 F8640.000
G1 X67.834 Y40.410 E-0.20126
G1 X68.203 Y40.053 E-0.11850
G1 X68.643 Y39.782 E-0.11938
G1 X69.128 Y39.614 E-0.11850
G1 X69.641 Y39.553 E-0.11938
G1 X70.001 Y39.553 E-0.08299
;WIPE_END
G1 E-0.04000 F2100.000
G1 Z0.800 F10800.000
G1 X92.233 Y81.256
G1 Z0.200
G1 E0.80000 F2100.000
;TYPE:Support material
G1 F1200.000
G1 X92.233 Y78.464 E0.08756
G1 X92.987 Y78.464 E0.02365
G1 X92.987 Y81.087 E0.08224
G1 X93.741 Y81.087 E0.02365
G1 X93.741 Y78.464 E0.08224
G1 X94.495 Y78.464 E0.02365
G1 X94.495 Y81.087 E0.08224
G1 X95.249 Y81.087 E0.02365
G1 X95.249 Y78.464 E0.08224
G1 X96.004 Y78.464 E0.02365
G1 X96.004 Y81.087 E0.08224
G1 X96.758 Y81.087 E0.02365
G1 X96.758 Y78.464 E0.08224
G1 X97.512 Y78.464 E0.02365
G1 X97.512 Y83.404 E0.15491
G1 X98.266 Y83.404 E0.02365
G1 X98.266 Y78.729 E0.14659
G1 X98.545 Y78.769 E0.00884
G1 X99.020 Y78.464 E0.01770
G1 X99.020 Y83.574 E0.16023
;WIPE_START
G1 F8640.000
G1 X99.020 Y80.283 E-0.76000
;WIPE_END
G1 E-0.04000 F2100.000
G1 Z0.800 F10800.000
G1 X92.557 Y81.291
G1 Z0.200
G1 E0.80000 F2100.000
;TYPE:Support material interface
;WIDTH:0.35
G1 F1200.000
G1 X92.557 Y88.387 E0.18120
G1 X93.075 Y88.387 E0.01322
G1 X93.075 Y81.434 E0.17755
G1 X93.593 Y81.434 E0.01322
G1 X93.593 Y88.387 E0.17755
G1 X94.111 Y88.387 E0.01322
G1 X94.111 Y81.434 E0.17755
G1 X94.629 Y81.434 E0.01322
G1 X94.629 Y90.705 E0.23673
G1 X95.146 Y90.705 E0.01322
G1 X95.146 Y81.434 E0.23673
G1 X95.664 Y81.434 E0.01322
G1 X95.664 Y90.705 E0.23673
G1 X96.182 Y90.705 E0.01322
G1 X96.182 Y81.434 E0.23673
G1 X96.700 Y81.434 E0.01322
G1 X96.700 Y90.705 E0.23673
G1 X97.218 Y90.705 E0.01322
G1 X97.218 Y83.752 E0.17755
G1 X97.735 Y83.752 E0.01322
G1 X97.735 Y90.705 E0.17755
G1 X98.253 Y90.705 E0.01322
G1 X98.253 Y83.752 E0.17755
G1 X98.771 Y83.752 E0.01322
G1 X98.771 Y90.848 E0.18120
G1 X92.233 Y90.445 F10800.000
;TYPE:Support material
;WIDTH:0.42
G1 F1200.000
G1 X92.233 Y88.735 E0.05361
G1 X92.987 Y88.735 E0.02365
G1 X92.987 Y91.774 E0.09530
G1 X93.741 Y93.535 E0.06006
G1 X93.741 Y88.735 E0.15051
G1 X94.183 Y88.735 E0.01384
G1 X94.183 Y91.053 E0.07267
G1 X94.495 Y91.053 E0.00980
G1 X94.495 Y93.676 E0.08224
G1 X95.249 Y93.676 E0.02365
G1 X95.249 Y91.053 E0.08224
G1 X96.004 Y91.053 E0.02365
G1 X96.004 Y93.676 E0.08224
G1 X96.758 Y93.676 E0.02365
G1 X96.758 Y91.053 E0.08224
G1 X97.512 Y91.053 E0.02365
G1 X97.512 Y93.676 E0.08224
G1 X98.266 Y93.676 E0.02365
G1 X98.266 Y91.053 E0.08224
G1 X99.020 Y91.053 E0.02365
G1 X99.020 Y93.676 E0.08224
G1 X99.774 Y93.676 E0.02365
G1 X99.774 Y78.464 E0.47696
G1 X99.818 Y78.464 E0.00137
G1 X99.818 Y80.782 E0.07267
G1 X100.528 Y80.782 E0.02227
G1 X100.528 Y93.845 E0.40960
;WIPE_START
G1 F8640.000
G1 X100.528 Y90.554 E-0.76000
;WIPE_END
G1 E-0.04000 F2100.000
G1 Z0.800 F10800.000
G1 X99.020 Y94.519
G1 Z0.200
G1 E0.80000 F2100.000
G1 F1200.000
G1 X99.020 Y105.861 E0.35563
G1 X99.562 Y107.126 E0.04316
G1 X99.774 Y107.407 E0.01102
G1 X99.774 Y94.688 E0.39877
G1 X100.528 Y94.688 E0.02365
G1 X100.528 Y108.403 E0.43002
G1 X101.136 Y109.206 E0.03157
G1 X101.136 Y97.311 E0.37296
G1 X101.283 Y97.311 E0.00460
G1 X101.283 Y80.782 E0.51828
G1 X102.037 Y80.782 E0.02365
G1 X102.037 Y97.311 E0.51828
G1 X102.791 Y97.311 E0.02365
G1 X102.791 Y90.053 E0.22758
G1 X103.545 Y90.053 E0.02365
G1 X103.545 Y92.676 E0.08224
G1 X104.299 Y92.676 E0.02365
G1 X104.299 Y90.053 E0.08224
G1 X105.053 Y90.053 E0.02365
G1 X105.053 Y92.676 E0.08224
G1 X105.808 Y92.676 E0.02365
G1 X105.808 Y90.053 E0.08224
G1 X106.562 Y90.053 E0.02365
G1 X106.562 Y92.676 E0.08224
M73 Q1 S84
G1 X107.316 Y92.676 E0.02365
G1 X107.316 Y90.053 E0.08224
M73 P1 R84
G1 X108.070 Y90.053 E0.02365
G1 X108.070 Y92.676 E0.08224
G1 X108.784 Y92.676 E0.02240
G1 X108.784 Y94.993 E0.07267
G1 X108.824 Y94.993 E0.00125
G1 X108.824 Y90.053 E0.15491
G1 X109.578 Y90.053 E0.02365
G1 X109.578 Y94.993 E0.15491
G1 X110.333 Y94.993 E0.02365
G1 X110.333 Y90.053 E0.15491
G1 X111.087 Y90.053 E0.02365
G1 X111.087 Y94.993 E0.15491
G1 X111.841 Y94.993 E0.02365
G1 X111.841 Y92.371 E0.08224
G1 X112.595 Y92.371 E0.02365
G1 X112.595 Y94.993 E0.08224
G1 X113.349 Y94.993 E0.02365
G1 X113.349 Y92.371 E0.08224
G1 X114.103 Y92.371 E0.02365
G1 X114.103 Y94.993 E0.08224
G1 X114.857 Y94.993 E0.02365
G1 X114.857 Y92.851 E0.06718
G1 X115.369 Y94.067 E0.04136
G1 X115.612 Y94.206 E0.00877
G1 X115.612 Y94.993 E0.02470
G1 X116.366 Y94.993 E0.02365
G1 X116.366 Y94.121 E0.02735
G1 X117.120 Y94.037 E0.02379
G1 X117.120 Y94.993 E0.02999
G1 X117.874 Y94.993 E0.02365
G1 X117.874 Y93.952 E0.03264
G1 X118.102 Y93.927 E0.00719
G1 X118.313 Y93.691 E0.00990
G1 X118.313 Y92.371 E0.04141
G1 X118.628 Y92.371 E0.00989
G1 X118.628 Y97.311 E0.15491
G1 X119.382 Y97.311 E0.02365
G1 X119.382 Y92.371 E0.15491
G1 X120.137 Y92.371 E0.02365
G1 X120.137 Y97.311 E0.15491
G1 X120.891 Y97.311 E0.02365
G1 X120.891 Y94.688 E0.08224
G1 X121.645 Y94.688 E0.02365
G1 X121.645 Y97.311 E0.08224
G1 X122.399 Y97.311 E0.02365
G1 X122.399 Y94.688 E0.08224
G1 X123.153 Y94.688 E0.02365
G1 X123.153 Y97.311 E0.08224
G1 X123.907 Y97.311 E0.02365
G1 X123.907 Y94.688 E0.08224
G1 X124.662 Y94.688 E0.02365
G1 X124.662 Y97.311 E0.08224
G1 X125.416 Y97.311 E0.02365
G1 X125.416 Y94.688 E0.08224
G1 X126.170 Y94.688 E0.02365
G1 X126.170 Y97.311 E0.08224
G1 X126.924 Y97.311 E0.02365
G1 X126.924 Y94.688 E0.08224
G1 X127.678 Y94.688 E0.02365
G1 X127.678 Y99.629 E0.15491
G1 X128.432 Y99.629 E0.02365
G1 X128.432 Y94.688 E0.15491
G1 X129.187 Y94.688 E0.02365
G1 X129.187 Y99.629 E0.15491
G1 X129.941 Y99.629 E0.02365
G1 X129.950 Y94.688 E0.15491
G1 X129.950 Y97.006 E0.07267
G1 X130.695 Y97.006 E0.02336
G1 X130.695 Y99.629 E0.08224
G1 X131.449 Y99.629 E0.02365
G1 X131.449 Y97.006 E0.08224
G1 X132.203 Y97.006 E0.02365
G1 X132.203 Y99.629 E0.08224
G1 X132.957 Y99.629 E0.02365
G1 X132.957 Y97.006 E0.08224
G1 X133.711 Y97.006 E0.02365
G1 X133.711 Y99.629 E0.08224
G1 X134.280 Y99.629 E0.01783
G1 X134.280 Y101.947 E0.07267
G1 X134.466 Y101.947 E0.00581
G1 X134.466 Y97.006 E0.15491
G1 X134.726 Y97.006 E0.00817
G1 X135.220 Y97.412 E0.02003
G1 X135.220 Y101.947 E0.14219
G1 X135.974 Y101.947 E0.02365
G1 X135.974 Y97.802 E0.12995
G1 X136.728 Y98.581 E0.03399
G1 X136.728 Y104.265 E0.17821
G1 X137.482 Y104.265 E0.02365
G1 X137.482 Y99.409 E0.15225
G1 X138.236 Y100.326 E0.03723
G1 X138.236 Y104.434 E0.12882
G1 X102.037 Y109.426 F10800.000
G1 F1200.000
G1 X102.037 Y110.397 E0.03045
G1 X102.791 Y111.393 E0.03919
G1 X102.791 Y109.595 E0.05638
G1 X103.454 Y109.595 E0.02078
G1 X103.454 Y111.913 E0.07267
G1 X103.545 Y111.913 E0.00286
G1 X103.545 Y112.390 E0.01496
G1 X104.299 Y113.387 E0.03919
G1 X104.299 Y111.913 E0.04621
G1 X105.053 Y111.913 E0.02365
G1 X105.053 Y114.383 E0.07746
G1 X105.808 Y115.380 E0.03919
G1 X105.808 Y114.231 E0.03604
G1 X106.562 Y114.231 E0.02365
G1 X106.562 Y115.654 E0.04463
G1 X107.316 Y115.683 E0.02366
G1 X107.316 Y114.231 E0.04553
G1 X108.070 Y114.231 E0.02365
G1 X108.070 Y115.712 E0.04643
G1 X108.824 Y115.740 E0.02366
G1 X108.824 Y114.231 E0.04732
G1 X109.578 Y114.231 E0.02365
G1 X109.578 Y115.769 E0.04822
G1 X110.333 Y115.797 E0.02366
G1 X110.333 Y114.231 E0.04912
G1 X111.087 Y114.231 E0.02365
G1 X111.087 Y115.826 E0.05002
G1 X111.841 Y115.855 E0.02366
G1 X111.841 Y114.231 E0.05092
G1 X112.595 Y114.231 E0.02365
G1 X112.595 Y115.883 E0.05182
G1 X113.349 Y115.912 E0.02366
G1 X113.349 Y114.231 E0.05272
G1 X114.103 Y114.231 E0.02365
G1 X114.103 Y115.941 E0.05361
G1 X114.857 Y115.969 E0.02366
G1 X114.857 Y114.231 E0.05451
G1 X115.612 Y114.231 E0.02365
G1 X115.612 Y115.998 E0.05541
G1 X116.366 Y116.027 E0.02366
G1 X116.366 Y114.231 E0.05631
G1 X117.120 Y114.231 E0.02365
G1 X117.120 Y116.055 E0.05721
G1 X117.874 Y116.084 E0.02366
G1 X117.874 Y114.231 E0.05811
G1 X118.628 Y114.231 E0.02365
G1 X118.628 Y116.113 E0.05900
G1 X119.382 Y116.141 E0.02366
G1 X119.382 Y114.231 E0.05990
G1 X120.137 Y114.231 E0.02365
G1 X120.137 Y116.170 E0.06080
G1 X120.891 Y116.199 E0.02366
G1 X120.891 Y114.231 E0.06170
G1 X121.645 Y114.231 E0.02365
G1 X121.645 Y116.397 E0.06792
;WIPE_START
G1 F8640.000
G1 X121.645 Y114.231 E-0.50020
G1 X120.891 Y114.231 E-0.17414
G1 X120.891 Y114.602 E-0.08566
;WIPE_END
G1 E-0.04000 F2100.000
G1 Z0.800 F10800.000
G1 X121.037 Y114.026
G1 Z0.200
G1 E0.80000 F2100.000
;TYPE:Support material interface
;WIDTH:0.35
G1 F1200.000
G1 X121.037 Y106.248 E0.19862
G1 X120.519 Y106.248 E0.01322
G1 X120.519 Y113.883 E0.19497
G1 X120.001 Y113.883 E0.01322
G1 X120.001 Y106.248 E0.19497
G1 X119.483 Y106.248 E0.01322
G1 X119.483 Y113.883 E0.19497
G1 X118.966 Y113.883 E0.01322
G1 X118.966 Y106.248 E0.19497
G1 X118.448 Y106.248 E0.01322
G1 X118.448 Y113.883 E0.19497
G1 X117.930 Y113.883 E0.01322
G1 X117.930 Y106.248 E0.19497
G1 X117.412 Y106.248 E0.01322
G1 X117.412 Y113.883 E0.19497
G1 X116.894 Y113.883 E0.01322
G1 X116.894 Y106.248 E0.19497
G1 X116.377 Y106.248 E0.01322
G1 X116.377 Y113.883 E0.19497
G1 X115.859 Y113.883 E0.01322
G1 X115.859 Y106.248 E0.19497
G1 X115.341 Y106.248 E0.01322
G1 X115.341 Y113.883 E0.19497
G1 X114.823 Y113.883 E0.01322
G1 X114.823 Y106.248 E0.19497
G1 X114.305 Y106.248 E0.01322
G1 X114.305 Y114.026 E0.19862
G1 X125.416 Y116.540 F10800.000
;TYPE:Support material
;WIDTH:0.42
G1 F1200.000
G1 X125.416 Y114.231 E0.07241
G1 X126.170 Y114.231 E0.02365
G1 X126.170 Y116.399 E0.06799
G1 X126.924 Y116.428 E0.02366
G1 X126.924 Y114.231 E0.06889
M73 P1 R83
G1 X127.678 Y114.231 E0.02365
G1 X127.678 Y116.457 E0.06979
G1 X128.432 Y116.485 E0.02366
G1 X128.432 Y114.231 E0.07068
G1 X129.187 Y114.231 E0.02365
G1 X129.187 Y116.514 E0.07158
G1 X129.941 Y116.542 E0.02366
G1 X129.941 Y114.231 E0.07248
G1 X130.695 Y114.231 E0.02365
G1 X130.695 Y116.571 E0.07338
G1 X131.449 Y116.600 E0.02366
G1 X131.449 Y114.231 E0.07428
G1 X132.203 Y114.231 E0.02365
G1 X132.203 Y116.628 E0.07518
G1 X132.957 Y116.657 E0.02366
G1 X132.957 Y114.231 E0.07607
G1 X133.711 Y114.231 E0.02365
G1 X133.711 Y116.686 E0.07697
G1 X134.466 Y116.714 E0.02366
G1 X134.466 Y114.231 E0.07787
G1 X135.220 Y114.231 E0.02365
G1 X135.220 Y116.743 E0.07877
G1 X135.974 Y116.772 E0.02366
G1 X135.974 Y114.231 E0.07967
G1 X136.598 Y114.231 E0.01957
G1 X136.598 Y109.595 E0.14535
G1 X136.728 Y109.595 E0.00408
G1 X136.728 Y116.800 E0.22591
G1 X137.482 Y116.829 E0.02366
G1 X137.482 Y109.595 E0.22681
G1 X138.236 Y109.595 E0.02365
G1 X138.236 Y116.214 E0.20754
G1 X138.463 Y116.214 E0.00712
G1 X138.716 Y115.964 E0.01114
G1 X138.817 Y115.902 E0.00374
G1 X138.949 Y115.858 E0.00435
G1 X138.991 Y115.802 E0.00217
G1 X138.991 Y101.411 E0.45124
G1 X139.524 Y102.336 E0.03350
G1 X139.745 Y102.772 E0.01531
G1 X139.745 Y112.218 E0.29618
G1 X140.499 Y112.218 E0.02365
G1 X140.499 Y104.356 E0.24650
G1 X141.253 Y105.991 E0.05644
G1 X141.253 Y111.993 E0.18819
;WIPE_START
G1 F8640.000
G1 X141.253 Y108.701 E-0.76000
;WIPE_END
G1 E-0.04000 F2100.000
G1 Z0.800 F10800.000
G1 X138.125 Y109.391
G1 Z0.200
G1 E0.80000 F2100.000
;TYPE:Support material interface
;WIDTH:0.35
G1 F1200.000
G1 X138.125 Y104.612 E0.12202
G1 X137.607 Y104.612 E0.01322
G1 X137.607 Y109.248 E0.11837
G1 X137.089 Y109.248 E0.01322
G1 X137.089 Y104.612 E0.11837
G1 X136.571 Y104.612 E0.01322
G1 X136.571 Y109.248 E0.11837
G1 X136.251 Y109.248 E0.00818
G1 X136.251 Y113.883 E0.11836
G1 X136.053 Y113.883 E0.00504
G1 X136.053 Y102.294 E0.29591
G1 X135.536 Y102.294 E0.01322
G1 X135.536 Y113.883 E0.29591
G1 X135.018 Y113.883 E0.01322
G1 X135.018 Y102.294 E0.29591
G1 X134.500 Y102.294 E0.01322
G1 X134.500 Y113.883 E0.29591
G1 X133.982 Y113.883 E0.01322
G1 X133.982 Y102.294 E0.29591
G1 X133.933 Y102.294 E0.00126
G1 X133.933 Y99.976 E0.05918
G1 X133.464 Y99.976 E0.01196
G1 X133.464 Y113.883 E0.35510
G1 X132.947 Y113.883 E0.01322
G1 X132.947 Y99.976 E0.35510
G1 X132.429 Y99.976 E0.01322
G1 X132.429 Y113.883 E0.35510
G1 X131.911 Y113.883 E0.01322
G1 X131.911 Y99.976 E0.35510
M73 Q1 S83
G1 X131.393 Y99.976 E0.01322
G1 X131.393 Y113.883 E0.35510
G1 X130.875 Y113.883 E0.01322
G1 X130.875 Y99.976 E0.35510
G1 X130.357 Y99.976 E0.01322
G1 X130.357 Y113.883 E0.35510
G1 X129.840 Y113.883 E0.01322
G1 X129.840 Y99.976 E0.35510
G1 X129.322 Y99.976 E0.01322
G1 X129.322 Y113.883 E0.35510
G1 X128.804 Y113.883 E0.01322
G1 X128.804 Y99.976 E0.35510
G1 X128.286 Y99.976 E0.01322
G1 X128.286 Y113.883 E0.35510
G1 X127.768 Y113.883 E0.01322
G1 X127.768 Y99.976 E0.35510
G1 X127.251 Y99.976 E0.01322
G1 X127.251 Y113.883 E0.35510
G1 X126.733 Y113.883 E0.01322
G1 X126.733 Y97.659 E0.41428
G1 X126.215 Y97.659 E0.01322
G1 X126.215 Y113.883 E0.41428
G1 X125.697 Y113.883 E0.01322
G1 X125.697 Y97.659 E0.41428
G1 X125.179 Y97.659 E0.01322
G1 X125.179 Y113.883 E0.41428
G1 X124.662 Y113.883 E0.01322
G1 X124.662 Y116.201 E0.05918
G1 X124.662 Y97.659 E0.47346
G1 X124.144 Y97.659 E0.01322
G1 X124.144 Y116.201 E0.47346
G1 X123.626 Y116.201 E0.01322
G1 X123.626 Y97.659 E0.47346
G1 X123.108 Y97.659 E0.01322
G1 X123.108 Y116.201 E0.47346
G1 X122.590 Y116.201 E0.01322
G1 X122.590 Y97.659 E0.47346
G1 X122.073 Y97.659 E0.01322
G1 X122.073 Y113.883 E0.41428
G1 X121.555 Y113.883 E0.01322
G1 X121.555 Y97.659 E0.41428
M73 P2 R83
M73 Q2 S83
G1 X121.037 Y97.659 E0.01322
G1 X121.037 Y105.294 E0.19497
G1 X120.519 Y105.294 E0.01322
G1 X120.519 Y97.659 E0.19497
G1 X120.001 Y97.659 E0.01322
G1 X120.001 Y105.294 E0.19497
G1 X119.483 Y105.294 E0.01322
G1 X119.483 Y97.659 E0.19497
G1 X118.966 Y97.659 E0.01322
G1 X118.966 Y105.294 E0.19497
G1 X118.448 Y105.294 E0.01322
G1 X118.448 Y97.659 E0.19497
G1 X117.930 Y97.659 E0.01322
G1 X117.930 Y105.294 E0.19497
G1 X117.412 Y105.294 E0.01322
G1 X117.412 Y95.341 E0.25415
