; generated by PrusaSlicer 2.1.1+win64 on 2020-03-10 at 01:00:16 UTC

; 

; external perimeters extrusion width = 0.45mm
; perimeters extrusion width = 0.45mm
; infill extrusion width = 0.45mm
; solid infill extrusion width = 0.45mm
; top infill extrusion width = 0.40mm
; first layer extrusion width = 1.00mm

M73 P0 R35
M73 Q0 S35
M201 X1000 Y1000 Z1000 E5000 ; sets maximum accelerations, mm/sec^2
M203 X200 Y200 Z12 E120 ; sets maximum feedrates, mm/sec
M204 P1250 R1250 T1250 ; sets acceleration (P, T) and retract acceleration (R), mm/sec^2
M205 X8.00 Y8.00 Z0.40 E4.50 ; sets the jerk limits, mm/sec
M205 S0 T0 ; sets the minimum extruding and travel feed rate, mm/sec
M107
M862.3 P "MK3S" ; printer model check
M862.1 P0.4 ; nozzle diameter check
M115 U3.8.1 ; tell printer latest fw version
G90 ; use absolute coordinates
M83 ; extruder relative mode
M104 S215 ; set extruder temp
M140 S60 ; set bed temp
M190 S60 ; wait for bed temp
M109 S215 ; wait for extruder temp
G28 W ; home all without mesh bed level
G80 ; mesh bed leveling
G1 Y-3.0 F1000.0 ; go outside print area
G92 E0.0
G1 X60.0 E9.0 F1000.0 ; intro line
M73 Q0 S35
M73 P0 R35
G1 X100.0 E12.5 F1000.0 ; intro line
G92 E0.0
M221 S95
G21 ; set units to millimeters
G90 ; use absolute coordinates
M83 ; use relative distances for extrusion
M900 K30 ; Filament gcode
;BEFORE_LAYER_CHANGE
G92 E0.0
;0.2


G1 E-0.80000 F2100.00000
G1 Z0.600 F10800.000
;AFTER_LAYER_CHANGE
;0.2
G1 X91.534 Y90.192
G1 Z0.200
G1 E0.80000 F2100.00000
M204 S1000
G1 F1200
G1 X92.492 Y89.996 E0.07780
G1 X157.504 Y89.996 E5.17372
G1 X158.433 Y90.179 E0.07537
G1 X159.224 Y90.694 E0.07506
G1 X159.766 Y91.470 E0.07537
G1 X159.977 Y92.393 E0.07537
G1 X159.975 Y117.661 E2.01084
G1 X159.841 Y118.338 E0.05492
G1 X159.526 Y118.952 E0.05492
G1 X159.054 Y119.456 E0.05492
G1 X158.466 Y119.808 E0.05461
G1 X157.508 Y120.004 E0.07780
G1 X92.453 Y120.003 E5.17713
G1 X91.750 Y119.887 E0.05676
G1 X91.111 Y119.578 E0.05645
G1 X90.587 Y119.101 E0.05645
G1 X90.217 Y118.491 E0.05676
G1 X90.022 Y117.544 E0.07689
G1 X90.024 Y92.358 E2.00434
G1 X90.154 Y91.677 E0.05522
G1 X90.467 Y91.057 E0.05522
G1 X90.940 Y90.549 E0.05522
G1 X91.483 Y90.223 E0.05045
G1 F8640
G1 X92.492 Y89.996 E-0.23884
G1 X94.749 Y89.996 E-0.52116
G1 E-0.04000 F2100.00000
G1 Z0.800 F10800.000
G1 X151.164 Y112.628
G1 Z0.200
G1 E0.80000 F2100.00000
G1 F1200
G1 X151.368 Y112.215 E0.03670
G1 X151.685 Y111.802 E0.04138
G1 X152.080 Y111.465 E0.04138
G1 X152.485 Y111.238 E0.03696
G1 X152.976 Y111.078 E0.04111
G1 X153.434 Y111.024 E0.03670
G1 X153.895 Y111.054 E0.03670
G1 X154.394 Y111.188 E0.04111
G1 X154.810 Y111.393 E0.03697
G1 X155.220 Y111.708 E0.04111
G1 X155.526 Y112.057 E0.03697
G1 X155.785 Y112.504 E0.04111
G1 X155.934 Y112.944 E0.03697
G1 X156.002 Y113.459 E0.04138
G1 X155.961 Y113.978 E0.04138
G1 X155.836 Y114.422 E0.03670
G1 X155.632 Y114.835 E0.03670
G1 X155.317 Y115.245 E0.04111
G1 X154.968 Y115.551 E0.03697
G1 X154.518 Y115.811 E0.04138
G1 X154.023 Y115.972 E0.04137
G1 X153.566 Y116.026 E0.03670
G1 X153.105 Y115.996 E0.03670
G1 X152.606 Y115.862 E0.04111
G1 X152.190 Y115.657 E0.03697
G1 X151.777 Y115.340 E0.04138
G1 X151.440 Y114.945 E0.04137
G1 X151.213 Y114.540 E0.03697
G1 X151.053 Y114.049 E0.04111
G1 X150.998 Y113.587 E0.03697
G1 X151.039 Y113.072 E0.04111
G1 X151.148 Y112.686 E0.03193
G1 X150.911 Y112.319 F10800.000
G1 F8640
G1 X151.368 Y112.215 E-0.12014
G1 X151.685 Y111.802 E-0.12005
G1 X152.080 Y111.465 E-0.12005
G1 X152.485 Y111.238 E-0.10725
G1 X152.976 Y111.078 E-0.11929
G1 X153.434 Y111.024 E-0.10649
G1 X153.723 Y111.043 E-0.06673
G1 E-0.04000 F2100.00000
G1 Z0.800 F10800.000
G1 X155.831 Y116.068
G1 Z0.200
G1 E0.80000 F2100.00000
G1 F1200
G1 X156.043 Y115.872 E0.02299
G1 X156.043 Y116.068 E0.01560
G1 X155.891 Y116.068 E0.01210
G1 F8640
G1 X156.043 Y115.872 E-0.05729
G1 X156.043 Y116.068 E-0.04527
G1 X155.891 Y116.068 E-0.03512
G1 E-0.66232 F2100.00000
G1 Z0.800 F10800.000
G1 X151.153 Y116.068
G1 Z0.200
G1 E0.80000 F2100.00000
G1 F1200
G1 X98.829 Y116.068 E4.16404
G1 X99.013 Y115.910 E0.01932
G1 X99.449 Y115.343 E0.05688
G1 X99.733 Y114.766 E0.05121
G1 X99.908 Y114.147 E0.05120
G1 X99.964 Y113.434 E0.05688
G1 X99.871 Y112.726 E0.05688
G1 X99.664 Y112.116 E0.05120
G1 X99.349 Y111.555 E0.05121
G1 X98.885 Y111.012 E0.05688
G1 X98.318 Y110.576 E0.05688
G1 X97.732 Y110.288 E0.05197
G1 X97.051 Y110.105 E0.05612
G1 X96.409 Y110.063 E0.05120
G1 X95.770 Y110.139 E0.05120
G1 X95.091 Y110.359 E0.05688
G1 X94.472 Y110.717 E0.05688
G1 X93.957 Y111.178 E0.05499
G1 X93.957 Y93.932 E1.37247
G1 X114.803 Y93.932 E1.65896
G1 X119.161 Y98.290 E0.49043
G1 X119.145 Y98.677 E0.03087
G1 X119.193 Y99.135 E0.03664
G1 X119.298 Y99.574 E0.03588
G1 X119.462 Y100.004 E0.03663
G1 X119.716 Y100.460 E0.04153
G1 X120.012 Y100.849 E0.03892
G1 X120.519 Y101.321 E0.05513
G1 X121.105 Y101.673 E0.05437
G1 X121.483 Y101.826 E0.03249
G1 X121.936 Y101.950 E0.03740
G1 X122.626 Y102.018 E0.05513
G1 X123.343 Y101.938 E0.05742
G1 X124.028 Y101.712 E0.05742
G1 X124.651 Y101.349 E0.05742
G1 X125.172 Y100.877 E0.05589
G1 X125.506 Y100.439 E0.04382
G1 X125.730 Y100.037 E0.03663
G1 X125.896 Y99.618 E0.03588
G1 X126.007 Y99.181 E0.03587
G1 X126.059 Y98.735 E0.03575
G1 X126.055 Y98.367 E0.02932
G1 X130.490 Y93.932 E0.49908
G1 X156.043 Y93.932 E2.03356
G1 X156.043 Y111.194 E1.37374
G1 X155.878 Y111.006 E0.01996
G1 X155.318 Y110.576 E0.05611
G1 X154.732 Y110.288 E0.05197
G1 X154.051 Y110.105 E0.05612
G1 X153.409 Y110.063 E0.05120
G1 X152.770 Y110.139 E0.05120
G1 X152.100 Y110.357 E0.05612
G1 X151.530 Y110.676 E0.05197
G1 X150.986 Y111.140 E0.05688
G1 X150.551 Y111.707 E0.05688
G1 X150.267 Y112.284 E0.05120
G1 X150.092 Y112.903 E0.05120
G1 X150.037 Y113.606 E0.05612
G1 X150.114 Y114.255 E0.05197
G1 X150.331 Y114.925 E0.05612
G1 X150.651 Y115.495 E0.05197
G1 X151.107 Y116.030 E0.05595
G1 F8640
G1 X147.816 Y116.032 E-0.76000
G1 E-0.04000 F2100.00000
G1 Z0.800 F10800.000
G1 X99.002 Y113.460
G1 Z0.200
G1 E0.80000 F2100.00000
G1 F1200
G1 X98.961 Y113.978 E0.04137
G1 X98.836 Y114.422 E0.03670
G1 X98.632 Y114.835 E0.03671
G1 X98.315 Y115.248 E0.04137
G1 X97.920 Y115.585 E0.04138
G1 X97.515 Y115.812 E0.03696
G1 X97.024 Y115.972 E0.04111
G1 X96.566 Y116.026 E0.03670
G1 X96.105 Y115.996 E0.03670
G1 X95.606 Y115.862 E0.04111
G1 X95.190 Y115.657 E0.03696
G1 X94.777 Y115.340 E0.04138
G1 X94.440 Y114.945 E0.04137
G1 X94.213 Y114.540 E0.03697
G1 X94.053 Y114.049 E0.04111
G1 X93.998 Y113.587 E0.03697
G1 X94.039 Y113.072 E0.04111
G1 X94.164 Y112.628 E0.03670
G1 X94.368 Y112.215 E0.03670
G1 X94.683 Y111.805 E0.04111
G1 X95.032 Y111.499 E0.03697
G1 X95.482 Y111.239 E0.04138
G1 X95.976 Y111.078 E0.04137
G1 X96.435 Y111.024 E0.03670
G1 X96.895 Y111.054 E0.03670
G1 X97.394 Y111.188 E0.04111
G1 X97.810 Y111.393 E0.03697
G1 X98.223 Y111.710 E0.04138
G1 X98.560 Y112.105 E0.04137
G1 X98.786 Y112.507 E0.03670
G1 X98.934 Y112.944 E0.03670
G1 X98.994 Y113.400 E0.03660
G1 X99.353 Y113.652 F10800.000
G1 F8640
G1 X98.961 Y113.978 E-0.13363
G1 X98.836 Y114.422 E-0.10649
G1 X98.632 Y114.835 E-0.10650
G1 X98.315 Y115.248 E-0.12004
G1 X97.920 Y115.585 E-0.12005
G1 X97.515 Y115.812 E-0.10725
G1 X97.243 Y115.901 E-0.06604
G1 E-0.04000 F2100.00000
G1 Z0.800 F10800.000
G1 X94.153 Y116.068
G1 Z0.200
G1 E0.80000 F2100.00000
G1 F1200
G1 X93.957 Y116.068 E0.01560
G1 X93.957 Y115.854 E0.01704
G1 X94.107 Y116.030 E0.01840
G1 F8640
G1 X93.957 Y116.068 E-0.03577
G1 X93.957 Y115.854 E-0.04943
G1 X94.107 Y116.030 E-0.05337
G1 E-0.66143 F2100.00000
G1 Z0.800 F10800.000
G1 X93.000 Y117.025
G1 Z0.200
G1 E0.80000 F2100.00000
G1 F1200
G1 X93.000 Y92.975 E1.91394
G1 X115.200 Y92.975 E1.76668
G1 X120.177 Y97.952 E0.56018
G1 X120.120 Y98.262 E0.02508
G1 X120.104 Y98.646 E0.03059
G1 X120.139 Y98.974 E0.02619
G1 X120.214 Y99.291 E0.02593
G1 X120.332 Y99.598 E0.02619
G1 X120.519 Y99.934 E0.03059
G1 X120.724 Y100.204 E0.02697
G1 X121.098 Y100.552 E0.04069
G1 X121.534 Y100.814 E0.04043
G1 X121.790 Y100.918 E0.02205
G1 X122.111 Y101.006 E0.02645
G1 X122.620 Y101.056 E0.04069
G1 X123.138 Y100.998 E0.04147
G1 X123.632 Y100.835 E0.04147
G1 X124.083 Y100.572 E0.04147
G1 X124.464 Y100.227 E0.04095
G1 X124.703 Y99.913 E0.03138
G1 X124.863 Y99.626 E0.02619
G1 X124.984 Y99.323 E0.02593
G1 X125.064 Y99.007 E0.02593
G1 X125.102 Y98.684 E0.02589
G1 X125.098 Y98.368 E0.02512
G1 X125.046 Y98.023 E0.02783
G1 X130.093 Y92.975 E0.56808
G1 X157.000 Y92.975 E2.14128
G1 X157.000 Y117.025 E1.91394
G1 X93.060 Y117.025 E5.08844
G1 X93.157 Y116.657 F10800.000
G1 F8640
G1 X93.052 Y113.734 E-0.76000
G1 E-0.04000 F2100.00000
G1 Z0.800 F10800.000
G1 X94.587 Y116.278
G1 Z0.200
G1 E0.80000 F2100.00000
G1 F1200
G1 X95.406 Y116.427 E0.01103
G1 X95.914 Y116.494 E0.00679
G1 F8640
G1 X95.406 Y116.427 E-0.11832
G1 X94.587 Y116.278 E-0.19221
G1 E-0.48947 F2100.00000
G1 Z0.800 F10800.000
G1 X97.124 Y116.496
G1 Z0.200
G1 E0.80000 F2100.00000
G1 F1200
G1 X97.492 Y116.438 E0.00523
G1 X97.762 Y116.286 E0.00436
G1 F8640
G1 X97.492 Y116.438 E-0.07169
G1 X97.124 Y116.496 E-0.08598
G1 E-0.64233 F2100.00000
G1 Z0.800 F10800.000
G1 X101.431 Y115.781
G1 Z0.200
G1 E0.80000 F2100.00000
G1 F1200
G1 X100.465 Y114.815 E0.10996
G1 X100.618 Y114.274 E0.04526
G1 X100.667 Y113.648 E0.05054
G1 X102.800 Y115.781 E0.24282
G1 F8640
G1 X100.667 Y113.648 E-0.69655
G1 X100.646 Y113.922 E-0.06345
G1 E-0.04000 F2100.00000
G1 Z0.800 F10800.000
G1 X93.620 Y114.722
G1 Z0.200
G1 E0.80000 F2100.00000
G1 F1200
G1 X93.575 Y114.436 E0.00526
G1 X93.529 Y114.149 E0.00408
G1 F8640
G1 X93.575 Y114.436 E-0.06704
G1 E-0.73296 F2100.00000
G1 Z0.800 F10800.000
G1 X93.530 Y112.922
G1 Z0.200
G1 E0.80000 F2100.00000
G1 F1200
G1 X93.553 Y112.756 E0.00224
G1 X93.576 Y112.589 E0.00280
G1 X93.599 Y112.423 E0.00337
G1 X93.750 Y111.613 E0.01712
G1 F8640
G1 X93.599 Y112.423 E-0.19028
G1 E-0.60972 F2100.00000
G1 Z0.800 F10800.000
G1 X94.244 Y108.594
G1 Z0.200
G1 E0.80000 F2100.00000
G1 F1200
G1 X95.215 Y109.564 E0.11049
G1 X95.616 Y109.434 E0.03394
G1 X96.365 Y109.345 E0.06071
G1 X94.675 Y107.655 E0.19238
G1 X94.675 Y106.286 E0.11020
G1 X103.739 Y115.350 E1.03178
G1 X105.108 Y115.350 E0.11020
G1 X94.675 Y104.917 E1.18763
G1 X94.675 Y103.548 E0.11020
G1 X106.477 Y115.350 E1.34348
G1 X107.846 Y115.350 E0.11020
G1 X94.675 Y102.179 E1.49932
G1 X94.675 Y100.810 E0.11020
G1 X109.215 Y115.350 E1.65517
G1 X110.584 Y115.350 E0.11020
G1 X94.675 Y99.441 E1.81102
G1 X94.675 Y98.072 E0.11020
G1 X111.953 Y115.350 E1.96686
G1 X113.322 Y115.350 E0.11020
G1 X94.675 Y96.703 E2.12271
G1 X94.675 Y95.334 E0.11020
G1 X114.691 Y115.350 E2.27856
G1 X116.060 Y115.350 E0.11020
G1 X95.360 Y94.650 E2.35645
G1 X96.729 Y94.650 E0.11020
G1 X117.429 Y115.350 E2.35645
G1 X118.798 Y115.350 E0.11020
G1 X98.098 Y94.650 E2.35645
G1 X99.467 Y94.650 E0.11020
G1 X120.167 Y115.350 E2.35645
G1 X121.536 Y115.350 E0.11020
G1 X100.836 Y94.650 E2.35645
G1 X102.205 Y94.650 E0.11020
G1 X122.905 Y115.350 E2.35645
G1 X124.274 Y115.350 E0.11020
G1 X103.574 Y94.650 E2.35645
M73 Q3 S34
G1 X104.943 Y94.650 E0.11020
G1 X125.643 Y115.350 E2.35645
M73 P3 R34
G1 X127.012 Y115.350 E0.11020
G1 X106.312 Y94.650 E2.35645
G1 X107.681 Y94.650 E0.11020
G1 X128.381 Y115.350 E2.35645
G1 X129.750 Y115.350 E0.11020
G1 X109.050 Y94.650 E2.35645
G1 X110.419 Y94.650 E0.11020
G1 X131.119 Y115.350 E2.35645
G1 X132.488 Y115.350 E0.11020
G1 X111.788 Y94.650 E2.35645
G1 X113.157 Y94.650 E0.11020
G1 X133.858 Y115.350 E2.35645
G1 X135.227 Y115.350 E0.11020
G1 X122.615 Y102.738 E1.43571
G1 X123.497 Y102.643 E0.07142
G1 X123.792 Y102.546 E0.02499
G1 X136.596 Y115.350 E1.45757
G1 X137.965 Y115.350 E0.11020
G1 X124.741 Y102.127 E1.50529
G1 X125.078 Y101.931 E0.03133
G1 X125.517 Y101.533 E0.04768
G1 X139.334 Y115.350 E1.57289
G1 X140.703 Y115.350 E0.11020
G1 X126.136 Y100.783 E1.65826
G1 X126.380 Y100.346 E0.04031
G1 X126.575 Y99.853 E0.04263
G1 X142.072 Y115.350 E1.76409
G1 X143.441 Y115.350 E0.11020
G1 X126.777 Y98.686 E1.89700
G1 X126.776 Y98.661 E0.00204
G1 X127.448 Y97.989 E0.07650
G1 X144.810 Y115.350 E1.97638
G1 X146.179 Y115.350 E0.11020
G1 X128.133 Y97.304 E2.05430
G1 X128.817 Y96.620 E0.07792
G1 X147.548 Y115.350 E2.13223
G1 X148.917 Y115.350 E0.11020
G1 X129.502 Y95.935 E2.21015
G1 X130.186 Y95.250 E0.07792
G1 X149.440 Y114.504 E2.19175
G1 X149.409 Y114.409 E0.00802
G1 X149.316 Y113.620 E0.06395
G1 X149.360 Y113.055 E0.04563
G1 X130.955 Y94.650 E2.09520
G1 X132.324 Y94.650 E0.11020
G1 X149.629 Y111.955 E1.96993
G1 X149.939 Y111.326 E0.05643
G1 X150.126 Y111.083 E0.02470
G1 X133.693 Y94.650 E1.87064
G1 X135.062 Y94.650 E0.11020
G1 X150.782 Y110.370 E1.78955
G1 X151.118 Y110.084 E0.03549
G1 X151.597 Y109.816 E0.04420
G1 X136.431 Y94.650 E1.72641
G1 X137.800 Y94.650 E0.11020
G1 X152.592 Y109.442 E1.68386
G1 X153.390 Y109.342 E0.06477
G1 X153.895 Y109.375 E0.04067
G1 X139.169 Y94.650 E1.67631
G1 X140.538 Y94.650 E0.11020
G1 X155.325 Y109.437 E1.68330
G1 X155.325 Y108.068 E0.11020
G1 X141.907 Y94.650 E1.52745
G1 X143.276 Y94.650 E0.11020
G1 X155.325 Y106.699 E1.37160
G1 X155.325 Y105.330 E0.11020
G1 X144.645 Y94.650 E1.21576
G1 X146.014 Y94.650 E0.11020
G1 X155.325 Y103.961 E1.05991
G1 X155.325 Y102.592 E0.11020
G1 X147.383 Y94.650 E0.90406
G1 X148.752 Y94.650 E0.11020
G1 X155.325 Y101.223 E0.74822
G1 X155.325 Y99.854 E0.11020
G1 X150.121 Y94.650 E0.59237
G1 X151.490 Y94.650 E0.11020
G1 X155.325 Y98.485 E0.43652
G1 X155.325 Y97.115 E0.11020
G1 X152.860 Y94.650 E0.28068
G1 X154.229 Y94.650 E0.11020
G1 X155.756 Y96.177 E0.17386
G1 F8640
G1 X154.229 Y94.650 E-0.49872
G1 X153.097 Y94.650 E-0.26128
G1 E-0.04000 F2100.00000
G1 Z0.800 F10800.000
G1 X156.239 Y112.226
G1 Z0.200
G1 E0.80000 F2100.00000
G1 F1200
G1 X156.521 Y112.658 E0.00533
G1 X156.432 Y112.643 F10800.000
G1 F1200
G1 X156.460 Y112.815 E0.00227
G1 X156.411 Y112.888 E0.00090
G1 X156.432 Y112.643 F10800.000
G1 F1200
G1 X156.403 Y112.471 E0.00276
G1 X156.375 Y112.299 E0.00325
G1 F8640
G1 X156.403 Y112.471 E-0.04030
G1 E-0.75970 F2100.00000
G1 Z0.800 F10800.000
G1 X156.470 Y114.128
G1 Z0.200
G1 E0.80000 F2100.00000
G1 F1200
G1 X156.447 Y114.294 E0.00224
G1 X156.424 Y114.461 E0.00280
G1 X156.401 Y114.627 E0.00337
G1 X156.250 Y115.437 E0.01712
G1 F8640
G1 X156.401 Y114.627 E-0.19029
G1 E-0.60971 F2100.00000
G1 Z0.800 F10800.000
G1 X154.800 Y116.264
G1 Z0.200
G1 E0.80000 F2100.00000
G1 F1200
G1 X154.364 Y116.546 E0.00525
G1 X154.324 Y116.464 F10800.000
G1 F1200
G1 X154.124 Y116.496 E0.00262
G1 X154.324 Y116.464 F10800.000
G1 F1200
G1 X154.525 Y116.432 E0.00322
G1 X154.726 Y116.400 E0.00381
G1 F8640
G1 X154.525 Y116.432 E-0.04692
G1 E-0.75308 F2100.00000
G1 Z0.800 F10800.000
G1 X152.914 Y116.494
G1 Z0.200
G1 E0.80000 F2100.00000
G1 F1200
G1 X152.406 Y116.427 E0.00679
G1 X151.587 Y116.278 E0.01103
M106 S255
;BEFORE_LAYER_CHANGE
G92 E0.0
;0.35


G1 F8640
G1 X152.406 Y116.427 E-0.19221
G1 X152.914 Y116.494 E-0.11832
G1 E-0.48947 F2100.00000
G1 Z0.800 F10800.000
;AFTER_LAYER_CHANGE
;0.35
M104 S210 ; set temperature
G1 X158.466 Y119.808
G1 Z0.350
G1 E0.80000 F2100.00000
G1 F3000
G1 X157.508 Y120.004 E0.05900
G1 X92.453 Y120.003 E3.92638
G1 X91.750 Y119.887 E0.04304
G1 X91.111 Y119.578 E0.04281
G1 X90.587 Y119.101 E0.04281
G1 X90.217 Y118.491 E0.04304
G1 X90.022 Y117.544 E0.05831
G1 X90.024 Y92.358 E1.52011
G1 X90.154 Y91.677 E0.04188
G1 X90.467 Y91.057 E0.04188
G1 X90.940 Y90.549 E0.04188
G1 X91.534 Y90.192 E0.04188
G1 X92.492 Y89.996 E0.05900
G1 X157.504 Y89.996 E3.92379
G1 X158.433 Y90.179 E0.05716
G1 X159.224 Y90.694 E0.05693
G1 X159.766 Y91.470 E0.05716
G1 X159.977 Y92.393 E0.05716
G1 X159.975 Y117.661 E1.52504
G1 X159.841 Y118.338 E0.04165
G1 X159.526 Y118.952 E0.04165
G1 X159.054 Y119.456 E0.04165
G1 X158.517 Y119.777 E0.03780
G1 F8640
G1 X157.508 Y120.004 E-0.23884
G1 X155.251 Y120.004 E-0.52116
G1 E-0.04000 F2100.00000
G1 Z0.950 F10800.000
G1 X99.101 Y114.011
G1 Z0.350
G1 E0.80000 F2100.00000
M204 S800
G1 F1500
G1 X98.946 Y114.534 E0.01419
G1 X98.717 Y114.970 E0.01284
G1 X98.374 Y115.393 E0.01419
G1 X97.995 Y115.708 E0.01284
G1 X97.516 Y115.968 E0.01419
G1 X97.046 Y116.114 E0.01284
G1 X96.500 Y116.171 E0.01430
G1 X95.954 Y116.114 E0.01430
