; generated by PrusaSlicer 2.3.0+win64 on 2021-02-07 at 22:31:59 UTC

; 

; external perimeters extrusion width = 0.45mm
; perimeters extrusion width = 0.45mm
; infill extrusion width = 0.45mm
; solid infill extrusion width = 0.45mm
; top infill extrusion width = 0.40mm
; support material extrusion width = 0.35mm
; first layer extrusion width = 0.42mm

M73 P0 R90
M73 Q0 S90
M201 X1000 Y1000 Z200 E5000 ; sets maximum accelerations, mm/sec^2
M203 X200 Y200 Z12 E120 ; sets maximum feedrates, mm/sec
M204 P1250 R1250 T1250 ; sets acceleration (P, T) and retract acceleration (R), mm/sec^2
M205 X8.00 Y8.00 Z0.40 E4.50 ; sets the jerk limits, mm/sec
M205 S0 T0 ; sets the minimum extruding and travel feed rate, mm/sec
M107
;TYPE:Custom
M862.3 P "MK3S" ; printer model check
M862.1 P0.4 ; nozzle diameter check
M115 U3.9.1 ; tell printer latest fw version
G90 ; use absolute coordinates
M83 ; extruder relative mode
M104 S215 ; set extruder temp
M140 S60 ; set bed temp
M190 S60 ; wait for bed temp
M109 S215 ; wait for extruder temp
G28 W ; home all without mesh bed level
G80 ; mesh bed leveling
G1 Y-3.0 F1000.0 ; go outside print area
G92 E0.0
G1 X60.0 E9.0 F1000.0 ; intro line
G1 X100.0 E12.5 F1000.0 ; intro line
G92 E0.0
M221 S95

; Don't change E values below. Excessive value can damage the printer.
M907 E430 ; set extruder motor current
G21 ; set units to millimeters
G90 ; use absolute coordinates
M83 ; use relative distances for extrusion
M900 K0.05 ; Filament gcode LA 1.5
M900 K30 ; Filament gcode LA 1.0
;LAYER_CHANGE
;Z:0.2
;HEIGHT:0.2
;BEFORE_LAYER_CHANGE
G92 E0.0
;0.2


G1 E-0.80000 F2100.000
G1 Z0.600 F10800.000
;AFTER_LAYER_CHANGE
;0.2
G1 X67.766 Y39.186
G1 Z0.200
G1 E0.80000 F2100.000
M204 S1000
;TYPE:Skirt
;WIDTH:0.42
G1 F1200.000
G1 X68.173 Y38.480 E0.02555
G1 X68.541 Y38.123 E0.01609
G1 X68.982 Y37.852 E0.01621
G1 X69.466 Y37.684 E0.01609
G1 X69.980 Y37.623 E0.01621
G1 X180.004 Y37.623 E3.44972
G1 X180.906 Y37.802 E0.02884
G1 X181.670 Y38.308 E0.02872
G1 X182.187 Y39.069 E0.02884
G1 X182.377 Y39.968 E0.02884
G1 X182.377 Y170.011 E4.07741
G1 X182.234 Y170.814 E0.02555
G1 X181.827 Y171.520 E0.02555
G1 X181.453 Y171.882 E0.01633
G1 X181.011 Y172.151 E0.01621
G1 X180.522 Y172.319 E0.01621
G1 X180.005 Y172.377 E0.01633
G1 X69.989 Y172.377 E3.44948
G1 X69.186 Y172.234 E0.02555
G1 X68.480 Y171.827 E0.02555
G1 X68.118 Y171.453 E0.01633
G1 X67.849 Y171.011 E0.01621
G1 X67.681 Y170.522 E0.01621
G1 X67.623 Y170.005 E0.01633
G1 X67.623 Y39.989 E4.07657
G1 X67.756 Y39.245 E0.02367
;WIPE_START
G1 F8640.000
G1 X68.173 Y38.480 E-0.20126
G1 X68.541 Y38.123 E-0.11850
G1 X68.982 Y37.852 E-0.11938
G1 X69.466 Y37.684 E-0.11850
G1 X69.980 Y37.623 E-0.11938
G1 X70.339 Y37.623 E-0.08299
;WIPE_END
G1 E-0.04000 F2100.000
G1 Z0.800 F10800.000
G1 X97.096 Y58.466
G1 Z0.200
G1 E0.80000 F2100.000
;TYPE:Support material
G1 F1200.000
G1 X97.096 Y57.619 E0.02657
G1 X97.649 Y55.674 E0.06341
G1 X97.850 Y55.674 E0.00630
G1 X97.850 Y58.296 E0.08224
G1 X98.604 Y58.296 E0.02365
G1 X98.604 Y55.674 E0.08224
G1 X99.359 Y55.674 E0.02365
G1 X99.359 Y58.296 E0.08224
G1 X100.113 Y58.296 E0.02365
G1 X100.113 Y55.674 E0.08224
G1 X100.867 Y55.674 E0.02365
G1 X100.867 Y58.296 E0.08224
G1 X101.621 Y58.296 E0.02365
G1 X101.621 Y55.674 E0.08224
G1 X101.866 Y55.674 E0.00768
G1 X102.375 Y56.151 E0.02188
G1 X102.375 Y58.296 E0.06727
G1 X103.129 Y58.296 E0.02365
G1 X103.129 Y56.858 E0.04509
G1 X103.884 Y57.566 E0.03242
G1 X103.884 Y58.296 E0.02291
G1 X104.487 Y58.296 E0.01893
G1 X104.487 Y62.932 E0.14535
G1 X104.638 Y62.932 E0.00472
G1 X104.638 Y58.273 E0.14608
G1 X105.392 Y58.980 E0.03242
G1 X105.392 Y62.932 E0.12390
G1 X106.146 Y62.932 E0.02365
G1 X106.146 Y59.688 E0.10173
G1 X106.900 Y60.395 E0.03242
G1 X106.900 Y69.885 E0.29757
G1 X107.654 Y69.885 E0.02365
G1 X107.654 Y61.244 E0.27095
G1 X108.409 Y62.368 E0.04244
G1 X108.409 Y69.885 E0.23570
G1 X109.163 Y69.885 E0.02365
G1 X109.163 Y63.492 E0.20045
G1 X109.428 Y63.887 E0.01492
G1 X109.428 Y67.263 E0.10582
G1 X109.917 Y67.263 E0.01533
G1 X109.917 Y69.885 E0.08224
G1 X110.671 Y69.885 E0.02365
G1 X110.671 Y67.263 E0.08224
G1 X111.425 Y67.263 E0.02365
G1 X111.425 Y69.885 E0.08224
G1 X112.179 Y69.885 E0.02365
G1 X112.179 Y67.989 E0.05947
G1 X112.933 Y69.113 E0.04244
G1 X112.933 Y70.055 E0.02954
G1 X114.442 Y71.057 F10800.000
G1 F1200.000
G1 X114.442 Y72.373 E0.04127
;WIPE_START
G1 F8640.000
G1 X114.442 Y71.057 E-0.30395
;WIPE_END
G1 E-0.49605 F2100.000
G1 Z0.800 F10800.000
G1 X123.492 Y77.009
M73 P0 R89
G1 Z0.200
G1 E0.80000 F2100.000
G1 F1200.000
G1 X123.492 Y75.248 E0.05521
G1 X124.246 Y75.296 E0.02370
G1 X124.246 Y76.839 E0.04837
G1 X125.000 Y76.839 E0.02365
G1 X125.000 Y75.345 E0.04685
G1 X125.754 Y75.393 E0.02370
G1 X125.754 Y76.839 E0.04533
G1 X126.508 Y76.839 E0.02365
G1 X126.508 Y75.442 E0.04381
G1 X127.262 Y75.490 E0.02370
G1 X127.262 Y76.839 E0.04229
G1 X128.017 Y76.839 E0.02365
G1 X128.017 Y75.539 E0.04076
G1 X128.646 Y75.579 E0.01979
G1 X128.771 Y75.651 E0.00450
G1 X128.771 Y76.839 E0.03724
G1 X129.525 Y76.839 E0.02365
G1 X129.525 Y76.086 E0.02359
G1 X130.279 Y76.522 E0.02730
G1 X130.279 Y77.009 E0.01527
G1 X132.542 Y79.326 F10800.000
G1 F1200.000
G1 X132.542 Y77.828 E0.04699
G1 X133.296 Y78.263 E0.02730
G1 X133.296 Y79.157 E0.02802
G1 X134.050 Y79.157 E0.02365
G1 X134.050 Y78.698 E0.01437
G1 X134.804 Y79.134 E0.02730
G1 X134.804 Y79.326 E0.00604
G1 X137.067 Y80.244 F10800.000
G1 F1200.000
G1 X137.067 Y81.474 E0.03859
G1 X137.821 Y81.474 E0.02365
G1 X137.821 Y80.875 E0.01880
G1 X138.575 Y81.310 E0.02730
G1 X138.575 Y81.644 E0.01047
G1 X139.329 Y81.549 F10800.000
G1 F1200.000
G1 X139.329 Y83.792 E0.07032
G1 X140.083 Y83.792 E0.02365
G1 X140.083 Y82.181 E0.05053
G1 X140.837 Y82.616 E0.02730
G1 X140.837 Y83.792 E0.03688
G1 X141.572 Y83.792 E0.02304
G1 X141.572 Y86.110 E0.07267
G1 X141.591 Y86.110 E0.00061
G1 X141.591 Y83.051 E0.09590
G1 X142.346 Y83.487 E0.02730
G1 X142.346 Y86.110 E0.08225
G1 X143.100 Y86.110 E0.02365
G1 X143.100 Y83.922 E0.06861
G1 X143.854 Y84.357 E0.02730
G1 X143.854 Y86.110 E0.05496
G1 X143.890 Y86.110 E0.00113
G1 X143.890 Y88.428 E0.07267
G1 X144.608 Y88.428 E0.02252
G1 X144.608 Y84.793 E0.11398
G1 X145.362 Y85.228 E0.02730
G1 X145.362 Y88.428 E0.10033
G1 X146.116 Y88.428 E0.02365
G1 X146.116 Y85.663 E0.08668
G1 X146.871 Y86.099 E0.02730
G1 X146.871 Y90.746 E0.14571
G1 X147.625 Y90.746 E0.02365
G1 X147.625 Y86.534 E0.13206
G1 X148.379 Y86.969 E0.02730
G1 X148.379 Y90.746 E0.11841
G1 X148.526 Y90.746 E0.00460
G1 X148.526 Y95.381 E0.14535
G1 X149.133 Y95.381 E0.01905
G1 X149.133 Y88.123 E0.22758
G1 X149.887 Y88.123 E0.02365
G1 X149.887 Y95.381 E0.22758
G1 X150.641 Y95.381 E0.02365
G1 X150.641 Y88.275 E0.22281
G1 X151.148 Y88.568 E0.01835
G1 X151.148 Y92.758 E0.13140
G1 X151.396 Y92.758 E0.00775
G1 X151.396 Y97.699 E0.15491
G1 X152.150 Y97.699 E0.02365
G1 X152.150 Y92.758 E0.15491
G1 X152.904 Y92.758 E0.02365
G1 X152.904 Y97.699 E0.15491
G1 X153.161 Y97.699 E0.00807
G1 X153.161 Y100.017 E0.07267
G1 X153.658 Y100.017 E0.01558
G1 X153.658 Y95.076 E0.15491
G1 X154.412 Y95.076 E0.02365
G1 X154.412 Y100.017 E0.15491
G1 X155.166 Y100.017 E0.02365
G1 X155.166 Y95.076 E0.15491
G1 X155.428 Y95.076 E0.00822
G1 X155.784 Y96.035 E0.03205
G1 X155.784 Y97.394 E0.04263
G1 X155.921 Y97.394 E0.00428
G1 X155.921 Y102.335 E0.15491
G1 X156.675 Y102.335 E0.02365
G1 X156.675 Y98.435 E0.12226
G1 X157.429 Y100.468 E0.06798
G1 X157.429 Y102.335 E0.05853
G1 X157.797 Y102.335 E0.01154
G1 X157.797 Y111.606 E0.29069
G1 X158.183 Y111.606 E0.01211
G1 X158.183 Y102.501 E0.28549
M73 Q0 S89
G1 X158.937 Y104.533 E0.06798
G1 X158.937 Y111.606 E0.22176
G1 X159.691 Y111.606 E0.02365
G1 X159.691 Y106.566 E0.15802
G1 X160.420 Y108.529 E0.06565
G1 X160.420 Y108.983 E0.01424
G1 X160.445 Y108.983 E0.00081
G1 X160.445 Y112.920 E0.12345
G1 X159.691 Y116.315 F10800.000
G1 F1200.000
G1 X159.691 Y114.619 E0.05318
G1 X158.937 Y114.619 E0.02365
G1 X158.937 Y117.242 E0.08224
G1 X158.183 Y117.242 E0.02365
G1 X158.183 Y114.449 E0.08756
;WIPE_START
G1 F8640.000
G1 X158.183 Y117.242 E-0.64480
G1 X158.682 Y117.242 E-0.11520
;WIPE_END
G1 E-0.04000 F2100.000
G1 Z0.800 F10800.000
G1 X159.693 Y114.414
G1 Z0.200
G1 E0.80000 F2100.000
;TYPE:Support material interface
;WIDTH:0.35
G1 F1200.000
G1 X159.693 Y111.953 E0.06284
G1 X159.175 Y111.953 E0.01322
G1 X159.175 Y114.271 E0.05918
G1 X158.658 Y114.271 E0.01322
G1 X158.658 Y111.953 E0.05918
G1 X158.140 Y111.953 E0.01322
G1 X158.140 Y114.271 E0.05918
G1 X157.622 Y114.271 E0.01322
G1 X157.622 Y111.953 E0.05918
G1 X157.449 Y111.953 E0.00441
G1 X157.449 Y102.682 E0.23673
G1 X157.104 Y102.682 E0.00881
G1 X157.104 Y120.652 E0.45884
G1 X156.784 Y121.225 E0.01676
G1 X156.586 Y121.225 E0.00504
G1 X156.586 Y102.682 E0.47346
G1 X156.069 Y102.682 E0.01322
G1 X156.069 Y121.225 E0.47346
M73 P1 R89
M73 Q1 S89
G1 X155.551 Y121.225 E0.01322
G1 X155.551 Y102.682 E0.47346
G1 X155.132 Y102.682 E0.01070
G1 X155.132 Y100.364 E0.05918
G1 X155.033 Y100.364 E0.00252
G1 X155.033 Y121.225 E0.53264
G1 X154.515 Y121.225 E0.01322
G1 X154.515 Y100.364 E0.53264
G1 X153.997 Y100.364 E0.01322
G1 X153.997 Y121.225 E0.53264
G1 X153.479 Y121.225 E0.01322
G1 X153.479 Y100.364 E0.53264
G1 X152.962 Y100.364 E0.01322
G1 X152.962 Y121.225 E0.53264
G1 X152.814 Y121.225 E0.00378
G1 X152.814 Y123.542 E0.05918
G1 X152.444 Y123.542 E0.00944
G1 X152.444 Y114.271 E0.23673
G1 X151.926 Y114.271 E0.01322
G1 X151.926 Y123.542 E0.23673
G1 X151.408 Y123.542 E0.01322
G1 X151.408 Y114.271 E0.23673
G1 X150.890 Y114.271 E0.01322
G1 X150.890 Y123.542 E0.23673
G1 X150.373 Y123.542 E0.01322
G1 X150.373 Y116.589 E0.17755
G1 X149.855 Y116.589 E0.01322
G1 X149.855 Y123.542 E0.17755
G1 X149.337 Y123.542 E0.01322
G1 X149.337 Y116.589 E0.17755
G1 X148.819 Y116.589 E0.01322
G1 X148.819 Y123.542 E0.17755
G1 X148.301 Y123.542 E0.01322
G1 X148.301 Y116.589 E0.17755
G1 X147.784 Y116.589 E0.01322
G1 X147.784 Y125.860 E0.23673
G1 X147.266 Y125.860 E0.01322
G1 X147.266 Y116.589 E0.23673
G1 X146.748 Y116.589 E0.01322
G1 X146.748 Y125.860 E0.23673
G1 X146.230 Y125.860 E0.01322
G1 X146.230 Y116.589 E0.23673
G1 X145.860 Y116.589 E0.00945
G1 X145.860 Y118.907 E0.05918
G1 X145.712 Y118.907 E0.00378
G1 X145.712 Y128.178 E0.23673
G1 X145.195 Y128.178 E0.01322
G1 X145.195 Y118.907 E0.23673
G1 X144.677 Y118.907 E0.01322
G1 X144.677 Y128.178 E0.23673
G1 X144.159 Y128.178 E0.01322
G1 X144.159 Y118.907 E0.23673
G1 X143.641 Y118.907 E0.01322
G1 X143.641 Y128.178 E0.23673
G1 X143.542 Y128.178 E0.00252
G1 X143.542 Y135.132 E0.17755
G1 X143.123 Y135.132 E0.01070
G1 X143.123 Y121.225 E0.35510
G1 X142.606 Y121.225 E0.01322
G1 X142.606 Y135.132 E0.35510
G1 X142.088 Y135.132 E0.01322
G1 X142.088 Y121.225 E0.35510
G1 X141.570 Y121.225 E0.01322
G1 X141.570 Y135.132 E0.35510
G1 X141.225 Y135.132 E0.00881
G1 X141.225 Y139.767 E0.11836
G1 X141.052 Y139.767 E0.00441
G1 X141.052 Y123.542 E0.41428
G1 X140.534 Y123.542 E0.01322
G1 X140.534 Y139.767 E0.41428
G1 X140.016 Y139.767 E0.01322
G1 X140.016 Y123.542 E0.41428
G1 X139.499 Y123.542 E0.01322
G1 X139.499 Y139.910 E0.41793
G1 X139.329 Y146.543 F10800.000
;TYPE:Support material
;WIDTH:0.42
G1 F1200.000
G1 X139.329 Y140.115 E0.20155
G1 X140.083 Y140.115 E0.02365
G1 X140.083 Y146.373 E0.19623
G1 X140.837 Y146.373 E0.02365
G1 X140.837 Y140.115 E0.19623
G1 X141.572 Y140.115 E0.02304
G1 X141.572 Y135.479 E0.14535
G1 X141.591 Y135.479 E0.00061
G1 X141.591 Y146.543 E0.34690
G1 X144.608 Y143.581 F10800.000
G1 F1200.000
G1 X144.608 Y153.676 E0.31652
;WIPE_START
G1 F8640.000
G1 X144.608 Y150.384 E-0.76000
;WIPE_END
G1 E-0.04000 F2100.000
G1 Z0.800 F10800.000
G1 X143.123 Y153.817
G1 Z0.200
G1 E0.80000 F2100.000
;TYPE:Support material interface
;WIDTH:0.35
G1 F1200.000
G1 X143.123 Y146.721 E0.18120
G1 X142.606 Y146.721 E0.01322
G1 X142.606 Y153.674 E0.17755
G1 X142.088 Y153.674 E0.01322
G1 X142.088 Y146.721 E0.17755
G1 X141.570 Y146.721 E0.01322
G1 X141.570 Y153.674 E0.17755
G1 X141.052 Y153.674 E0.01322
G1 X141.052 Y146.721 E0.17755
G1 X140.534 Y146.721 E0.01322
G1 X140.534 Y153.674 E0.17755
G1 X140.016 Y153.674 E0.01322
G1 X140.016 Y146.721 E0.17755
G1 X139.499 Y146.721 E0.01322
G1 X139.499 Y153.674 E0.17755
G1 X138.981 Y153.674 E0.01322
G1 X138.981 Y123.542 E0.76937
G1 X138.907 Y123.542 E0.00189
G1 X138.907 Y121.225 E0.05918
G1 X138.463 Y121.225 E0.01133
G1 X138.463 Y153.674 E0.82856
G1 X137.945 Y153.674 E0.01322
G1 X137.945 Y121.225 E0.82856
G1 X137.427 Y121.225 E0.01322
G1 X137.427 Y153.674 E0.82856
G1 X136.910 Y153.674 E0.01322
G1 X136.910 Y121.225 E0.82856
G1 X136.392 Y121.225 E0.01322
G1 X136.392 Y155.992 E0.88774
G1 X135.874 Y155.992 E0.01322
G1 X135.874 Y121.225 E0.88774
G1 X135.356 Y121.225 E0.01322
G1 X135.356 Y155.992 E0.88774
G1 X134.838 Y155.992 E0.01322
G1 X134.838 Y121.225 E0.88774
M73 P1 R88
G1 X134.321 Y121.225 E0.01322
G1 X134.321 Y155.992 E0.88774
G1 X134.271 Y155.992 E0.00126
G1 X134.271 Y158.310 E0.05918
G1 X133.803 Y158.310 E0.01196
G1 X133.803 Y123.542 E0.88774
G1 X133.285 Y123.542 E0.01322
G1 X133.285 Y158.310 E0.88774
G1 X132.767 Y158.310 E0.01322
G1 X132.767 Y123.542 E0.88774
G1 X132.249 Y123.542 E0.01322
G1 X132.249 Y158.310 E0.88774
G1 X131.732 Y158.310 E0.01322
G1 X131.732 Y123.542 E0.88774
M73 P2 R88
M73 Q2 S88
G1 X131.214 Y123.542 E0.01322
G1 X131.214 Y158.310 E0.88774
G1 X130.696 Y158.310 E0.01322
G1 X130.696 Y123.542 E0.88774
G1 X130.178 Y123.542 E0.01322
G1 X130.178 Y158.310 E0.88774
G1 X129.660 Y158.310 E0.01322
G1 X129.660 Y123.542 E0.88774
G1 X129.142 Y123.542 E0.01322
G1 X129.142 Y158.310 E0.88774
G1 X128.625 Y158.310 E0.01322
G1 X128.625 Y123.542 E0.88774
G1 X128.107 Y123.542 E0.01322
G1 X128.107 Y158.310 E0.88774
G1 X127.589 Y158.310 E0.01322
G1 X127.589 Y123.542 E0.88774
G1 X127.318 Y123.542 E0.00693
G1 X127.318 Y125.860 E0.05918
G1 X127.071 Y125.860 E0.00629
G1 X127.071 Y158.310 E0.82856
G1 X126.553 Y158.310 E0.01322
G1 X126.553 Y125.860 E0.82856
G1 X126.036 Y125.860 E0.01322
G1 X126.036 Y158.310 E0.82856
G1 X125.518 Y158.310 E0.01322
G1 X125.518 Y125.860 E0.82856
G1 X125.000 Y125.860 E0.01322
G1 X125.000 Y158.310 E0.82856
G1 X124.482 Y158.310 E0.01322
G1 X124.482 Y125.860 E0.82856
G1 X123.964 Y125.860 E0.01322
G1 X123.964 Y158.310 E0.82856
G1 X123.447 Y158.310 E0.01322
G1 X123.447 Y125.860 E0.82856
G1 X122.929 Y125.860 E0.01322
G1 X122.929 Y158.310 E0.82856
G1 X122.682 Y158.310 E0.00630
G1 X122.682 Y155.992 E0.05918
G1 X122.411 Y155.992 E0.00692
G1 X122.411 Y132.814 E0.59183
G1 X121.893 Y132.814 E0.01322
G1 X121.893 Y155.992 E0.59183
G1 X121.375 Y155.992 E0.01322
G1 X121.375 Y132.814 E0.59183
G1 X120.858 Y132.814 E0.01322
G1 X120.858 Y155.992 E0.59183
G1 X120.364 Y155.992 E0.01259
G1 X120.364 Y153.674 E0.05918
G1 X120.340 Y153.674 E0.00063
G1 X120.340 Y135.131 E0.47346
G1 X119.822 Y135.131 E0.01322
G1 X119.822 Y153.674 E0.47346
G1 X119.304 Y153.674 E0.01322
G1 X119.304 Y135.131 E0.47346
G1 X118.786 Y135.131 E0.01322
G1 X118.786 Y153.674 E0.47346
G1 X118.268 Y153.674 E0.01322
G1 X118.268 Y134.988 E0.47711
G1 X115.196 Y132.541 F10800.000
;TYPE:Support material
;WIDTH:0.42
G1 F1200.000
G1 X115.196 Y151.334 E0.58923
G1 X115.627 Y152.339 E0.03428
G1 X115.950 Y152.943 E0.02147
G1 X115.950 Y132.161 E0.65160
G1 X116.704 Y132.161 E0.02365
G1 X116.704 Y154.621 E0.70422
;WIPE_START
G1 F8640.000
G1 X116.704 Y151.330 E-0.76000
;WIPE_END
G1 E-0.04000 F2100.000
G1 Z0.800 F10800.000
G1 X155.166 Y124.402
G1 Z0.200
G1 E0.80000 F2100.000
G1 F1200.000
G1 X155.166 Y121.572 E0.08873
G1 X154.412 Y121.572 E0.02365
G1 X154.412 Y125.402 E0.12009
G1 X154.270 Y125.656 E0.00913
G1 X153.658 Y125.890 E0.02054
G1 X153.658 Y121.572 E0.13538
G1 X153.161 Y121.572 E0.01558
G1 X153.161 Y123.890 E0.07267
G1 X152.904 Y123.890 E0.00807
G1 X152.904 Y126.178 E0.07173
G1 X152.150 Y126.465 E0.02531
G1 X152.150 Y123.890 E0.08075
G1 X151.396 Y123.890 E0.02365
G1 X151.396 Y126.513 E0.08224
G1 X151.148 Y126.513 E0.00775
G1 X151.148 Y126.848 E0.01050
G1 X150.641 Y127.041 E0.01701
G1 X150.641 Y123.890 E0.09880
G1 X149.887 Y123.890 E0.02365
G1 X149.887 Y127.329 E0.10782
G1 X149.133 Y127.617 E0.02531
G1 X149.133 Y123.890 E0.11684
