; generated by PrusaSlicer 2.3.0+win64 on 2021-02-27 at 03:05:18 UTC

; 

; external perimeters extrusion width = 0.45mm
; perimeters extrusion width = 0.45mm
; infill extrusion width = 0.45mm
; solid infill extrusion width = 0.45mm
; top infill extrusion width = 0.40mm
; support material extrusion width = 0.35mm
; first layer extrusion width = 0.42mm

M73 P0 R103
M73 Q0 S105
M201 X1000 Y1000 Z200 E5000 ; sets maximum accelerations, mm/sec^2
M203 X200 Y200 Z12 E120 ; sets maximum feedrates, mm/sec
M204 P1250 R1250 T1250 ; sets acceleration (P, T) and retract acceleration (R), mm/sec^2
M205 X8.00 Y8.00 Z0.40 E4.50 ; sets the jerk limits, mm/sec
M205 S0 T0 ; sets the minimum extruding and travel feed rate, mm/sec
M107
;TYPE:Custom
M862.3 P "MK3S" ; printer model check
M862.1 P0.4 ; nozzle diameter check
M115 U3.9.1 ; tell printer latest fw version
G90 ; use absolute coordinates
M83 ; extruder relative mode
M104 S215 ; set extruder temp
M140 S60 ; set bed temp
M190 S60 ; wait for bed temp
M109 S215 ; wait for extruder temp
G28 W ; home all without mesh bed level
G80 ; mesh bed leveling
G1 Y-3.0 F1000.0 ; go outside print area
G92 E0.0
G1 X60.0 E9.0 F1000.0 ; intro line
G1 X100.0 E12.5 F1000.0 ; intro line
G92 E0.0
M221 S95

; Don't change E values below. Excessive value can damage the printer.
M907 E430 ; set extruder motor current
G21 ; set units to millimeters
G90 ; use absolute coordinates
M83 ; use relative distances for extrusion
M900 K0.05 ; Filament gcode LA 1.5
M900 K30 ; Filament gcode LA 1.0
;LAYER_CHANGE
;Z:0.2
;HEIGHT:0.2
;BEFORE_LAYER_CHANGE
G92 E0.0
;0.2


G1 E-0.80000 F2100.000
G1 Z0.600 F10800.000
;AFTER_LAYER_CHANGE
;0.2
G1 X146.345 Y105.467
G1 Z0.200
G1 E0.80000 F2100.000
M204 S1000
;TYPE:Skirt
;WIDTH:0.42
G1 F1200.000
G1 X134.362 Y105.467 E0.37572
G1 X134.336 Y105.815 E0.01095
G1 X135.419 Y105.983 E0.03439
G1 X136.606 Y106.341 E0.03885
G1 X136.856 Y106.455 E0.00863
G1 X140.350 Y106.591 E0.10965
G1 X142.545 Y107.357 E0.07289
G1 X144.349 Y108.526 E0.06739
G1 X145.902 Y110.108 E0.06950
G1 X147.204 Y112.331 E0.08078
G1 X147.897 Y115.164 E0.09146
G1 X147.902 Y128.801 E0.42757
G1 X147.408 Y131.139 E0.07491
G1 X146.491 Y133.107 E0.06809
G1 X144.768 Y135.143 E0.08362
G1 X142.671 Y136.612 E0.08027
G1 X140.237 Y137.466 E0.08089
G1 X136.821 Y137.603 E0.10720
G1 X135.771 Y138.018 E0.03539
G1 X134.533 Y138.248 E0.03949
G1 X133.905 Y138.289 E0.01973
G1 X132.760 Y138.423 E0.03613
G1 X130.162 Y138.238 E0.08168
G1 X129.838 Y138.185 E0.01028
G1 X129.300 Y138.146 E0.01692
G1 X128.103 Y137.927 E0.03814
G1 X127.331 Y137.632 E0.02591
G1 X125.245 Y137.632 E0.06543
G1 X124.492 Y137.921 E0.02527
G1 X123.365 Y138.134 E0.03597
G1 X119.827 Y138.428 E0.11132
G1 X118.753 Y138.319 E0.03383
G1 X118.536 Y138.281 E0.00694
G1 X117.980 Y138.242 E0.01746
G1 X116.947 Y138.059 E0.03289
G1 X115.693 Y137.578 E0.04211
G1 X111.758 Y137.352 E0.12358
G1 X110.378 Y136.840 E0.04615
G1 X109.077 Y136.146 E0.04625
G1 X107.031 Y134.358 E0.08520
G1 X105.434 Y131.854 E0.09312
G1 X104.671 Y128.832 E0.09773
G1 X104.671 Y115.232 E0.42640
G1 X105.165 Y112.894 E0.07491
G1 X106.084 Y110.925 E0.06814
G1 X107.843 Y108.855 E0.08516
G1 X109.902 Y107.421 E0.07868
G1 X112.278 Y106.578 E0.07905
G1 X115.761 Y106.433 E0.10930
G1 X115.968 Y106.341 E0.00712
G1 X117.148 Y105.984 E0.03863
G1 X118.248 Y105.815 E0.03489
G1 X118.221 Y105.467 E0.01096
G1 X104.465 Y105.467 E0.43130
G1 X104.411 Y107.488 E0.06341
G1 X103.758 Y109.689 E0.07196
G1 X102.563 Y111.712 E0.07370
G1 X100.913 Y113.383 E0.07360
G1 X98.912 Y114.631 E0.07395
G1 X95.729 Y115.468 E0.10320
G1 X81.053 Y115.319 E0.46019
G1 X78.492 Y114.432 E0.08498
G1 X76.350 Y112.911 E0.08238
G1 X74.720 Y110.975 E0.07935
G1 X74.060 Y109.709 E0.04476
G1 X73.568 Y108.371 E0.04469
G1 X73.343 Y103.972 E0.13814
G1 X73.230 Y103.697 E0.00929
G1 X72.615 Y101.090 E0.08400
G1 X72.615 Y95.613 E0.17173
G1 X73.228 Y93.013 E0.08375
G1 X73.305 Y92.818 E0.00656
G1 X73.388 Y89.333 E0.10930
G1 X73.994 Y87.166 E0.07056
G1 X75.414 Y84.777 E0.08714
G1 X77.208 Y83.073 E0.07758
G1 X78.720 Y82.154 E0.05548
G1 X80.402 Y81.522 E0.05634
G1 X81.634 Y81.329 E0.03911
G1 X169.489 Y81.338 E2.75463
G1 X171.762 Y82.012 E0.07433
G1 X173.773 Y83.200 E0.07325
G1 X175.400 Y84.786 E0.07122
G1 X176.571 Y86.594 E0.06755
G1 X177.414 Y89.263 E0.08774
G1 X177.499 Y92.798 E0.11088
G1 X177.583 Y93.009 E0.00712
G1 X178.198 Y95.613 E0.08389
G1 X178.198 Y101.090 E0.17173
G1 X177.583 Y103.694 E0.08389
G1 X177.486 Y103.935 E0.00816
G1 X177.354 Y107.836 E0.12237
G1 X176.625 Y109.968 E0.07065
G1 X175.249 Y112.099 E0.07954
G1 X173.227 Y113.903 E0.08497
G1 X171.847 Y114.661 E0.04935
G1 X170.337 Y115.212 E0.05042
G1 X155.129 Y115.466 E0.47690
G1 X152.440 Y114.852 E0.08649
G1 X150.404 Y113.775 E0.07219
G1 X147.946 Y111.305 E0.10926
G1 X146.932 Y109.389 E0.06797
G1 X146.392 Y107.430 E0.06374
G1 X146.347 Y105.527 E0.05967
G1 X146.716 Y105.090 F10800.000
G1 F1200.000
G1 X104.096 Y105.090 E1.33629
G1 X104.042 Y107.405 E0.07263
G1 X103.403 Y109.559 E0.07044
G1 X102.278 Y111.464 E0.06937
G1 X100.661 Y113.102 E0.07217
G1 X98.738 Y114.296 E0.07097
G1 X95.708 Y115.091 E0.09822
G1 X81.146 Y114.952 E0.45658
G1 X78.687 Y114.108 E0.08152
G1 X76.622 Y112.649 E0.07928
G1 X75.044 Y110.782 E0.07665
G1 X74.409 Y109.568 E0.04296
G1 X73.932 Y108.268 E0.04340
G1 X73.717 Y103.886 E0.13759
G1 X73.593 Y103.594 E0.00993
G1 X72.992 Y101.068 E0.08142
G1 X72.992 Y95.635 E0.17034
G1 X73.592 Y93.116 E0.08120
G1 X73.680 Y92.897 E0.00740
G1 X73.757 Y89.411 E0.10932
G1 X74.331 Y87.336 E0.06750
G1 X75.693 Y85.032 E0.08392
G1 X77.421 Y83.384 E0.07485
G1 X78.900 Y82.486 E0.05427
G1 X80.516 Y81.882 E0.05407
G1 X81.648 Y81.706 E0.03594
G1 X169.461 Y81.715 E2.75331
G1 X171.631 Y82.366 E0.07103
G1 X173.561 Y83.513 E0.07038
G1 X175.121 Y85.040 E0.06845
G1 X176.241 Y86.777 E0.06479
G1 X177.046 Y89.350 E0.08452
G1 X177.124 Y92.877 E0.11064
G1 X177.220 Y93.112 E0.00794
G1 X177.820 Y95.635 E0.08133
M73 Q0 S104
G1 X177.820 Y101.068 E0.17033
G1 X177.220 Y103.591 E0.08132
G1 X177.111 Y103.853 E0.00892
G1 X176.987 Y107.742 E0.12197
G1 X176.296 Y109.783 E0.06758
G1 X174.946 Y111.873 E0.07800
G1 X173.027 Y113.583 E0.08061
G1 X171.702 Y114.312 E0.04741
G1 X170.297 Y114.835 E0.04699
G1 X155.190 Y115.093 E0.47374
G1 X152.548 Y114.490 E0.08498
G1 X150.607 Y113.456 E0.06896
G1 X148.234 Y111.060 E0.10573
G1 X147.290 Y109.269 E0.06347
G1 X146.761 Y107.352 E0.06236
G1 X146.717 Y105.150 E0.06907
G1 X147.087 Y104.713 F10800.000
G1 F1200.000
G1 X103.726 Y104.713 E1.35953
G1 X103.673 Y107.324 E0.08188
G1 X103.066 Y109.389 E0.06748
G1 X101.992 Y111.217 E0.06647
G1 X100.443 Y112.794 E0.06933
G1 X98.563 Y113.960 E0.06937
G1 X95.686 Y114.714 E0.09324
G1 X81.239 Y114.586 E0.45300
G1 X78.881 Y113.784 E0.07807
G1 X76.894 Y112.387 E0.07618
G1 X75.369 Y110.588 E0.07393
G1 X74.749 Y109.404 E0.04191
G1 X74.296 Y108.166 E0.04133
G1 X74.090 Y103.798 E0.13711
G1 X73.956 Y103.489 E0.01057
G1 X73.369 Y101.045 E0.07879
G1 X73.369 Y95.658 E0.16893
G1 X73.954 Y93.220 E0.07861
G1 X74.056 Y92.977 E0.00824
G1 X74.127 Y89.488 E0.10944
G1 X74.669 Y87.505 E0.06445
G1 X75.973 Y85.286 E0.08070
G1 X77.635 Y83.695 E0.07212
G1 X79.049 Y82.833 E0.05195
G1 X80.629 Y82.242 E0.05289
G1 X81.663 Y82.083 E0.03278
G1 X169.433 Y82.092 E2.75198
G1 X171.499 Y82.720 E0.06770
G1 X173.348 Y83.825 E0.06753
G1 X174.841 Y85.294 E0.06568
G1 X175.909 Y86.959 E0.06202
G1 X176.678 Y89.435 E0.08131
G1 X176.748 Y92.959 E0.11049
G1 X176.857 Y93.216 E0.00877
G1 X177.443 Y95.658 E0.07872
G1 X177.443 Y101.045 E0.16893
G1 X176.857 Y103.486 E0.07871
G1 X176.736 Y103.769 E0.00965
G1 X176.611 Y107.701 E0.12334
G1 X175.947 Y109.638 E0.06422
G1 X174.644 Y111.646 E0.07504
G1 X172.793 Y113.287 E0.07756
G1 X171.534 Y113.975 E0.04500
G1 X170.197 Y114.471 E0.04471
G1 X155.207 Y114.716 E0.47005
G1 X152.702 Y114.145 E0.08056
G1 X150.854 Y113.170 E0.06552
G1 X148.554 Y110.858 E0.10222
G1 X147.648 Y109.149 E0.06066
G1 X147.131 Y107.275 E0.06095
G1 X147.088 Y104.773 E0.07847
G1 X147.459 Y104.336 F10800.000
G1 F1200.000
G1 X103.355 Y104.336 E1.38283
G1 X103.304 Y107.243 E0.09117
G1 X102.729 Y109.219 E0.06453
G1 X101.706 Y110.970 E0.06357
G1 X100.224 Y112.485 E0.06646
G1 X98.388 Y113.625 E0.06776
M73 P0 R102
G1 X95.664 Y114.337 E0.08827
G1 X81.330 Y114.219 E0.44944
G1 X79.075 Y113.459 E0.07462
G1 X77.165 Y112.124 E0.07308
G1 X75.693 Y110.394 E0.07121
G1 X75.099 Y109.262 E0.04008
G1 X74.660 Y108.064 E0.04003
G1 X74.464 Y103.709 E0.13668
G1 X74.318 Y103.382 E0.01121
G1 X73.746 Y101.023 E0.07613
G1 X73.746 Y95.680 E0.16751
G1 X74.317 Y93.325 E0.07597
G1 X74.432 Y93.060 E0.00907
G1 X74.497 Y89.563 E0.10966
G1 X75.008 Y87.673 E0.06139
G1 X76.253 Y85.539 E0.07746
G1 X77.849 Y84.007 E0.06937
G1 X79.230 Y83.164 E0.05073
G1 X80.742 Y82.602 E0.05058
G1 X81.677 Y82.460 E0.02963
G1 X169.404 Y82.469 E2.75064
M73 P1 R102
M73 Q1 S104
G1 X171.365 Y83.074 E0.06434
G1 X173.134 Y84.136 E0.06469
G1 X174.560 Y85.547 E0.06291
G1 X175.578 Y87.140 E0.05925
G1 X176.309 Y89.521 E0.07810
G1 X176.372 Y93.042 E0.11042
G1 X176.495 Y93.322 E0.00960
G1 X177.066 Y95.680 E0.07607
G1 X177.066 Y101.023 E0.16751
G1 X176.495 Y103.380 E0.07605
G1 X176.362 Y103.683 E0.01039
G1 X176.235 Y107.660 E0.12476
G1 X175.599 Y109.492 E0.06082
G1 X174.342 Y111.418 E0.07209
G1 X172.560 Y112.989 E0.07450
G1 X171.366 Y113.637 E0.04258
G1 X170.096 Y114.106 E0.04245
G1 X155.224 Y114.339 E0.46637
G1 X152.854 Y113.799 E0.07619
G1 X151.099 Y112.882 E0.06208
G1 X148.874 Y110.657 E0.09868
G1 X147.991 Y108.991 E0.05911
G1 X147.501 Y107.199 E0.05825
G1 X147.460 Y104.396 E0.08791
G1 X147.831 Y103.959 F10800.000
G1 F1200.000
G1 X102.984 Y103.959 E1.40617
G1 X102.935 Y107.162 E0.10045
G1 X102.373 Y109.091 E0.06300
G1 X101.420 Y110.724 E0.05927
G1 X100.006 Y112.177 E0.06359
G1 X98.213 Y113.290 E0.06614
G1 X95.642 Y113.959 E0.08330
G1 X81.421 Y113.851 E0.44591
G1 X79.268 Y113.134 E0.07117
G1 X77.435 Y111.860 E0.06997
G1 X76.017 Y110.200 E0.06848
G1 X75.449 Y109.121 E0.03824
G1 X75.024 Y107.961 E0.03871
G1 X74.837 Y103.618 E0.13630
G1 X74.680 Y103.274 E0.01186
G1 X74.123 Y101.000 E0.07342
G1 X74.123 Y95.703 E0.16608
G1 X74.679 Y93.433 E0.07328
G1 X74.807 Y93.144 E0.00990
G1 X74.868 Y89.638 E0.10996
G1 X75.347 Y87.840 E0.05833
G1 X76.534 Y85.792 E0.07422
G1 X78.064 Y84.317 E0.06662
G1 X79.379 Y83.511 E0.04836
G1 X80.855 Y82.963 E0.04939
G1 X81.691 Y82.837 E0.02648
G1 X169.375 Y82.846 E2.74929
G1 X171.231 Y83.426 E0.06095
G1 X172.919 Y84.447 E0.06186
G1 X174.279 Y85.799 E0.06014
G1 X175.245 Y87.320 E0.05648
G1 X175.941 Y89.605 E0.07488
G1 X175.996 Y93.126 E0.11043
G1 X176.133 Y93.430 E0.01043
G1 X176.689 Y95.703 E0.07338
G1 X176.689 Y101.000 E0.16608
G1 X176.133 Y103.272 E0.07335
G1 X175.987 Y103.595 E0.01111
G1 X175.860 Y107.619 E0.12622
G1 X175.251 Y109.345 E0.05739
G1 X174.041 Y111.189 E0.06916
G1 X172.328 Y112.691 E0.07144
G1 X171.200 Y113.298 E0.04017
G1 X169.996 Y113.741 E0.04021
G1 X155.241 Y113.961 E0.46269
G1 X153.006 Y113.453 E0.07186
G1 X151.344 Y112.594 E0.05864
G1 X149.193 Y110.454 E0.09514
G1 X148.349 Y108.871 E0.05625
G1 X147.871 Y107.123 E0.05682
G1 X147.832 Y104.019 E0.09734
G1 X148.205 Y103.581 F10800.000
G1 F1200.000
G1 X102.611 Y103.581 E1.42957
G1 X102.566 Y107.081 E0.10974
G1 X102.018 Y108.963 E0.06145
G1 X101.107 Y110.512 E0.05635
G1 X99.753 Y111.897 E0.06073
G1 X98.040 Y112.954 E0.06311
G1 X95.620 Y113.582 E0.07837
G1 X81.511 Y113.484 E0.44240
G1 X79.459 Y112.808 E0.06772
G1 X77.706 Y111.596 E0.06685
G1 X76.340 Y110.005 E0.06572
G1 X75.788 Y108.956 E0.03716
G1 X75.388 Y107.860 E0.03660
G1 X75.211 Y103.526 E0.13600
G1 X75.041 Y103.165 E0.01252
G1 X74.500 Y100.977 E0.07066
G1 X74.500 Y95.726 E0.16463
G1 X75.040 Y93.542 E0.07055
G1 X75.183 Y93.231 E0.01073
G1 X75.238 Y89.711 E0.11037
G1 X75.686 Y88.006 E0.05528
G1 X76.816 Y86.044 E0.07097
G1 X78.278 Y84.628 E0.06384
G1 X79.560 Y83.843 E0.04712
G1 X80.967 Y83.323 E0.04703
G1 X81.704 Y83.214 E0.02336
G1 X169.346 Y83.223 E2.74794
G1 X171.094 Y83.779 E0.05752
G1 X172.704 Y84.757 E0.05905
G1 X173.998 Y86.051 E0.05737
G1 X174.913 Y87.499 E0.05372
G1 X175.572 Y89.688 E0.07167
G1 X175.620 Y93.213 E0.11054
G1 X175.772 Y93.539 E0.01127
G1 X176.312 Y95.726 E0.07063
G1 X176.312 Y100.977 E0.16463
G1 X175.772 Y103.163 E0.07061
G1 X175.613 Y103.505 E0.01182
G1 X175.484 Y107.577 E0.12774
G1 X174.904 Y109.196 E0.05392
G1 X173.741 Y110.960 E0.06625
G1 X172.097 Y112.393 E0.06837
G1 X171.034 Y112.959 E0.03776
G1 X169.896 Y113.376 E0.03800
G1 X155.258 Y113.584 E0.45903
G1 X153.156 Y113.106 E0.06758
G1 X151.588 Y112.305 E0.05520
G1 X149.513 Y110.251 E0.09156
G1 X148.692 Y108.713 E0.05467
G1 X148.242 Y107.048 E0.05407
G1 X148.206 Y103.641 E0.10681
G1 X148.579 Y103.204 F10800.000
G1 F1200.000
G1 X102.238 Y103.204 E1.45300
G1 X102.196 Y107.001 E0.11904
G1 X101.662 Y108.835 E0.05989
G1 X100.794 Y110.300 E0.05340
G1 X99.500 Y111.616 E0.05787
G1 X97.867 Y112.618 E0.06009
G1 X95.598 Y113.205 E0.07347
G1 X81.599 Y113.116 E0.43893
G1 X79.650 Y112.482 E0.06428
G1 X77.975 Y111.331 E0.06372
G1 X76.664 Y109.810 E0.06296
M73 Q1 S103
G1 X76.138 Y108.815 E0.03528
G1 X75.753 Y107.758 E0.03527
G1 X75.585 Y103.432 E0.13576
G1 X75.402 Y103.053 E0.01318
G1 X74.878 Y100.953 E0.06786
G1 X74.878 Y95.749 E0.16317
G1 X75.401 Y93.652 E0.06777
G1 X75.559 Y93.319 E0.01157
G1 X75.609 Y89.783 E0.11088
G1 X76.026 Y88.170 E0.05223
G1 X77.098 Y86.296 E0.06770
G1 X78.494 Y84.938 E0.06107
G1 X79.708 Y84.190 E0.04471
G1 X81.079 Y83.684 E0.04581
G1 X81.717 Y83.591 E0.02023
G1 X169.316 Y83.600 E2.74658
G1 X170.957 Y84.130 E0.05406
G1 X172.487 Y85.067 E0.05626
G1 X173.715 Y86.301 E0.05460
G1 X174.580 Y87.678 E0.05096
G1 X175.203 Y89.770 E0.06845
G1 X175.244 Y93.302 E0.11074
G1 X175.411 Y93.650 E0.01211
G1 X175.935 Y95.749 E0.06784
G1 X175.935 Y100.953 E0.16317
G1 X175.411 Y103.052 E0.06782
G1 X175.238 Y103.412 E0.01253
G1 X175.108 Y107.534 E0.12931
G1 X174.558 Y109.045 E0.05042
G1 X173.441 Y110.730 E0.06336
G1 X171.867 Y112.093 E0.06529
G1 X170.870 Y112.619 E0.03535
G1 X169.797 Y113.011 E0.03580
G1 X155.275 Y113.207 E0.45537
G1 X153.305 Y112.759 E0.06334
G1 X151.831 Y112.015 E0.05176
G1 X149.832 Y110.048 E0.08795
G1 X149.035 Y108.554 E0.05308
G1 X148.612 Y106.974 E0.05130
G1 X148.580 Y103.264 E0.11631
G1 X148.953 Y102.827 F10800.000
G1 F1200.000
G1 X101.863 Y102.827 E1.47645
G1 X101.827 Y106.920 E0.12834
G1 X101.307 Y108.706 E0.05830
G1 X100.483 Y110.087 E0.05043
G1 X99.249 Y111.334 E0.05501
G1 X97.695 Y112.281 E0.05707
G1 X95.576 Y112.828 E0.06860
G1 X81.687 Y112.749 E0.43549
G1 X79.839 Y112.155 E0.06084
G1 X78.244 Y111.065 E0.06059
G1 X76.987 Y109.615 E0.06018
G1 X76.478 Y108.651 E0.03419
G1 X76.117 Y107.658 E0.03312
G1 X75.959 Y103.336 E0.13559
G1 X75.762 Y102.940 E0.01386
G1 X75.255 Y100.930 E0.06502
G1 X75.255 Y95.773 E0.16169
G1 X75.761 Y93.765 E0.06494
G1 X75.935 Y93.409 E0.01240
G1 X75.980 Y89.854 E0.11149
G1 X76.367 Y88.334 E0.04918
G1 X77.381 Y86.546 E0.06443
G1 X78.710 Y85.248 E0.05827
G1 X79.890 Y84.521 E0.04344
G1 X81.189 Y84.045 E0.04340
G1 X81.730 Y83.968 E0.01713
G1 X169.285 Y83.978 E2.74522
G1 X170.817 Y84.481 E0.05056
M73 P1 R101
G1 X172.270 Y85.376 E0.05349
G1 X173.432 Y86.551 E0.05183
G1 X174.246 Y87.855 E0.04819
G1 X174.834 Y89.851 E0.06524
G1 X174.868 Y93.392 E0.11104
G1 X175.051 Y93.763 E0.01296
G1 X175.558 Y95.773 E0.06500
G1 X175.558 Y100.930 E0.16169
G1 X175.051 Y102.939 E0.06498
G1 X174.864 Y103.318 E0.01326
G1 X174.743 Y107.435 E0.12913
G1 X174.230 Y108.857 E0.04740
G1 X173.174 Y110.463 E0.06026
G1 X171.671 Y111.770 E0.06244
G1 X170.705 Y112.280 E0.03425
G1 X169.699 Y112.646 E0.03359
G1 X155.293 Y112.829 E0.45172
G1 X153.452 Y112.412 E0.05917
G1 X152.074 Y111.725 E0.04827
G1 X150.117 Y109.800 E0.08607
G1 X149.379 Y108.398 E0.04970
G1 X148.989 Y106.947 E0.04712
G1 X148.953 Y102.887 E0.12728
G1 X149.327 Y102.450 F10800.000
G1 F1200.000
G1 X101.489 Y102.450 E1.49992
G1 X101.458 Y106.840 E0.13765
G1 X100.952 Y108.577 E0.05670
G1 X100.172 Y109.872 E0.04742
G1 X98.998 Y111.051 E0.05216
G1 X97.523 Y111.944 E0.05406
G1 X95.554 Y112.451 E0.06377
G1 X81.773 Y112.381 E0.43208
G1 X80.028 Y111.827 E0.05741
G1 X78.512 Y110.799 E0.05744
