; generated by PrusaSlicer 2.3.0+win64 on 2021-02-26 at 03:02:29 UTC

; 

; external perimeters extrusion width = 0.45mm
; perimeters extrusion width = 0.45mm
; infill extrusion width = 0.45mm
; solid infill extrusion width = 0.45mm
; top infill extrusion width = 0.40mm
; support material extrusion width = 0.35mm
; first layer extrusion width = 0.42mm

M73 P0 R96
M73 Q0 S98
M201 X1000 Y1000 Z200 E5000 ; sets maximum accelerations, mm/sec^2
M203 X200 Y200 Z12 E120 ; sets maximum feedrates, mm/sec
M204 P1250 R1250 T1250 ; sets acceleration (P, T) and retract acceleration (R), mm/sec^2
M205 X8.00 Y8.00 Z0.40 E4.50 ; sets the jerk limits, mm/sec
M205 S0 T0 ; sets the minimum extruding and travel feed rate, mm/sec
M107
;TYPE:Custom
M862.3 P "MK3S" ; printer model check
M862.1 P0.4 ; nozzle diameter check
M115 U3.9.1 ; tell printer latest fw version
G90 ; use absolute coordinates
M83 ; extruder relative mode
M104 S215 ; set extruder temp
M140 S60 ; set bed temp
M190 S60 ; wait for bed temp
M109 S215 ; wait for extruder temp
G28 W ; home all without mesh bed level
G80 ; mesh bed leveling
G1 Y-3.0 F1000.0 ; go outside print area
G92 E0.0
G1 X60.0 E9.0 F1000.0 ; intro line
G1 X100.0 E12.5 F1000.0 ; intro line
G92 E0.0
M221 S95

; Don't change E values below. Excessive value can damage the printer.
M907 E430 ; set extruder motor current
G21 ; set units to millimeters
G90 ; use absolute coordinates
M83 ; use relative distances for extrusion
M900 K0.05 ; Filament gcode LA 1.5
M900 K30 ; Filament gcode LA 1.0
;LAYER_CHANGE
;Z:0.2
;HEIGHT:0.2
;BEFORE_LAYER_CHANGE
G92 E0.0
;0.2


G1 E-0.80000 F2100.000
G1 Z0.600 F10800.000
;AFTER_LAYER_CHANGE
;0.2
G1 X82.023 Y95.171
G1 Z0.200
G1 E0.80000 F2100.000
M204 S1000
;TYPE:Skirt
;WIDTH:0.42
G1 F1200.000
G1 X167.504 Y95.123 E2.68019
G1 X168.220 Y95.235 E0.02272
G1 X168.866 Y95.555 E0.02260
G1 X169.389 Y96.056 E0.02272
G1 X169.736 Y96.693 E0.02272
G1 X169.866 Y97.267 E0.01846
G1 X170.363 Y103.038 E0.18163
G1 X170.361 Y107.029 E0.12514
G1 X169.830 Y112.970 E0.18700
G1 X169.595 Y113.623 E0.02178
G1 X169.183 Y114.178 E0.02166
G1 X168.630 Y114.591 E0.02166
G1 X167.977 Y114.829 E0.02178
G1 X136.547 Y120.417 E1.00092
G1 X131.228 Y121.109 E0.16818
G1 X117.309 Y121.127 E0.43642
G1 X111.727 Y120.414 E0.17643
M73 Q0 S97
G1 X81.990 Y114.822 E0.94874
G1 X81.351 Y114.581 E0.02142
G1 X80.806 Y114.168 E0.02142
G1 X80.402 Y113.617 E0.02142
G1 X80.171 Y112.974 E0.02142
G1 X79.636 Y106.908 E0.19093
G1 X79.639 Y102.974 E0.12335
G1 X80.136 Y97.252 E0.18009
G1 X80.330 Y96.530 E0.02343
G1 X80.740 Y95.902 E0.02355
G1 X81.324 Y95.434 E0.02343
G1 X81.967 Y95.192 E0.02155
;WIPE_START
G1 F8640.000
G1 X85.258 Y95.190 E-0.76000
;WIPE_END
G1 E-0.04000 F2100.000
G1 Z0.800 F10800.000
G1 X115.096 Y109.935
G1 Z0.200
G1 E0.80000 F2100.000
;TYPE:Support material
G1 F1200.000
G1 X115.096 Y113.934 E0.12541
G1 X115.613 Y114.607 E0.02660
G1 X115.850 Y114.790 E0.00940
G1 X115.850 Y109.358 E0.17031
G1 X116.355 Y108.971 E0.01993
G1 X116.605 Y108.868 E0.00848
G1 X116.605 Y115.280 E0.20107
G1 X117.219 Y115.535 E0.02085
G1 X117.359 Y115.553 E0.00442
G1 X117.359 Y108.595 E0.21818
G1 X118.113 Y108.495 E0.02385
G1 X118.113 Y115.652 E0.22440
G1 X118.146 Y115.657 E0.00105
G1 X118.867 Y115.562 E0.02280
G1 X118.867 Y108.586 E0.21873
G1 X119.073 Y108.613 E0.00653
G1 X119.621 Y108.840 E0.01859
G1 X119.621 Y115.308 E0.20280
G1 X119.938 Y115.177 E0.01074
G1 X120.375 Y114.841 E0.01730
G1 X120.375 Y109.307 E0.17351
G1 X120.680 Y109.540 E0.01203
G1 X121.130 Y110.127 E0.02317
G1 X121.130 Y114.300 E0.13085
;WIPE_START
G1 F8640.000
G1 X121.130 Y111.008 E-0.76000
;WIPE_END
G1 E-0.04000 F2100.000
G1 Z0.800 F10800.000
G1 X119.621 Y118.660
G1 Z0.200
G1 E0.80000 F2100.000
G1 F1200.000
G1 X119.621 Y118.487 E0.00540
G1 X118.867 Y118.487 E0.02365
G1 X118.867 Y118.588 E0.00314
G1 X118.146 Y118.683 E0.02280
G1 X118.113 Y118.678 E0.00105
G1 X118.113 Y118.487 E0.00598
G1 X117.359 Y118.487 E0.02365
G1 X117.359 Y118.750 E0.00823
;WIPE_START
G1 F8640.000
G1 X117.359 Y118.487 E-0.06064
G1 X118.113 Y118.487 E-0.17414
G1 X118.113 Y118.678 E-0.04405
G1 X118.146 Y118.683 E-0.00775
G1 X118.867 Y118.588 E-0.16789
G1 X118.867 Y118.487 E-0.02314
G1 X119.621 Y118.487 E-0.17414
G1 X119.621 Y118.660 E-0.03974
;WIPE_END
G1 E-0.10852 F2100.000
G1 Z0.800 F10800.000
G1 X128.671 Y118.660
G1 Z0.200
G1 E0.80000 F2100.000
G1 F1200.000
G1 X128.671 Y118.487 E0.00540
G1 X129.425 Y118.487 E0.02365
G1 X129.425 Y118.588 E0.00314
G1 X130.146 Y118.683 E0.02280
G1 X130.179 Y118.678 E0.00105
G1 X130.179 Y118.487 E0.00598
G1 X130.934 Y118.487 E0.02365
G1 X130.934 Y118.750 E0.00823
;WIPE_START
G1 F8640.000
G1 X130.934 Y118.487 E-0.06064
G1 X130.179 Y118.487 E-0.17414
G1 X130.179 Y118.678 E-0.04405
G1 X130.146 Y118.683 E-0.00775
G1 X129.425 Y118.588 E-0.16789
G1 X129.425 Y118.487 E-0.02314
G1 X128.671 Y118.487 E-0.17414
G1 X128.671 Y118.660 E-0.03974
;WIPE_END
G1 E-0.10852 F2100.000
G1 Z0.800 F10800.000
G1 X133.196 Y114.213
G1 Z0.200
G1 E0.80000 F2100.000
G1 F1200.000
G1 X133.196 Y110.213 E0.12541
G1 X132.680 Y109.540 E0.02660
G1 X132.442 Y109.358 E0.00940
G1 X132.442 Y114.790 E0.17031
G1 X131.938 Y115.177 E0.01993
G1 X131.688 Y115.280 E0.00848
G1 X131.688 Y108.868 E0.20107
G1 X131.073 Y108.613 E0.02085
G1 X130.934 Y108.595 E0.00442
G1 X130.934 Y115.553 E0.21818
G1 X130.179 Y115.652 E0.02385
G1 X130.179 Y108.495 E0.22440
G1 X130.146 Y108.491 E0.00105
G1 X129.425 Y108.586 E0.02280
G1 X129.425 Y115.562 E0.21873
G1 X129.219 Y115.535 E0.00653
G1 X128.671 Y115.308 E0.01859
G1 X128.671 Y108.840 E0.20280
G1 X128.355 Y108.971 E0.01074
G1 X127.917 Y109.307 E0.01730
G1 X127.917 Y114.841 E0.17351
G1 X127.613 Y114.607 E0.01203
G1 X127.163 Y114.021 E0.02317
G1 X127.163 Y109.848 E0.13085
;WIPE_START
G1 F8640.000
G1 X127.163 Y113.139 E-0.76000
;WIPE_END
G1 E-0.04000 F2100.000
G1 Z0.800 F10800.000
G1 X128.671 Y105.830
G1 Z0.200
G1 E0.80000 F2100.000
G1 F1200.000
G1 X128.671 Y105.659 E0.00535
G1 X129.425 Y105.560 E0.02385
G1 X129.425 Y105.660 E0.00314
G1 X130.179 Y105.660 E0.02365
G1 X130.179 Y105.470 E0.00598
G1 X130.934 Y105.569 E0.02385
G1 X130.934 Y105.830 E0.00819
;WIPE_START
G1 F8640.000
G1 X130.934 Y105.569 E-0.06030
G1 X130.179 Y105.470 E-0.17564
G1 X130.179 Y105.660 E-0.04405
G1 X129.425 Y105.660 E-0.17414
G1 X129.425 Y105.560 E-0.02314
G1 X128.671 Y105.659 E-0.17564
G1 X128.671 Y105.830 E-0.03940
;WIPE_END
G1 E-0.10769 F2100.000
G1 Z0.800 F10800.000
G1 X119.621 Y105.830
G1 Z0.200
G1 E0.80000 F2100.000
G1 F1200.000
G1 X119.621 Y105.659 E0.00535
G1 X118.867 Y105.560 E0.02385
G1 X118.867 Y105.660 E0.00314
G1 X118.113 Y105.660 E0.02365
G1 X118.113 Y105.470 E0.00598
G1 X117.359 Y105.569 E0.02385
G1 X117.359 Y105.830 E0.00819
;WIPE_START
G1 F8640.000
G1 X117.359 Y105.569 E-0.06030
G1 X118.113 Y105.470 E-0.17564
G1 X118.113 Y105.660 E-0.04405
G1 X118.867 Y105.660 E-0.17414
G1 X118.867 Y105.560 E-0.02314
G1 X119.621 Y105.659 E-0.17564
G1 X119.621 Y105.830 E-0.03940
;WIPE_END
G1 E-0.10769 F2100.000
G1 Z0.800 F10800.000
G1 X125.995 Y109.677
G1 Z0.200
G1 E0.80000 F2100.000
;TYPE:Perimeter
G1 F1200.000
G1 X126.756 Y108.684 E0.03924
G1 X127.749 Y107.922 E0.03924
G1 X128.905 Y107.443 E0.03924
G1 X130.146 Y107.280 E0.03924
G1 X131.387 Y107.443 E0.03924
G1 X132.543 Y107.922 E0.03924
G1 X133.536 Y108.684 E0.03924
M73 P0 R95
G1 X134.298 Y109.677 E0.03924
G1 X134.777 Y110.833 E0.03924
G1 X134.940 Y112.074 E0.03924
G1 X134.777 Y113.315 E0.03924
G1 X134.298 Y114.471 E0.03924
G1 X133.536 Y115.464 E0.03924
G1 X132.543 Y116.226 E0.03924
G1 X131.387 Y116.704 E0.03924
G1 X130.146 Y116.868 E0.03924
G1 X128.905 Y116.704 E0.03924
G1 X127.749 Y116.226 E0.03924
G1 X126.756 Y115.464 E0.03924
G1 X125.995 Y114.471 E0.03924
G1 X125.516 Y113.315 E0.03924
G1 X125.352 Y112.074 E0.03924
G1 X125.516 Y110.833 E0.03924
G1 X125.972 Y109.732 E0.03736
G1 X126.320 Y109.877 F10800.000
;TYPE:External perimeter
G1 F1200.000
G1 X127.025 Y108.953 E0.03644
G1 X127.939 Y108.252 E0.03613
G1 X129.004 Y107.811 E0.03613
G1 X130.146 Y107.660 E0.03613
G1 X131.288 Y107.811 E0.03613
G1 X132.353 Y108.252 E0.03613
G1 X133.267 Y108.953 E0.03613
G1 X133.968 Y109.867 E0.03613
G1 X134.409 Y110.932 E0.03613
G1 X134.560 Y112.074 E0.03613
G1 X134.409 Y113.216 E0.03613
G1 X133.968 Y114.281 E0.03613
G1 X133.267 Y115.195 E0.03613
G1 X132.353 Y115.896 E0.03613
G1 X131.288 Y116.337 E0.03613
G1 X130.146 Y116.487 E0.03613
G1 X129.004 Y116.337 E0.03613
G1 X127.939 Y115.896 E0.03613
G1 X127.025 Y115.195 E0.03613
G1 X126.324 Y114.281 E0.03613
G1 X125.883 Y113.216 E0.03613
G1 X125.733 Y112.074 E0.03613
G1 X125.883 Y110.932 E0.03613
G1 X126.297 Y109.932 E0.03392
G1 X126.119 Y109.531 F10800.000
;WIPE_START
G1 F8640.000
G1 X127.025 Y108.953 E-0.28176
G1 X127.939 Y108.252 E-0.26604
G1 X128.788 Y107.900 E-0.21220
;WIPE_END
G1 E-0.04000 F2100.000
G1 Z0.800 F10800.000
G1 X122.777 Y110.833
G1 Z0.200
G1 E0.80000 F2100.000
;TYPE:Perimeter
G1 F1200.000
G1 X122.940 Y112.074 E0.03924
G1 X122.777 Y113.315 E0.03924
G1 X122.298 Y114.471 E0.03924
G1 X121.536 Y115.464 E0.03924
G1 X120.543 Y116.226 E0.03924
G1 X119.387 Y116.704 E0.03924
G1 X118.146 Y116.868 E0.03924
G1 X116.905 Y116.704 E0.03924
G1 X115.749 Y116.226 E0.03924
G1 X114.756 Y115.464 E0.03924
G1 X113.995 Y114.471 E0.03924
G1 X113.516 Y113.315 E0.03924
G1 X113.352 Y112.074 E0.03924
G1 X113.516 Y110.833 E0.03924
G1 X113.995 Y109.677 E0.03924
G1 X114.756 Y108.684 E0.03924
G1 X115.749 Y107.922 E0.03924
G1 X116.905 Y107.443 E0.03924
G1 X118.146 Y107.280 E0.03924
G1 X119.387 Y107.443 E0.03924
G1 X120.543 Y107.922 E0.03924
G1 X121.536 Y108.684 E0.03924
G1 X122.298 Y109.677 E0.03924
G1 X122.754 Y110.778 E0.03736
G1 X122.405 Y110.922 F10800.000
;TYPE:External perimeter
G1 F1200.000
G1 X122.560 Y112.074 E0.03644
G1 X122.409 Y113.216 E0.03613
G1 X121.968 Y114.281 E0.03613
G1 X121.267 Y115.195 E0.03613
G1 X120.353 Y115.896 E0.03613
G1 X119.288 Y116.337 E0.03613
G1 X118.146 Y116.487 E0.03613
G1 X117.004 Y116.337 E0.03613
G1 X115.939 Y115.896 E0.03613
G1 X115.025 Y115.195 E0.03613
G1 X114.324 Y114.281 E0.03613
G1 X113.883 Y113.216 E0.03613
G1 X113.733 Y112.074 E0.03613
G1 X113.883 Y110.932 E0.03613
G1 X114.324 Y109.867 E0.03613
G1 X115.025 Y108.953 E0.03613
G1 X115.939 Y108.252 E0.03613
G1 X117.004 Y107.811 E0.03613
G1 X118.146 Y107.660 E0.03613
G1 X119.288 Y107.811 E0.03613
G1 X120.353 Y108.252 E0.03613
G1 X121.267 Y108.953 E0.03613
G1 X121.968 Y109.867 E0.03613
G1 X122.382 Y110.867 E0.03392
G1 X122.792 Y111.025 F10800.000
;WIPE_START
G1 F8640.000
G1 X122.560 Y112.074 E-0.28176
G1 X122.409 Y113.216 E-0.26604
G1 X122.058 Y114.065 E-0.21220
;WIPE_END
G1 E-0.04000 F2100.000
G1 Z0.800 F10800.000
G1 X112.933 Y106.861
G1 Z0.200
G1 E0.80000 F2100.000
;TYPE:Perimeter
G1 F1200.000
G1 X135.359 Y106.861 E0.70315
G1 X135.359 Y117.287 E0.32689
G1 X112.933 Y117.287 E0.70315
G1 X112.933 Y106.921 E0.32501
G1 X112.556 Y106.484 F10800.000
;TYPE:External perimeter
G1 F1200.000
G1 X135.736 Y106.484 E0.72679
G1 X135.736 Y117.664 E0.35054
G1 X112.556 Y117.664 E0.72679
G1 X112.556 Y106.544 E0.34866
G1 X112.952 Y106.544 F10800.000
;WIPE_START
G1 F8640.000
G1 X115.848 Y106.535 E-0.76000
;WIPE_END
G1 E-0.04000 F2100.000
G1 Z0.800 F10800.000
G1 X115.615 Y106.974
G1 Z0.200
G1 E0.80000 F2100.000
;TYPE:Solid infill
;WIDTH:0.447903
G1 F1200.000
G1 X116.109 Y107.467 E0.02349
G1 X115.704 Y107.635 E0.01476
G1 X115.212 Y107.144 E0.02340
G1 X114.640 Y107.144 E0.01929
G1 X115.360 Y107.864 E0.03432
G1 X115.036 Y108.113 E0.01376
G1 X114.067 Y107.144 E0.04616
G1 X113.494 Y107.144 E0.01929
G1 X114.712 Y108.362 E0.05800
G1 X114.555 Y108.482 E0.00668
G1 X114.427 Y108.649 E0.00708
G1 X113.216 Y107.438 E0.05766
G1 X113.216 Y108.011 E0.01929
G1 X114.178 Y108.973 E0.04582
G1 X113.929 Y109.297 E0.01376
G1 X113.216 Y108.584 E0.03397
G1 X113.216 Y109.157 E0.01929
G1 X113.702 Y109.643 E0.02317
G1 X113.535 Y110.048 E0.01476
G1 X113.046 Y109.560 E0.02326
G1 X113.260 Y110.526 F10800.000
;TYPE:Gap fill
;WIDTH:0.261404
G1 F1200.000
G1 X113.227 Y110.770 E0.00448
;WIDTH:0.253992
G1 X113.207 Y111.083 E0.00550
;WIDTH:0.213824
G1 X113.186 Y111.396 E0.00445
;WIDTH:0.173656
G1 X113.166 Y111.708 E0.00341
;WIDTH:0.133488
G1 X113.145 Y112.021 E0.00236
G1 X113.145 Y112.127 F10800.000
;WIDTH:0.133488
G1 F1200.000
G1 X113.166 Y112.439 E0.00236
;WIDTH:0.173656
G1 X113.186 Y112.752 E0.00341
;WIDTH:0.213823
G1 X113.207 Y113.065 E0.00445
;WIDTH:0.25399
G1 X113.227 Y113.378 E0.00550
;WIDTH:0.261404
G1 X113.260 Y113.622 E0.00448
G1 X113.046 Y114.020 F10800.000
;TYPE:Solid infill
;WIDTH:0.453264
G1 F1200.000
G1 X116.031 Y117.004 E0.14400
G1 X115.450 Y117.004 E0.01980
G1 X113.216 Y114.770 E0.10781
G1 X113.216 Y115.350 E0.01980
G1 X114.870 Y117.004 E0.07981
G1 X114.290 Y117.004 E0.01980
G1 X113.216 Y115.930 E0.05181
G1 X113.216 Y116.511 E0.01980
G1 X113.879 Y117.174 E0.03199
;WIPE_START
G1 F8640.000
G1 X113.216 Y116.511 E-0.21651
G1 X113.216 Y115.930 E-0.13400
G1 X114.290 Y117.004 E-0.35059
G1 X114.545 Y117.004 E-0.05890
;WIPE_END
G1 E-0.04000 F2100.000
G1 Z0.800 F10800.000
G1 X116.601 Y116.947
G1 Z0.200
G1 E0.80000 F2100.000
;TYPE:Gap fill
;WIDTH:0.253998
G1 F1200.000
G1 X116.842 Y116.993 E0.00432
G1 X117.155 Y117.013 E0.00550
;WIDTH:0.13349
G1 X118.093 Y117.075 E0.00708
G1 X118.199 Y117.075 F10800.000
;WIDTH:0.13349
G1 F1200.000
G1 X118.512 Y117.054 E0.00236
;WIDTH:0.173659
G1 X118.824 Y117.034 E0.00341
;WIDTH:0.213828
G1 X119.137 Y117.013 E0.00445
;WIDTH:0.253996
G1 X119.450 Y116.993 E0.00550
;WIDTH:0.26141
G1 X119.694 Y116.960 E0.00448
;WIPE_START
G1 F8640.000
G1 X119.450 Y116.993 E-0.05695
;WIPE_END
G1 E-0.74305 F2100.000
G1 Z0.800 F10800.000
G1 X128.601 Y116.947
G1 Z0.200
G1 E0.80000 F2100.000
;WIDTH:0.253998
G1 F1200.000
G1 X128.842 Y116.993 E0.00432
G1 X129.155 Y117.013 E0.00550
;WIDTH:0.13349
G1 X130.093 Y117.075 E0.00708
G1 X130.199 Y117.075 F10800.000
;WIDTH:0.13349
G1 F1200.000
G1 X130.512 Y117.054 E0.00236
;WIDTH:0.173659
G1 X130.824 Y117.034 E0.00341
;WIDTH:0.213828
G1 X131.137 Y117.013 E0.00445
;WIDTH:0.253996
G1 X131.450 Y116.993 E0.00550
;WIDTH:0.26141
G1 X131.694 Y116.960 E0.00448
;WIPE_START
G1 F8640.000
G1 X131.450 Y116.993 E-0.05695
;WIPE_END
G1 E-0.74305 F2100.000
G1 Z0.800 F10800.000
G1 X135.246 Y114.590
G1 Z0.200
G1 E0.80000 F2100.000
;TYPE:Solid infill
;WIDTH:0.448875
G1 F1200.000
G1 X134.757 Y114.101 E0.02335
G1 X134.589 Y114.507 E0.01483
G1 X135.076 Y114.995 E0.02327
G1 X135.076 Y115.569 E0.01938
G1 X134.361 Y114.853 E0.03416
G1 X134.111 Y115.178 E0.01382
G1 X135.076 Y116.143 E0.04606
G1 X135.076 Y116.717 E0.01938
G1 X133.862 Y115.503 E0.05796
G1 X133.738 Y115.665 E0.00691
G1 X133.575 Y115.790 E0.00691
G1 X134.789 Y117.004 E0.05795
G1 X134.215 Y117.004 E0.01938
G1 X133.250 Y116.039 E0.04605
G1 X132.925 Y116.289 E0.01382
G1 X133.641 Y117.004 E0.03415
G1 X133.067 Y117.004 E0.01938
G1 X132.579 Y116.517 E0.02327
G1 X132.173 Y116.685 E0.01483
G1 X132.662 Y117.174 E0.02334
;WIPE_START
G1 F8640.000
G1 X132.173 Y116.685 E-0.15968
G1 X132.579 Y116.517 E-0.10146
G1 X133.067 Y117.004 E-0.15918
G1 X133.641 Y117.004 E-0.13256
G1 X133.007 Y116.370 E-0.20712
;WIPE_END
G1 E-0.04000 F2100.000
G1 Z0.800 F10800.000
G1 X135.033 Y113.622
G1 Z0.200
G1 E0.80000 F2100.000
;TYPE:Gap fill
;WIDTH:0.261402
G1 F1200.000
G1 X135.065 Y113.378 E0.00448
;WIDTH:0.25399
G1 X135.086 Y113.065 E0.00550
;WIDTH:0.213822
G1 X135.106 Y112.752 E0.00445
;WIDTH:0.173655
G1 X135.127 Y112.439 E0.00341
;WIDTH:0.133488
G1 X135.147 Y112.127 E0.00236
G1 X135.147 Y112.021 F10800.000
;WIDTH:0.133488
G1 F1200.000
G1 X135.086 Y111.083 E0.00708
;WIDTH:0.253988
G1 X135.033 Y110.526 E0.00982
;WIPE_START
G1 F8640.000
G1 X135.086 Y111.083 E-0.12924
;WIPE_END
G1 E-0.67076 F2100.000
G1 Z0.800 F10800.000
G1 X134.415 Y106.974
G1 Z0.200
G1 E0.80000 F2100.000
;TYPE:Solid infill
;WIDTH:0.452213
G1 F1200.000
G1 X135.076 Y107.635 E0.03181
G1 X135.076 Y108.214 E0.01970
G1 X134.006 Y107.144 E0.05150
G1 X133.427 Y107.144 E0.01970
G1 X135.076 Y108.793 E0.07936
G1 X135.076 Y109.371 E0.01970
G1 X132.849 Y107.144 E0.10722
G1 X132.270 Y107.144 E0.01970
G1 X135.246 Y110.120 E0.14325
;WIPE_START
G1 F8640.000
G1 X132.919 Y107.793 E-0.76000
;WIPE_END
