; generated by PrusaSlicer 2.3.0+win64 on 2021-02-26 at 02:35:13 UTC

; 

; external perimeters extrusion width = 0.45mm
; perimeters extrusion width = 0.45mm
; infill extrusion width = 0.45mm
; solid infill extrusion width = 0.45mm
; top infill extrusion width = 0.40mm
; support material extrusion width = 0.35mm
; first layer extrusion width = 0.42mm

M73 P0 R173
M73 Q0 S173
M201 X1000 Y1000 Z200 E5000 ; sets maximum accelerations, mm/sec^2
M203 X200 Y200 Z12 E120 ; sets maximum feedrates, mm/sec
M204 P1250 R1250 T1250 ; sets acceleration (P, T) and retract acceleration (R), mm/sec^2
M205 X8.00 Y8.00 Z0.40 E4.50 ; sets the jerk limits, mm/sec
M205 S0 T0 ; sets the minimum extruding and travel feed rate, mm/sec
M107
;TYPE:Custom
M862.3 P "MK3S" ; printer model check
M862.1 P0.4 ; nozzle diameter check
M115 U3.9.1 ; tell printer latest fw version
G90 ; use absolute coordinates
M83 ; extruder relative mode
M104 S215 ; set extruder temp
M140 S60 ; set bed temp
M190 S60 ; wait for bed temp
M109 S215 ; wait for extruder temp
G28 W ; home all without mesh bed level
G80 ; mesh bed leveling
G1 Y-3.0 F1000.0 ; go outside print area
G92 E0.0
G1 X60.0 E9.0 F1000.0 ; intro line
G1 X100.0 E12.5 F1000.0 ; intro line
G92 E0.0
M221 S95

; Don't change E values below. Excessive value can damage the printer.
M907 E430 ; set extruder motor current
G21 ; set units to millimeters
G90 ; use absolute coordinates
M83 ; use relative distances for extrusion
M900 K0.05 ; Filament gcode LA 1.5
M900 K30 ; Filament gcode LA 1.0
;LAYER_CHANGE
;Z:0.2
;HEIGHT:0.2
;BEFORE_LAYER_CHANGE
G92 E0.0
;0.2


G1 E-0.80000 F2100.000
G1 Z0.600 F10800.000
;AFTER_LAYER_CHANGE
;0.2
G1 X47.763 Y14.197
G1 Z0.200
G1 E0.80000 F2100.000
M204 S1000
;TYPE:Skirt
;WIDTH:0.42
G1 F1200.000
G1 X48.163 Y13.492 E0.02543
G1 X48.535 Y13.128 E0.01633
G1 X48.978 Y12.854 E0.01633
G1 X49.470 Y12.683 E0.01633
G1 X49.987 Y12.623 E0.01633
G1 X200.004 Y12.623 E4.70366
G1 X200.906 Y12.802 E0.02884
G1 X201.675 Y13.313 E0.02896
G1 X202.190 Y14.076 E0.02884
G1 X202.377 Y14.976 E0.02884
G1 X202.377 Y195.008 E5.64476
M73 P0 R172
G1 X202.237 Y195.803 E0.02532
G1 X201.837 Y196.508 E0.02543
G1 X201.462 Y196.875 E0.01645
G1 X201.018 Y197.148 E0.01633
G1 X200.526 Y197.318 E0.01633
G1 X200.005 Y197.377 E0.01645
G1 X49.992 Y197.377 E4.70354
G1 X49.197 Y197.237 E0.02532
G1 X48.492 Y196.837 E0.02543
G1 X48.125 Y196.462 E0.01645
G1 X47.852 Y196.018 E0.01633
G1 X47.682 Y195.526 E0.01633
G1 X47.623 Y195.005 E0.01645
G1 X47.623 Y14.992 E5.64417
M73 Q0 S172
G1 X47.752 Y14.256 E0.02343
;WIPE_START
G1 F8640.000
G1 X48.163 Y13.492 E-0.20040
G1 X48.535 Y13.128 E-0.12025
G1 X48.978 Y12.854 E-0.12025
G1 X49.470 Y12.683 E-0.12025
G1 X49.987 Y12.623 E-0.12025
G1 X50.328 Y12.623 E-0.07860
;WIPE_END
G1 E-0.04000 F2100.000
G1 Z0.800 F10800.000
G1 X80.505 Y30.747
G1 Z0.200
G1 E0.80000 F2100.000
;TYPE:Support material
G1 F1200.000
G1 X80.505 Y31.595 E0.02659
G1 X81.259 Y35.309 E0.11882
G1 X81.259 Y30.107 E0.16308
G1 X82.013 Y29.203 E0.03692
G1 X82.013 Y39.022 E0.30788
G1 X82.767 Y42.736 E0.11882
G1 X82.767 Y28.299 E0.45268
G1 X83.521 Y27.394 E0.03692
G1 X83.521 Y46.450 E0.59748
G1 X84.275 Y50.164 E0.11882
G1 X84.275 Y26.490 E0.74228
G1 X85.030 Y25.586 E0.03692
G1 X85.030 Y54.730 E0.91381
G1 X93.325 Y31.765 F10800.000
G1 F1200.000
G1 X93.325 Y23.040 E0.27356
G1 X84.275 Y80.143 F10800.000
G1 F1200.000
G1 X84.275 Y76.169 E0.12460
G1 X85.030 Y65.106 E0.34768
G1 X85.030 Y82.534 E0.54644
G1 X85.784 Y85.645 E0.10037
G1 X85.784 Y24.681 E1.91147
G1 X86.538 Y23.777 E0.03692
G1 X86.538 Y88.756 E2.03737
G1 X87.292 Y91.867 E0.10037
G1 X87.292 Y22.873 E2.16327
G1 X87.676 Y22.412 E0.01879
G1 X88.046 Y22.465 E0.01173
G1 X88.046 Y94.978 E2.27361
G1 X88.800 Y98.089 E0.10037
G1 X88.800 Y22.571 E2.36781
G1 X89.555 Y22.678 E0.02388
G1 X89.555 Y101.200 E2.46201
G1 X90.309 Y104.312 E0.10037
G1 X90.309 Y22.785 E2.55621
G1 X91.063 Y22.891 E0.02388
G1 X91.063 Y107.423 E2.65042
M73 P0 R171
G1 X91.817 Y110.534 E0.10037
G1 X91.817 Y22.998 E2.74462
G1 X92.571 Y23.105 E0.02388
G1 X92.571 Y113.645 E2.83882
G1 X93.325 Y116.756 E0.10037
G1 X93.325 Y41.247 E2.36752
G1 X94.079 Y41.320 E0.02375
G1 X94.079 Y119.867 E2.46279
M73 Q0 S171
G1 X94.834 Y122.978 E0.10037
G1 X94.834 Y41.392 E2.55807
G1 X95.588 Y41.464 E0.02375
G1 X95.588 Y126.282 E2.65941
M73 P1 R171
M73 Q1 S171
G1 X96.342 Y129.941 E0.11713
G1 X96.342 Y41.537 E2.77186
G1 X97.096 Y41.609 E0.02375
G1 X97.096 Y133.600 E2.88430
G1 X97.850 Y137.259 E0.11713
G1 X97.850 Y41.681 E2.99675
G1 X98.604 Y41.754 E0.02375
G1 X98.604 Y140.917 E3.10920
G1 X99.359 Y144.576 E0.11713
G1 X99.359 Y41.826 E3.22165
G1 X100.113 Y41.899 E0.02375
G1 X100.113 Y148.235 E3.33410
G1 X100.867 Y151.894 E0.11713
G1 X100.867 Y41.971 E3.44655
M73 P1 R170
G1 X101.621 Y42.043 E0.02375
G1 X101.621 Y155.552 E3.55900
G1 X101.894 Y156.877 E0.04241
G1 X102.375 Y156.963 E0.01532
G1 X102.375 Y42.116 E3.60096
G1 X103.129 Y42.188 E0.02375
G1 X103.129 Y157.098 E3.60291
M73 Q1 S170
G1 X103.884 Y157.232 E0.02402
G1 X103.884 Y42.260 E3.60487
G1 X104.638 Y42.333 E0.02375
G1 X104.638 Y157.367 E3.60682
G1 X105.392 Y157.502 E0.02402
G1 X105.392 Y42.405 E3.60877
G1 X106.146 Y42.477 E0.02375
G1 X106.146 Y157.636 E3.61073
G1 X106.900 Y157.771 E0.02402
G1 X106.900 Y42.550 E3.61268
G1 X107.654 Y42.622 E0.02375
G1 X107.654 Y158.078 E3.62004
G1 X109.917 Y158.482 F10800.000
G1 F1200.000
G1 X109.917 Y157.723 E0.02380
G1 X109.531 Y157.597 E0.01274
G1 X109.316 Y157.432 E0.00847
G1 X109.163 Y157.282 E0.00673
G1 X109.163 Y158.175 E0.02799
G1 X108.408 Y158.040 E0.02402
G1 X108.408 Y148.167 E0.30957
G1 X108.962 Y148.624 E0.02250
G1 X109.163 Y148.749 E0.00742
G1 X109.163 Y149.621 E0.02733
;WIPE_START
G1 F8640.000
G1 X109.163 Y148.749 E-0.20125
G1 X108.962 Y148.624 E-0.05465
G1 X108.408 Y148.167 E-0.16571
G1 X108.408 Y149.633 E-0.33839
;WIPE_END
G1 E-0.04000 F2100.000
G1 Z0.800 F10800.000
G1 X111.425 Y150.111
G1 Z0.200
G1 E0.80000 F2100.000
G1 F1200.000
G1 X111.425 Y149.076 E0.03244
;WIPE_START
G1 F8640.000
G1 X111.425 Y150.111 E-0.23889
;WIPE_END
G1 E-0.56111 F2100.000
G1 Z0.800 F10800.000
G1 X108.408 Y144.758
G1 Z0.200
G1 E0.80000 F2100.000
G1 F1200.000
G1 X108.409 Y42.694 E3.20012
M73 P1 R169
G1 X109.163 Y42.767 E0.02375
G1 X109.163 Y144.731 E3.19700
G1 X109.351 Y144.940 E0.00884
G1 X109.457 Y145.138 E0.00704
G1 X109.584 Y145.176 E0.00415
G1 X109.744 Y145.258 E0.00564
G1 X109.917 Y145.433 E0.00772
G1 X109.917 Y42.839 E3.21676
M73 P2 R169
M73 Q2 S170
G1 X110.671 Y42.911 E0.02375
G1 X110.671 Y146.319 E3.24228
M73 Q2 S169
G1 X110.857 Y146.423 E0.00667
G1 X110.999 Y146.535 E0.00567
G1 X111.110 Y146.649 E0.00499
G1 X111.241 Y146.830 E0.00702
G1 X111.368 Y147.158 E0.01100
G1 X111.404 Y147.463 E0.00964
G1 X111.392 Y147.616 E0.00482
G1 X111.425 Y147.617 E0.00103
G1 X111.425 Y42.984 E3.28071
G1 X112.179 Y43.056 E0.02375
G1 X112.179 Y147.782 E3.28360
G1 X112.348 Y147.853 E0.00573
G1 X112.522 Y147.965 E0.00651
G1 X112.710 Y148.133 E0.00790
G1 X112.799 Y148.242 E0.00442
G1 X112.933 Y148.076 E0.00669
G1 X112.933 Y43.129 E3.29056
G1 X113.688 Y43.201 E0.02375
G1 X113.688 Y147.536 E3.27134
G1 X113.870 Y147.427 E0.00665
G1 X114.004 Y147.085 E0.01153
G1 X114.117 Y146.916 E0.00639
G1 X114.237 Y146.790 E0.00544
G1 X114.442 Y146.648 E0.00781
G1 X114.442 Y146.612 E0.00112
G1 X114.334 Y146.517 E0.00450
G1 X114.024 Y146.103 E0.01624
G1 X113.835 Y145.676 E0.01463
G1 X113.768 Y145.280 E0.01260
G1 X113.789 Y144.928 E0.01105
G1 X113.929 Y144.417 E0.01663
G1 X114.274 Y143.802 E0.02211
G1 X114.442 Y143.620 E0.00774
G1 X114.442 Y43.273 E3.14631
G1 X115.196 Y43.346 E0.02375
G1 X115.196 Y143.004 E3.12471
G1 X115.477 Y142.869 E0.00977
G1 X115.950 Y142.744 E0.01535
G1 X115.950 Y142.161 E0.01828
G1 X115.741 Y141.461 E0.02291
G1 X115.660 Y140.953 E0.01611
G1 X115.668 Y140.585 E0.01155
G1 X115.736 Y140.307 E0.00899
G1 X115.864 Y140.053 E0.00890
G1 X115.950 Y139.950 E0.00423
G1 X115.950 Y43.418 E3.02669
G1 X116.704 Y43.490 E0.02375
G1 X116.704 Y139.391 E3.00689
M73 P2 R168
G1 X116.977 Y139.291 E0.00909
G1 X117.137 Y139.270 E0.00508
G1 X117.300 Y139.281 E0.00511
G1 X117.458 Y139.325 E0.00516
G1 X117.458 Y43.563 E3.00257
G1 X118.213 Y43.635 E0.02375
G1 X118.213 Y140.348 E3.03236
G1 X118.659 Y140.605 E0.01614
G1 X118.967 Y140.871 E0.01277
G1 X118.967 Y43.707 E3.04650
G1 X119.721 Y43.780 E0.02375
G1 X119.721 Y149.934 E3.32839
M73 Q2 S168
G1 X118.967 Y149.878 F10800.000
G1 F1200.000
G1 X118.967 Y143.394 E0.20332
G1 X118.891 Y143.645 E0.00823
G1 X118.772 Y143.886 E0.00843
G1 X118.826 Y144.028 E0.00474
G1 X118.894 Y144.462 E0.01379
G1 X118.909 Y145.143 E0.02136
G1 X118.798 Y146.260 E0.03518
G1 X118.555 Y146.894 E0.02129
G1 X118.298 Y147.397 E0.01771
G1 X118.213 Y147.611 E0.00721
G1 X118.213 Y149.142 E0.04801
;WIPE_START
G1 F8640.000
G1 X118.213 Y147.611 E-0.35359
G1 X118.298 Y147.397 E-0.05313
G1 X118.555 Y146.894 E-0.13044
G1 X118.798 Y146.260 E-0.15680
G1 X118.826 Y145.975 E-0.06605
;WIPE_END
G1 E-0.04000 F2100.000
G1 Z0.800 F10800.000
G1 X115.196 Y149.044
G1 Z0.200
G1 E0.80000 F2100.000
G1 F1200.000
G1 X115.196 Y150.356 E0.04116
;WIPE_START
G1 F8640.000
G1 X115.196 Y149.044 E-0.30311
;WIPE_END
G1 E-0.49689 F2100.000
G1 Z0.800 F10800.000
G1 X113.688 Y152.272
G1 Z0.200
G1 E0.80000 F2100.000
G1 F1200.000
G1 X113.688 Y151.769 E0.01578
G1 X113.493 Y151.655 E0.00707
G1 X113.048 Y151.242 E0.01904
G1 X112.933 Y151.082 E0.00617
G1 X112.933 Y153.273 E0.06869
;WIPE_START
G1 F8640.000
G1 X112.933 Y151.082 E-0.50584
G1 X113.048 Y151.242 E-0.04545
G1 X113.493 Y151.655 E-0.14022
G1 X113.688 Y151.769 E-0.05205
G1 X113.688 Y151.840 E-0.01644
;WIPE_END
G1 E-0.04000 F2100.000
G1 Z0.800 F10800.000
G1 X111.425 Y155.164
G1 Z0.200
G1 E0.80000 F2100.000
G1 F1200.000
G1 X111.425 Y153.976 E0.03725
G1 X111.274 Y153.958 E0.00478
G1 X111.098 Y154.000 E0.00569
G1 X110.846 Y154.083 E0.00831
G1 X110.671 Y154.170 E0.00612
G1 X110.671 Y155.977 E0.05668
;WIPE_START
G1 F8640.000
G1 X110.671 Y154.170 E-0.41738
G1 X110.846 Y154.083 E-0.04510
G1 X111.098 Y154.000 E-0.06117
G1 X111.274 Y153.958 E-0.04187
G1 X111.425 Y153.976 E-0.03518
G1 X111.425 Y154.666 E-0.15930
;WIPE_END
G1 E-0.04000 F2100.000
G1 Z0.800 F10800.000
G1 X112.933 Y158.577
G1 Z0.200
G1 E0.80000 F2100.000
G1 F1200.000
G1 X112.933 Y157.522 E0.03307
G1 X113.688 Y157.850 E0.02579
G1 X113.688 Y159.223 E0.04304
;WIPE_START
G1 F8640.000
G1 X113.688 Y157.850 E-0.31695
G1 X112.933 Y157.522 E-0.18990
G1 X112.933 Y158.577 E-0.24352
;WIPE_END
G1 E-0.04963 F2100.000
G1 Z0.800 F10800.000
G1 X115.950 Y154.253
G1 Z0.200
G1 E0.80000 F2100.000
G1 F1200.000
G1 X115.950 Y151.823 E0.07619
G1 X116.340 Y151.498 E0.01590
G1 X116.696 Y151.327 E0.01240
G1 X116.704 Y152.984 E0.05196
G1 X117.178 Y152.364 E0.02447
G1 X117.458 Y152.485 E0.00959
G1 X117.458 Y151.194 E0.04048
G1 X117.888 Y151.173 E0.01347
G1 X118.213 Y151.493 E0.01430
G1 X118.213 Y152.727 E0.03868
G1 X118.888 Y152.899 E0.02186
G1 X118.967 Y152.868 E0.00264
G1 X118.967 Y152.201 E0.02092
G1 X119.356 Y152.543 E0.01626
G1 X119.535 Y152.625 E0.00618
G1 X119.721 Y152.654 E0.00588
G1 X119.721 Y153.049 E0.01241
G1 X120.475 Y152.273 F10800.000
G1 F1200.000
G1 X120.475 Y151.565 E0.02220
;WIPE_START
G1 F8640.000
G1 X120.475 Y152.273 E-0.16347
;WIPE_END
G1 E-0.63653 F2100.000
G1 Z0.800 F10800.000
G1 X120.475 Y150.139
G1 Z0.200
G1 E0.80000 F2100.000
G1 F1200.000
G1 X120.475 Y149.434 E0.02209
;WIPE_START
G1 F8640.000
G1 X120.475 Y150.139 E-0.16271
;WIPE_END
G1 E-0.63729 F2100.000
G1 Z0.800 F10800.000
G1 X121.983 Y148.525
G1 Z0.200
G1 E0.80000 F2100.000
G1 F1200.000
G1 X121.983 Y149.158 E0.01985
G1 X122.149 Y149.468 E0.01103
G1 X122.363 Y149.295 E0.00862
G1 X122.738 Y149.068 E0.01374
G1 X122.738 Y148.969 E0.00309
G1 X122.877 Y148.899 E0.00489
G1 X123.007 Y148.773 E0.00568
G1 X123.075 Y148.661 E0.00411
G1 X123.128 Y148.524 E0.00463
G1 X123.233 Y147.952 E0.01823
G1 X123.411 Y148.235 E0.01050
G1 X123.492 Y148.328 E0.00387
G1 X123.492 Y149.113 E0.02461
;WIPE_START
G1 F8640.000
G1 X123.492 Y148.328 E-0.18121
G1 X123.411 Y148.235 E-0.02850
G1 X123.233 Y147.952 E-0.07731
G1 X123.128 Y148.524 E-0.13425
G1 X123.075 Y148.661 E-0.03410
G1 X123.007 Y148.773 E-0.03024
G1 X122.877 Y148.899 E-0.04180
G1 X122.738 Y148.969 E-0.03599
G1 X122.738 Y149.068 E-0.02276
G1 X122.363 Y149.295 E-0.10122
G1 X122.149 Y149.468 E-0.06350
G1 X122.131 Y149.434 E-0.00912
;WIPE_END
G1 E-0.04000 F2100.000
G1 Z0.800 F10800.000
G1 X123.492 Y151.330
G1 Z0.200
G1 E0.80000 F2100.000
G1 F1200.000
G1 X123.492 Y152.151 E0.02577
;WIPE_START
G1 F8640.000
G1 X123.492 Y151.330 E-0.18977
;WIPE_END
G1 E-0.61023 F2100.000
G1 Z0.800 F10800.000
G1 X116.704 Y145.516
G1 Z0.200
G1 E0.80000 F2100.000
G1 F1200.000
G1 X116.704 Y144.359 E0.03630
G1 X116.578 Y144.324 E0.00409
G1 X116.353 Y144.302 E0.00710
G1 X116.084 Y144.378 E0.00878
G1 X115.950 Y144.459 E0.00489
G1 X115.950 Y145.660 E0.03766
;WIPE_START
G1 F8640.000
G1 X115.950 Y144.459 E-0.27733
G1 X116.084 Y144.378 E-0.03599
G1 X116.353 Y144.302 E-0.06467
G1 X116.578 Y144.324 E-0.05229
G1 X116.704 Y144.359 E-0.03014
G1 X116.704 Y145.516 E-0.26734
;WIPE_END
G1 E-0.07223 F2100.000
G1 Z0.800 F10800.000
G1 X123.492 Y137.783
G1 Z0.200
G1 E0.80000 F2100.000
G1 F1200.000
G1 X123.492 Y137.088 E0.02179
G1 X123.548 Y137.022 E0.00272
G1 X123.690 Y137.084 E0.00486
G1 X123.921 Y137.123 E0.00737
G1 X124.095 Y137.107 E0.00547
G1 X124.246 Y137.059 E0.00496
G1 X124.246 Y137.675 E0.01933
;WIPE_START
G1 F8640.000
G1 X124.246 Y137.059 E-0.14232
G1 X124.095 Y137.107 E-0.03649
G1 X123.921 Y137.123 E-0.04030
G1 X123.690 Y137.084 E-0.05426
G1 X123.548 Y137.022 E-0.03576
G1 X123.492 Y137.088 E-0.02005
G1 X123.492 Y137.783 E-0.16050
;WIPE_END
G1 E-0.31031 F2100.000
G1 Z0.800 F10800.000
G1 X126.508 Y137.540
G1 Z0.200
G1 E0.80000 F2100.000
G1 F1200.000
G1 X126.508 Y139.082 E0.04835
;WIPE_START
G1 F8640.000
G1 X126.508 Y137.540 E-0.35607
;WIPE_END
G1 E-0.44393 F2100.000
G1 Z0.800 F10800.000
G1 X125.000 Y140.902
G1 Z0.200
G1 E0.80000 F2100.000
G1 F1200.000
G1 X125.000 Y139.909 E0.03113
G1 X124.795 Y139.840 E0.00677
G1 X124.547 Y139.804 E0.00786
G1 X124.246 Y139.802 E0.00946
G1 X124.246 Y140.433 E0.01980
;WIPE_START
G1 F8640.000
G1 X124.246 Y139.802 E-0.14580
G1 X124.547 Y139.804 E-0.06964
G1 X124.795 Y139.840 E-0.05787
G1 X125.000 Y139.909 E-0.04985
G1 X125.000 Y140.902 E-0.22926
;WIPE_END
G1 E-0.24758 F2100.000
G1 Z0.800 F10800.000
G1 X130.279 Y145.045
G1 Z0.200
G1 E0.80000 F2100.000
G1 F1200.000
G1 X130.279 Y44.793 E3.14335
G1 X129.525 Y44.720 E0.02375
G1 X129.525 Y144.508 E3.12876
G1 X129.052 Y144.367 E0.01549
G1 X128.919 Y143.916 E0.01473
G1 X128.771 Y143.655 E0.00941
G1 X128.771 Y44.648 E3.10430
G1 X128.017 Y44.576 E0.02375
G1 X128.017 Y142.817 E3.08030
G1 X127.588 Y142.360 E0.01966
G1 X127.462 Y142.065 E0.01006
G1 X127.412 Y141.886 E0.00582
G1 X127.458 Y141.026 E0.02700
G1 X127.452 Y140.448 E0.01814
G1 X127.318 Y139.886 E0.01809
G1 X127.262 Y139.761 E0.00430
G1 X127.262 Y44.503 E2.98674
M73 P3 R168
M73 Q3 S168
G1 X126.508 Y44.431 E0.02375
G1 X126.508 Y136.226 E2.87818
G1 X126.302 Y136.073 E0.00807
G1 X126.153 Y136.009 E0.00507
G1 X125.939 Y135.964 E0.00685
G1 X125.845 Y135.567 E0.01277
G1 X125.754 Y135.370 E0.00682
G1 X125.754 Y44.359 E2.85359
M73 P3 R167
G1 X125.000 Y44.286 E0.02375
G1 X125.000 Y134.517 E2.82911
G1 X124.779 Y134.436 E0.00739
G1 X124.597 Y134.417 E0.00572
G1 X124.381 Y134.439 E0.00681
G1 X124.246 Y134.479 E0.00443
G1 X124.246 Y44.214 E2.83021
G1 X123.492 Y44.142 E0.02375
G1 X123.492 Y134.433 E2.83102
G1 X123.329 Y134.463 E0.00518
G1 X123.143 Y134.536 E0.00626
G1 X122.982 Y134.649 E0.00618
G1 X122.803 Y134.850 E0.00844
G1 X122.738 Y134.776 E0.00311
G1 X122.738 Y44.069 E2.84406
M73 Q3 S167
G1 X121.983 Y43.997 E0.02375
G1 X121.983 Y134.552 E2.83929
G1 X121.774 Y134.643 E0.00717
G1 X121.586 Y134.802 E0.00771
G1 X121.468 Y134.963 E0.00625
G1 X121.395 Y135.109 E0.00514
G1 X121.300 Y135.452 E0.01115
G1 X121.229 Y135.454 E0.00221
G1 X121.229 Y43.924 E2.86983
G1 X120.475 Y43.852 E0.02375
G1 X120.475 Y147.296 E3.24341
G1 X120.803 Y146.799 E0.01866
G1 X121.229 Y146.324 E0.02002
G1 X121.229 Y138.707 E0.23880
G1 X121.736 Y139.451 E0.02822
