; generated by PrusaSlicer 2.3.0+win64 on 2021-02-26 at 03:05:21 UTC

; 

; external perimeters extrusion width = 0.45mm
; perimeters extrusion width = 0.45mm
; infill extrusion width = 0.45mm
; solid infill extrusion width = 0.45mm
; top infill extrusion width = 0.40mm
; support material extrusion width = 0.35mm
; first layer extrusion width = 0.42mm

M73 P0 R146
M73 Q0 S146
M201 X1000 Y1000 Z200 E5000 ; sets maximum accelerations, mm/sec^2
M203 X200 Y200 Z12 E120 ; sets maximum feedrates, mm/sec
M204 P1250 R1250 T1250 ; sets acceleration (P, T) and retract acceleration (R), mm/sec^2
M205 X8.00 Y8.00 Z0.40 E4.50 ; sets the jerk limits, mm/sec
M205 S0 T0 ; sets the minimum extruding and travel feed rate, mm/sec
M107
;TYPE:Custom
M862.3 P "MK3S" ; printer model check
M862.1 P0.4 ; nozzle diameter check
M115 U3.9.1 ; tell printer latest fw version
G90 ; use absolute coordinates
M83 ; extruder relative mode
M104 S215 ; set extruder temp
M140 S60 ; set bed temp
M190 S60 ; wait for bed temp
M109 S215 ; wait for extruder temp
G28 W ; home all without mesh bed level
G80 ; mesh bed leveling
G1 Y-3.0 F1000.0 ; go outside print area
G92 E0.0
G1 X60.0 E9.0 F1000.0 ; intro line
G1 X100.0 E12.5 F1000.0 ; intro line
G92 E0.0
M221 S95

; Don't change E values below. Excessive value can damage the printer.
M907 E430 ; set extruder motor current
G21 ; set units to millimeters
G90 ; use absolute coordinates
M83 ; use relative distances for extrusion
M900 K0.05 ; Filament gcode LA 1.5
M900 K30 ; Filament gcode LA 1.0
;LAYER_CHANGE
;Z:0.2
;HEIGHT:0.2
;BEFORE_LAYER_CHANGE
G92 E0.0
;0.2


G1 E-0.80000 F2100.000
G1 Z0.600 F10800.000
;AFTER_LAYER_CHANGE
;0.2
G1 X47.763 Y14.197
G1 Z0.200
G1 E0.80000 F2100.000
M204 S1000
;TYPE:Skirt
;WIDTH:0.42
G1 F1200.000
G1 X48.163 Y13.492 E0.02543
G1 X48.535 Y13.128 E0.01633
G1 X48.978 Y12.854 E0.01633
G1 X49.470 Y12.683 E0.01633
G1 X49.987 Y12.623 E0.01633
G1 X200.004 Y12.623 E4.70366
M73 P0 R145
G1 X200.906 Y12.802 E0.02884
G1 X201.675 Y13.313 E0.02896
G1 X202.190 Y14.076 E0.02884
G1 X202.377 Y14.976 E0.02884
G1 X202.377 Y195.008 E5.64476
G1 X202.237 Y195.803 E0.02532
G1 X201.837 Y196.508 E0.02543
G1 X201.462 Y196.875 E0.01645
G1 X201.018 Y197.148 E0.01633
G1 X200.526 Y197.318 E0.01633
G1 X200.005 Y197.377 E0.01645
G1 X49.992 Y197.377 E4.70354
M73 Q0 S145
G1 X49.197 Y197.237 E0.02532
G1 X48.492 Y196.837 E0.02543
G1 X48.125 Y196.462 E0.01645
G1 X47.852 Y196.018 E0.01633
G1 X47.682 Y195.526 E0.01633
G1 X47.623 Y195.005 E0.01645
G1 X47.623 Y14.992 E5.64417
G1 X47.752 Y14.256 E0.02343
;WIPE_START
G1 F8640.000
G1 X48.163 Y13.492 E-0.20040
G1 X48.535 Y13.128 E-0.12025
G1 X48.978 Y12.854 E-0.12025
G1 X49.470 Y12.683 E-0.12025
G1 X49.987 Y12.623 E-0.12025
G1 X50.328 Y12.623 E-0.07860
;WIPE_END
G1 E-0.04000 F2100.000
G1 Z0.800 F10800.000
G1 X112.933 Y136.746
G1 Z0.200
G1 E0.80000 F2100.000
;TYPE:Support material
G1 F1200.000
G1 X112.933 Y137.618 E0.02733
G1 X113.688 Y139.622 E0.06716
G1 X113.688 Y137.202 E0.07589
G1 X114.442 Y137.477 E0.02517
G1 X114.442 Y143.620 E0.19262
G1 X114.274 Y143.802 E0.00774
G1 X113.929 Y144.417 E0.02211
G1 X113.789 Y144.928 E0.01663
G1 X113.768 Y145.280 E0.01105
G1 X113.835 Y145.676 E0.01260
G1 X114.049 Y146.145 E0.01616
G1 X114.334 Y146.517 E0.01470
G1 X114.442 Y146.612 E0.00450
G1 X114.442 Y146.843 E0.00724
;WIPE_START
G1 F8640.000
G1 X114.442 Y146.612 E-0.05334
G1 X114.334 Y146.517 E-0.03314
G1 X114.049 Y146.145 E-0.10828
G1 X113.835 Y145.676 E-0.11901
G1 X113.768 Y145.280 E-0.09279
G1 X113.789 Y144.928 E-0.08139
G1 X113.929 Y144.417 E-0.12246
G1 X114.246 Y143.852 E-0.14959
;WIPE_END
G1 E-0.04000 F2100.000
G1 Z0.800 F10800.000
G1 X113.688 Y147.736
G1 Z0.200
G1 E0.80000 F2100.000
G1 F1200.000
G1 X113.688 Y142.462 E0.16535
G1 X113.355 Y142.768 E0.01416
G1 X113.193 Y143.011 E0.00917
G1 X112.933 Y142.824 E0.01001
G1 X112.933 Y148.076 E0.16468
G1 X112.799 Y148.242 E0.00669
G1 X112.710 Y148.133 E0.00442
G1 X112.522 Y147.965 E0.00790
G1 X112.348 Y147.853 E0.00651
G1 X112.179 Y147.782 E0.00573
G1 X112.179 Y146.325 E0.04567
G1 X111.425 Y146.200 E0.02397
G1 X111.425 Y147.617 E0.04446
G1 X111.392 Y147.616 E0.00103
G1 X111.404 Y147.463 E0.00482
G1 X111.368 Y147.158 E0.00964
G1 X111.266 Y146.877 E0.00937
G1 X111.110 Y146.649 E0.00866
G1 X110.999 Y146.535 E0.00499
G1 X110.857 Y146.423 E0.00567
G1 X110.671 Y146.319 E0.00667
G1 X110.671 Y146.050 E0.00846
;WIPE_START
G1 F8640.000
G1 X110.671 Y146.319 E-0.06231
G1 X110.857 Y146.423 E-0.04911
G1 X110.999 Y146.535 E-0.04176
G1 X111.110 Y146.649 E-0.03676
G1 X111.266 Y146.877 E-0.06374
G1 X111.368 Y147.158 E-0.06898
G1 X111.404 Y147.463 E-0.07097
G1 X111.392 Y147.616 E-0.03549
G1 X111.425 Y147.617 E-0.00757
G1 X111.425 Y146.217 E-0.32331
;WIPE_END
G1 E-0.04000 F2100.000
G1 Z0.800 F10800.000
G1 X111.425 Y149.077
G1 Z0.200
G1 E0.80000 F2100.000
G1 F1200.000
G1 X111.425 Y150.111 E0.03242
;WIPE_START
G1 F8640.000
G1 X111.425 Y149.077 E-0.23878
;WIPE_END
G1 E-0.56122 F2100.000
G1 Z0.800 F10800.000
G1 X109.163 Y149.621
G1 Z0.200
G1 E0.80000 F2100.000
G1 F1200.000
G1 X109.163 Y148.749 E0.02733
G1 X108.962 Y148.624 E0.00742
G1 X108.408 Y148.167 E0.02250
G1 X108.408 Y149.870 E0.05341
;WIPE_START
G1 F8640.000
G1 X108.408 Y148.167 E-0.39330
G1 X108.962 Y148.624 E-0.16571
G1 X109.163 Y148.749 E-0.05465
G1 X109.163 Y149.383 E-0.14634
;WIPE_END
G1 E-0.04000 F2100.000
G1 Z0.800 F10800.000
G1 X107.654 Y156.883
G1 Z0.200
G1 E0.80000 F2100.000
G1 F1200.000
G1 X107.654 Y155.628 E0.03938
G1 X107.824 Y155.583 E0.00549
G1 X108.013 Y155.465 E0.00700
G1 X108.142 Y155.293 E0.00675
G1 X108.195 Y155.108 E0.00601
G1 X108.201 Y154.963 E0.00458
G1 X108.149 Y154.548 E0.01312
G1 X108.081 Y153.522 E0.03224
G1 X108.133 Y152.592 E0.02918
G1 X108.203 Y152.309 E0.00915
G1 X108.408 Y152.104 E0.00910
G1 X108.408 Y156.944 E0.15176
;WIPE_START
G1 F8640.000
G1 X108.408 Y153.653 E-0.76000
;WIPE_END
G1 E-0.04000 F2100.000
G1 Z0.800 F10800.000
G1 X110.671 Y155.977
G1 Z0.200
G1 E0.80000 F2100.000
G1 F1200.000
G1 X110.671 Y154.170 E0.05668
G1 X110.846 Y154.083 E0.00612
G1 X111.098 Y154.000 E0.00831
G1 X111.274 Y153.958 E0.00569
G1 X111.425 Y153.976 E0.00478
G1 X111.425 Y155.164 E0.03725
;WIPE_START
G1 F8640.000
G1 X111.425 Y153.976 E-0.27429
G1 X111.274 Y153.958 E-0.03517
G1 X111.098 Y154.000 E-0.04188
G1 X110.846 Y154.083 E-0.06117
G1 X110.671 Y154.170 E-0.04510
G1 X110.671 Y155.479 E-0.30239
;WIPE_END
G1 E-0.04000 F2100.000
G1 Z0.800 F10800.000
G1 X112.933 Y153.273
G1 Z0.200
G1 E0.80000 F2100.000
G1 F1200.000
G1 X112.933 Y151.082 E0.06869
G1 X113.048 Y151.242 E0.00617
G1 X113.493 Y151.655 E0.01904
G1 X113.688 Y151.769 E0.00707
G1 X113.688 Y152.272 E0.01578
;WIPE_START
G1 F8640.000
G1 X113.688 Y151.769 E-0.11617
G1 X113.493 Y151.655 E-0.05205
G1 X113.048 Y151.242 E-0.14022
G1 X112.933 Y151.082 E-0.04546
G1 X112.933 Y152.841 E-0.40610
;WIPE_END
G1 E-0.04000 F2100.000
G1 Z0.800 F10800.000
G1 X115.196 Y150.350
G1 Z0.200
G1 E0.80000 F2100.000
G1 F1200.000
G1 X115.196 Y149.044 E0.04097
;WIPE_START
G1 F8640.000
G1 X115.196 Y150.350 E-0.30169
;WIPE_END
G1 E-0.49831 F2100.000
G1 Z0.800 F10800.000
G1 X115.950 Y145.659
G1 Z0.200
G1 E0.80000 F2100.000
G1 F1200.000
G1 X115.950 Y144.459 E0.03764
G1 X116.084 Y144.378 E0.00489
G1 X116.331 Y144.301 E0.00811
G1 X116.580 Y144.324 E0.00786
G1 X116.704 Y144.359 E0.00404
G1 X116.704 Y145.516 E0.03630
;WIPE_START
G1 F8640.000
G1 X116.704 Y144.359 E-0.26734
G1 X116.580 Y144.324 E-0.02973
G1 X116.331 Y144.301 E-0.05787
G1 X116.084 Y144.378 E-0.05976
G1 X115.950 Y144.459 E-0.03599
G1 X115.950 Y145.659 E-0.27719
;WIPE_END
G1 E-0.07213 F2100.000
G1 Z0.800 F10800.000
G1 X115.950 Y141.567
G1 Z0.200
G1 E0.80000 F2100.000
G1 F1200.000
G1 X115.950 Y142.744 E0.03691
G1 X115.477 Y142.869 E0.01535
G1 X115.196 Y143.004 E0.00977
G1 X115.196 Y137.752 E0.16466
G1 X115.950 Y138.027 E0.02517
G1 X115.950 Y139.950 E0.06028
G1 X116.095 Y139.796 E0.00664
G1 X116.307 Y139.627 E0.00848
G1 X116.704 Y139.391 E0.01450
G1 X116.704 Y138.302 E0.03413
G1 X117.458 Y138.578 E0.02517
G1 X117.458 Y139.325 E0.02345
G1 X117.669 Y139.444 E0.00758
G1 X117.823 Y139.630 E0.00759
G1 X117.867 Y139.733 E0.00348
G1 X117.903 Y139.913 E0.00578
G1 X117.880 Y140.200 E0.00900
G1 X118.213 Y140.348 E0.01143
G1 X118.213 Y138.853 E0.04688
G1 X118.839 Y139.081 E0.02092
G1 X118.967 Y139.183 E0.00511
G1 X118.967 Y141.149 E0.06165
;WIPE_START
G1 F8640.000
G1 X118.967 Y139.183 E-0.45399
G1 X118.839 Y139.081 E-0.03763
G1 X118.213 Y138.853 E-0.15407
G1 X118.213 Y139.348 E-0.11430
;WIPE_END
G1 E-0.04000 F2100.000
G1 Z0.800 F10800.000
G1 X142.346 Y127.842
G1 Z0.200
G1 E0.80000 F2100.000
G1 F1200.000
G1 X142.346 Y127.125 E0.02250
G1 X141.591 Y126.589 E0.02900
G1 X141.591 Y127.749 E0.03635
G1 X141.082 Y127.953 E0.01720
G1 X140.837 Y128.105 E0.00904
G1 X140.837 Y126.849 E0.03937
G1 X140.083 Y127.415 E0.02956
G1 X140.083 Y128.901 E0.04660
G1 X139.736 Y129.427 E0.01975
G1 X139.329 Y129.861 E0.01865
G1 X139.329 Y127.981 E0.05893
G1 X138.843 Y128.346 E0.01905
G1 X138.599 Y128.276 E0.00795
G1 X138.575 Y128.315 E0.00145
G1 X138.575 Y130.800 E0.07793
G1 X138.306 Y131.310 E0.01806
G1 X138.077 Y131.988 E0.02244
G1 X137.995 Y132.465 E0.01518
G1 X137.970 Y132.942 E0.01499
G1 X138.012 Y133.500 E0.01752
G1 X138.109 Y133.730 E0.00783
G1 X138.454 Y134.210 E0.01855
G1 X138.101 Y134.260 E0.01119
G1 X137.821 Y134.356 E0.00928
G1 X137.821 Y129.524 E0.15151
G1 X137.160 Y130.583 E0.03916
G1 X137.067 Y130.798 E0.00734
G1 X137.067 Y134.671 E0.12144
;WIPE_START
G1 F8640.000
G1 X137.067 Y131.380 E-0.76000
;WIPE_END
G1 E-0.04000 F2100.000
G1 Z0.800 F10800.000
G1 X140.083 Y133.998
G1 Z0.200
G1 E0.80000 F2100.000
G1 F1200.000
G1 X140.083 Y133.315 E0.02141
G1 X140.630 Y134.018 E0.02794
G1 X140.837 Y134.223 E0.00914
G1 X140.837 Y134.584 E0.01132
;WIPE_START
G1 F8640.000
G1 X140.837 Y134.223 E-0.08337
G1 X140.630 Y134.018 E-0.06731
G1 X140.083 Y133.315 E-0.20574
G1 X140.083 Y133.998 E-0.15770
;WIPE_END
G1 E-0.28588 F2100.000
G1 Z0.800 F10800.000
G1 X143.100 Y134.622
G1 Z0.200
G1 E0.80000 F2100.000
G1 F1200.000
G1 X143.100 Y133.798 E0.02585
G1 X142.346 Y132.954 E0.03550
G1 X142.346 Y133.495 E0.01699
G1 X141.728 Y132.848 E0.02805
G1 X141.591 Y132.622 E0.00828
G1 X141.591 Y131.747 E0.02745
;WIPE_START
G1 F8640.000
G1 X141.591 Y132.622 E-0.20214
G1 X141.728 Y132.848 E-0.06097
G1 X142.346 Y133.495 E-0.20659
G1 X142.346 Y132.954 E-0.12511
G1 X142.822 Y133.487 E-0.16519
;WIPE_END
G1 E-0.04000 F2100.000
G1 Z0.800 F10800.000
G1 X143.100 Y130.501
G1 Z0.200
G1 E0.80000 F2100.000
G1 F1200.000
G1 X143.100 Y131.375 E0.02739
G1 X143.854 Y132.195 E0.03493
G1 X143.854 Y130.654 E0.04830
G1 X144.310 Y130.642 E0.01430
G1 X144.608 Y130.983 E0.01421
G1 X144.608 Y133.026 E0.06404
G1 X144.988 Y133.477 E0.01850
G1 X145.036 Y133.587 E0.00375
G1 X145.065 Y133.725 E0.00444
G1 X145.055 Y134.315 E0.01850
G1 X144.995 Y134.985 E0.02108
G1 X144.839 Y135.611 E0.02022
G1 X144.744 Y135.791 E0.00638
G1 X144.640 Y135.921 E0.00524
G1 X144.937 Y136.850 E0.03059
G1 X145.322 Y138.190 E0.04370
G1 X145.362 Y138.120 E0.00254
G1 X145.362 Y131.828 E0.19729
G1 X146.116 Y132.649 E0.03497
G1 X146.116 Y137.573 E0.15439
G1 X146.263 Y137.592 E0.00465
G1 X146.428 Y137.657 E0.00556
G1 X146.558 Y137.746 E0.00493
G1 X146.666 Y137.862 E0.00496
G1 X146.733 Y137.981 E0.00429
G1 X146.786 Y138.155 E0.00568
G1 X146.811 Y138.493 E0.01065
G1 X146.799 Y138.674 E0.00566
G1 X146.871 Y138.620 E0.00280
G1 X146.871 Y136.945 E0.05252
G1 X147.625 Y137.198 E0.02495
G1 X147.625 Y138.511 E0.04116
;WIPE_START
G1 F8640.000
G1 X147.625 Y137.198 E-0.30308
G1 X146.871 Y136.945 E-0.18373
G1 X146.871 Y138.128 E-0.27319
;WIPE_END
G1 E-0.04000 F2100.000
G1 Z0.800 F10800.000
G1 X146.871 Y136.084
G1 Z0.200
G1 E0.80000 F2100.000
G1 F1200.000
G1 X146.871 Y134.707 E0.04315
G1 X147.625 Y135.212 E0.02846
G1 X147.625 Y135.896 E0.02143
;WIPE_START
G1 F8640.000
G1 X147.625 Y135.212 E-0.15779
G1 X146.871 Y134.707 E-0.20957
G1 X146.871 Y136.084 E-0.31777
;WIPE_END
G1 E-0.11487 F2100.000
G1 Z0.800 F10800.000
G1 X139.329 Y140.103
G1 Z0.200
G1 E0.80000 F2100.000
G1 F1200.000
G1 X139.329 Y137.000 E0.09728
G1 X138.575 Y136.665 E0.02588
G1 X138.575 Y140.246 E0.11229
G1 X137.821 Y140.498 E0.02493
G1 X137.821 Y140.092 E0.01273
;WIPE_START
G1 F8640.000
G1 X137.821 Y140.498 E-0.09372
G1 X138.575 Y140.246 E-0.18361
G1 X138.575 Y138.156 E-0.48267
;WIPE_END
G1 E-0.04000 F2100.000
G1 Z0.800 F10800.000
G1 X137.067 Y142.664
G1 Z0.200
G1 E0.80000 F2100.000
G1 F1200.000
G1 X137.067 Y142.248 E0.01302
G1 X136.649 Y142.241 E0.01309
G1 X136.420 Y142.184 E0.00741
G1 X136.312 Y142.136 E0.00369
G1 X136.312 Y142.964 E0.02595
G1 X135.693 Y143.378 E0.02335
G1 X135.558 Y143.488 E0.00547
G1 X135.558 Y141.857 E0.05115
G1 X134.804 Y142.344 E0.02815
G1 X134.804 Y144.113 E0.05547
G1 X134.050 Y144.739 E0.03072
G1 X134.050 Y142.835 E0.05970
G1 X133.544 Y143.260 E0.02074
G1 X133.296 Y143.142 E0.00862
G1 X133.296 Y144.760 E0.05074
G1 X132.670 Y144.357 E0.02333
G1 X132.542 Y144.293 E0.00450
G1 X132.542 Y142.781 E0.04741
G1 X131.787 Y142.420 E0.02621
G1 X131.787 Y144.278 E0.05825
G1 X131.624 Y144.341 E0.00548
G1 X131.183 Y144.613 E0.01626
G1 X131.033 Y144.734 E0.00604
G1 X131.033 Y142.899 E0.05752
G1 X130.467 Y143.393 E0.02356
G1 X130.279 Y143.314 E0.00639
G1 X130.279 Y144.850 E0.04818
G1 X129.828 Y144.607 E0.01608
G1 X129.525 Y144.508 E0.00999
G1 X129.525 Y142.240 E0.07109
G1 X129.525 Y141.245 F10800.000
G1 F1200.000
G1 X129.525 Y139.603 E0.05148
G1 X130.279 Y140.231 E0.03077
G1 X130.279 Y140.789 E0.01749
;WIPE_START
G1 F8640.000
G1 X130.279 Y140.231 E-0.12877
G1 X129.525 Y139.603 E-0.22656
G1 X129.525 Y141.245 E-0.37911
;WIPE_END
G1 E-0.06556 F2100.000
G1 Z0.800 F10800.000
G1 X129.525 Y138.259
G1 Z0.200
G1 E0.80000 F2100.000
G1 F1200.000
G1 X129.525 Y137.906 E0.01106
G1 X128.771 Y137.269 E0.03094
G1 X128.771 Y138.485 E0.03810
G1 X128.417 Y138.681 E0.01268
G1 X128.771 Y138.975 E0.01442
G1 X128.771 Y143.655 E0.14673
G1 X128.485 Y143.290 E0.01453
G1 X128.017 Y142.817 E0.02087
G1 X128.017 Y136.633 E0.19391
G1 X127.266 Y136.000 E0.03078
G1 X127.262 Y135.950 E0.00156
G1 X127.262 Y139.761 E0.11949
G1 X127.140 Y139.516 E0.00859
G1 X126.947 Y139.252 E0.01025
G1 X126.662 Y138.984 E0.01227
G1 X126.508 Y138.881 E0.00581
G1 X126.508 Y137.878 E0.03143
G1 X126.644 Y137.654 E0.00821
G1 X126.744 Y137.419 E0.00801
G1 X126.808 Y137.161 E0.00832
G1 X126.820 Y136.985 E0.00555
G1 X126.798 Y136.790 E0.00616
G1 X126.732 Y136.578 E0.00694
G1 X126.641 Y136.394 E0.00643
G1 X126.508 Y136.226 E0.00672
G1 X126.508 Y129.791 E0.20178
G1 X125.754 Y130.695 E0.03692
G1 X125.754 Y135.370 E0.14656
G1 X125.626 Y135.118 E0.00886
G1 X125.365 Y134.800 E0.01290
G1 X125.158 Y134.612 E0.00874
G1 X125.000 Y134.517 E0.00580
G1 X125.000 Y131.600 E0.09145
G1 X124.246 Y132.504 E0.03692
G1 X124.246 Y134.479 E0.06192
G1 X124.063 Y134.573 E0.00646
G1 X123.980 Y134.518 E0.00313
G1 X123.832 Y134.458 E0.00502
G1 X123.656 Y134.427 E0.00559
G1 X123.492 Y134.433 E0.00516
G1 X123.492 Y132.831 E0.05023
G1 X123.054 Y132.408 E0.01909
G1 X122.738 Y132.874 E0.01768
G1 X122.738 Y134.776 E0.05964
G1 X122.564 Y134.636 E0.00701
G1 X122.399 Y134.561 E0.00567
G1 X122.183 Y134.525 E0.00686
G1 X121.983 Y134.552 E0.00632
G1 X121.983 Y133.684 E0.02721
G1 X121.229 Y133.324 E0.02620
G1 X121.229 Y135.623 E0.07209
;WIPE_START
G1 F8640.000
G1 X121.229 Y133.324 E-0.53092
G1 X121.983 Y133.684 E-0.19297
G1 X121.983 Y133.841 E-0.03611
;WIPE_END
G1 E-0.04000 F2100.000
G1 Z0.800 F10800.000
G1 X124.246 Y137.675
G1 Z0.200
G1 E0.80000 F2100.000
G1 F1200.000
G1 X124.246 Y137.059 E0.01933
G1 X124.095 Y137.107 E0.00496
G1 X123.921 Y137.123 E0.00547
G1 X123.690 Y137.084 E0.00737
G1 X123.548 Y137.022 E0.00486
G1 X123.492 Y137.088 E0.00272
G1 X123.492 Y137.783 E0.02179
;WIPE_START
G1 F8640.000
G1 X123.492 Y137.088 E-0.16050
G1 X123.548 Y137.022 E-0.02005
G1 X123.690 Y137.084 E-0.03577
G1 X123.921 Y137.123 E-0.05426
G1 X124.095 Y137.107 E-0.04029
G1 X124.246 Y137.059 E-0.03650
G1 X124.246 Y137.675 E-0.14232
;WIPE_END
G1 E-0.31032 F2100.000
G1 Z0.800 F10800.000
G1 X124.246 Y140.433
G1 Z0.200
G1 E0.80000 F2100.000
G1 F1200.000
G1 X124.246 Y139.802 E0.01980
