; generated by PrusaSlicer 2.4.0+win64 on 2022-03-02 at 05:14:17 UTC

; 

; external perimeters extrusion width = 0.45mm
; perimeters extrusion width = 0.45mm
; infill extrusion width = 0.45mm
; solid infill extrusion width = 0.45mm
; top infill extrusion width = 0.40mm
; first layer extrusion width = 0.42mm

M73 P0 R137
M73 Q0 S138
M201 X1000 Y1000 Z200 E5000 ; sets maximum accelerations, mm/sec^2
M203 X200 Y200 Z12 E120 ; sets maximum feedrates, mm/sec
M204 P1250 R1250 T1250 ; sets acceleration (P, T) and retract acceleration (R), mm/sec^2
M205 X8.00 Y8.00 Z0.40 E4.50 ; sets the jerk limits, mm/sec
M205 S0 T0 ; sets the minimum extruding and travel feed rate, mm/sec
M107
;TYPE:Custom
M862.3 P "MK3S" ; printer model check
M862.1 P0.4 ; nozzle diameter check
M115 U3.9.1 ; tell printer latest fw version
G90 ; use absolute coordinates
M83 ; extruder relative mode
M104 S215 ; set extruder temp
M140 S60 ; set bed temp
M190 S60 ; wait for bed temp
M109 S215 ; wait for extruder temp
G28 W ; home all without mesh bed level
G80 ; mesh bed leveling
G1 Y-3.0 F1000.0 ; go outside print area
G92 E0.0
G1 X60.0 E9.0 F1000.0 ; intro line
G1 X100.0 E12.5 F1000.0 ; intro line
G92 E0.0
M221 S95

; Don't change E values below. Excessive value can damage the printer.
M907 E430 ; set extruder motor current
G21 ; set units to millimeters
G90 ; use absolute coordinates
M83 ; use relative distances for extrusion
M900 K0.05 ; Filament gcode LA 1.5
M900 K30 ; Filament gcode LA 1.0
M107
;LAYER_CHANGE
;Z:0.2
;HEIGHT:0.2
;BEFORE_LAYER_CHANGE
G92 E0.0
;0.2


G1 E-.8 F2100
G1 Z.6 F10800
;AFTER_LAYER_CHANGE
;0.2
G1 X82.565 Y88.722
G1 Z.2
G1 E.8 F2100
M204 S1000
;TYPE:Skirt/Brim
;WIDTH:0.42
G1 F1200
G1 X83.552 Y88.1 E.03656
G1 X84.134 Y87.908 E.01923
G1 X85 Y87.802 E.02735
G1 X165.015 Y87.802 E2.50882
G1 X165.801 Y87.892 E.0248
G1 X166.393 Y88.08 E.01948
G1 X166.984 Y88.383 E.0208
G1 X167.568 Y88.84 E.02327
G1 X168.055 Y89.422 E.02378
G1 X168.377 Y90.001 E.02078
G1 X168.592 Y90.634 E.02098
G1 X168.69 Y91.312 E.02146
G1 X168.698 Y120.5 E.91518
G1 X168.306 Y121.807 E.04278
M73 P0 R136
G1 X167.26 Y122.683 E.04278
G1 X166.321 Y122.877 E.03008
G1 X83.679 Y122.877 E2.59116
G1 X82.372 Y122.485 E.04278
G1 X81.496 Y121.44 E.04278
G1 X81.302 Y120.5 E.03008
G1 X81.312 Y91.21 E.91837
G1 X81.537 Y90.217 E.03191
G1 X81.939 Y89.432 E.02766
G1 X82.526 Y88.767 E.02782
;WIPE_START
G1 F8640
G1 X83.552 Y88.1 E-.28254
G1 X84.134 Y87.908 E-.14161
G1 X85 Y87.802 E-.2014
G1 X85.582 Y87.802 E-.13445
;WIPE_END
G1 E-.04 F2100
G1 Z.8 F10800
G1 X85.568 Y91.668
G1 Z.2
G1 E.8 F2100
;TYPE:Perimeter
G1 F1200
G1 X164.832 Y91.668 E2.48524
G1 X164.832 Y119.713 E.87932
M73 Q0 S137
G1 X85.168 Y119.713 E2.49778
G1 X85.168 Y91.668 E.87932
G1 X85.508 Y91.668 E.01066
G1 X84.835 Y91.385 F10800
;TYPE:External perimeter
G1 F1200
G1 X84.923 Y91.319 E.00342
G1 X85.045 Y91.291 E.00394
G1 X164.957 Y91.291 E2.50558
G1 X165.12 Y91.342 E.00536
G1 X165.181 Y91.422 E.00316
G1 X165.209 Y91.545 E.00395
G1 X165.209 Y120.09 E.895
G1 X84.791 Y120.09 E2.52143
G1 X84.791 Y91.541 E.89513
G1 X84.812 Y91.44 E.00323
G1 X84.944 Y91.395 F10800
;WIPE_START
G1 F8640
G1 X84.923 Y91.319 E-.03782
G1 X85.045 Y91.291 E-.02903
G1 X88.047 Y91.291 E-.69315
;WIPE_END
G1 E-.04 F2100
G1 Z.8 F10800
G1 X163.955 Y91.782
G1 Z.2
G1 E.8 F2100
;TYPE:Solid infill
;WIDTH:0.420503
G1 F1200
G1 X164.549 Y92.375 E.02636
G1 X164.549 Y92.909 E.01677
G1 X163.591 Y91.951 E.04253
G1 X163.057 Y91.951 E.01677
G1 X164.549 Y93.443 E.06624
G1 X164.549 Y93.977 E.01677
G1 X162.523 Y91.951 E.08995
G1 X161.989 Y91.951 E.01677
G1 X164.549 Y94.511 E.11366
G1 X164.549 Y95.045 E.01677
G1 X161.455 Y91.951 E.13737
G1 X160.921 Y91.951 E.01677
G1 X164.549 Y95.579 E.16108
G1 X164.549 Y96.113 E.01677
G1 X160.387 Y91.951 E.18479
G1 X159.853 Y91.951 E.01677
G1 X164.549 Y96.647 E.2085
G1 X164.549 Y97.181 E.01677
G1 X159.319 Y91.951 E.23221
G1 X158.785 Y91.951 E.01677
G1 X164.549 Y97.715 E.25592
G1 X164.549 Y98.249 E.01677
G1 X158.251 Y91.951 E.27963
G1 X157.717 Y91.951 E.01677
G1 X164.549 Y98.783 E.30334
G1 X164.549 Y99.317 E.01677
G1 X157.183 Y91.951 E.32705
G1 X156.649 Y91.951 E.01677
G1 X164.549 Y99.851 E.35075
G1 X164.549 Y100.385 E.01677
G1 X156.115 Y91.951 E.37446
G1 X155.581 Y91.951 E.01677
G1 X164.549 Y100.919 E.39817
G1 X164.549 Y101.453 E.01677
G1 X155.047 Y91.951 E.42188
G1 X154.513 Y91.951 E.01677
G1 X164.549 Y101.987 E.44559
G1 X164.549 Y102.521 E.01677
G1 X153.979 Y91.951 E.4693
G1 X153.445 Y91.951 E.01677
G1 X164.549 Y103.055 E.49301
G1 X164.549 Y103.589 E.01677
G1 X152.911 Y91.951 E.51672
G1 X152.377 Y91.951 E.01677
G1 X164.549 Y104.123 E.54043
G1 X164.549 Y104.657 E.01677
G1 X151.843 Y91.951 E.56414
G1 X151.309 Y91.951 E.01677
G1 X164.549 Y105.191 E.58785
G1 X164.549 Y105.725 E.01677
G1 X150.775 Y91.951 E.61156
G1 X150.241 Y91.951 E.01677
G1 X164.549 Y106.259 E.63527
G1 X164.549 Y106.793 E.01677
G1 X149.707 Y91.951 E.65898
G1 X149.173 Y91.951 E.01677
G1 X164.549 Y107.327 E.68269
G1 X164.549 Y107.861 E.01677
G1 X148.639 Y91.951 E.70639
G1 X148.105 Y91.951 E.01677
G1 X164.549 Y108.395 E.7301
G1 X164.549 Y108.929 E.01677
G1 X147.571 Y91.951 E.75381
G1 X147.037 Y91.951 E.01677
G1 X164.549 Y109.463 E.77752
G1 X164.549 Y109.997 E.01677
G1 X146.503 Y91.951 E.80123
G1 X145.969 Y91.951 E.01677
G1 X164.549 Y110.531 E.82494
G1 X164.549 Y111.065 E.01677
G1 X145.435 Y91.951 E.84865
G1 X144.901 Y91.951 E.01677
G1 X164.549 Y111.599 E.87236
G1 X164.549 Y112.133 E.01677
G1 X144.367 Y91.951 E.89607
G1 X143.833 Y91.951 E.01677
G1 X164.549 Y112.667 E.91978
G1 X164.549 Y113.201 E.01677
M73 P0 R135
G1 X143.299 Y91.951 E.94349
G1 X142.766 Y91.951 E.01677
G1 X164.549 Y113.734 E.9672
G1 X164.549 Y114.268 E.01677
G1 X142.232 Y91.951 E.99091
G1 X141.698 Y91.951 E.01677
G1 X164.549 Y114.802 E1.01462
G1 X164.549 Y115.336 E.01677
G1 X141.164 Y91.951 E1.03832
G1 X140.63 Y91.951 E.01677
G1 X164.549 Y115.87 E1.06203
G1 X164.549 Y116.404 E.01677
M73 P1 R135
M73 Q1 S136
G1 X140.096 Y91.951 E1.08574
G1 X139.562 Y91.951 E.01677
G1 X164.549 Y116.938 E1.10945
G1 X164.549 Y117.472 E.01677
G1 X139.028 Y91.951 E1.13316
G1 X138.494 Y91.951 E.01677
G1 X164.549 Y118.006 E1.15687
G1 X164.549 Y118.54 E.01677
G1 X137.96 Y91.951 E1.18058
G1 X137.426 Y91.951 E.01677
G1 X164.549 Y119.074 E1.20429
G1 X164.549 Y119.43 E.01117
G1 X164.371 Y119.43 E.00559
G1 X136.892 Y91.951 E1.22009
G1 X136.358 Y91.951 E.01677
G1 X163.837 Y119.43 E1.22009
G1 X163.303 Y119.43 E.01677
G1 X135.824 Y91.951 E1.22009
G1 X135.29 Y91.951 E.01677
G1 X162.769 Y119.43 E1.22009
G1 X162.235 Y119.43 E.01677
G1 X134.756 Y91.951 E1.22009
G1 X134.222 Y91.951 E.01677
G1 X161.701 Y119.43 E1.22009
G1 X161.167 Y119.43 E.01677
G1 X133.688 Y91.951 E1.22009
G1 X133.154 Y91.951 E.01677
G1 X160.633 Y119.43 E1.22009
G1 X160.099 Y119.43 E.01677
G1 X132.62 Y91.951 E1.22009
G1 X132.086 Y91.951 E.01677
G1 X159.565 Y119.43 E1.22009
G1 X159.031 Y119.43 E.01677
G1 X131.552 Y91.951 E1.22009
G1 X131.018 Y91.951 E.01677
G1 X158.497 Y119.43 E1.22009
G1 X157.963 Y119.43 E.01677
G1 X130.484 Y91.951 E1.22009
G1 X129.95 Y91.951 E.01677
G1 X157.429 Y119.43 E1.22009
G1 X156.895 Y119.43 E.01677
G1 X129.416 Y91.951 E1.22009
G1 X128.882 Y91.951 E.01677
G1 X156.361 Y119.43 E1.22009
G1 X155.827 Y119.43 E.01677
G1 X128.348 Y91.951 E1.22009
G1 X127.814 Y91.951 E.01677
G1 X155.293 Y119.43 E1.22009
G1 X154.759 Y119.43 E.01677
G1 X127.28 Y91.951 E1.22009
G1 X126.746 Y91.951 E.01677
G1 X154.225 Y119.43 E1.22009
G1 X153.691 Y119.43 E.01677
M73 P1 R134
G1 X126.212 Y91.951 E1.22009
G1 X125.678 Y91.951 E.01677
G1 X153.157 Y119.43 E1.22009
G1 X152.623 Y119.43 E.01677
G1 X125.144 Y91.951 E1.22009
G1 X124.61 Y91.951 E.01676
G1 X152.089 Y119.43 E1.22009
G1 X151.555 Y119.43 E.01677
G1 X124.076 Y91.951 E1.22009
G1 X123.542 Y91.951 E.01677
M73 Q1 S135
G1 X151.021 Y119.43 E1.22009
G1 X150.487 Y119.43 E.01677
G1 X123.008 Y91.951 E1.22009
G1 X122.474 Y91.951 E.01677
G1 X149.953 Y119.43 E1.22009
G1 X149.419 Y119.43 E.01677
G1 X121.94 Y91.951 E1.22009
G1 X121.406 Y91.951 E.01677
G1 X148.885 Y119.43 E1.22009
G1 X148.351 Y119.43 E.01677
G1 X120.872 Y91.951 E1.22009
G1 X120.338 Y91.951 E.01677
G1 X147.817 Y119.43 E1.22009
G1 X147.283 Y119.43 E.01677
G1 X119.804 Y91.951 E1.22009
G1 X119.27 Y91.951 E.01677
G1 X146.749 Y119.43 E1.22009
G1 X146.215 Y119.43 E.01677
G1 X118.736 Y91.951 E1.22009
G1 X118.202 Y91.951 E.01677
G1 X145.681 Y119.43 E1.22009
G1 X145.147 Y119.43 E.01677
M73 P2 R134
G1 X117.668 Y91.951 E1.22009
G1 X117.134 Y91.951 E.01677
M73 Q2 S135
G1 X144.613 Y119.43 E1.22009
G1 X144.079 Y119.43 E.01677
G1 X116.6 Y91.951 E1.22009
G1 X116.066 Y91.951 E.01677
G1 X143.545 Y119.43 E1.22009
G1 X143.011 Y119.43 E.01677
G1 X115.532 Y91.951 E1.22009
G1 X114.998 Y91.951 E.01677
G1 X142.477 Y119.43 E1.22009
G1 X141.943 Y119.43 E.01677
G1 X114.464 Y91.951 E1.22009
G1 X113.93 Y91.951 E.01677
G1 X141.409 Y119.43 E1.22009
G1 X140.875 Y119.43 E.01677
G1 X113.396 Y91.951 E1.22009
G1 X112.862 Y91.951 E.01677
G1 X140.341 Y119.43 E1.22009
G1 X139.807 Y119.43 E.01677
G1 X112.328 Y91.951 E1.22009
G1 X111.794 Y91.951 E.01677
G1 X139.273 Y119.43 E1.22009
G1 X138.739 Y119.43 E.01677
G1 X111.261 Y91.951 E1.22009
G1 X110.727 Y91.951 E.01677
G1 X138.205 Y119.43 E1.22009
G1 X137.671 Y119.43 E.01677
M73 P2 R133
G1 X110.193 Y91.951 E1.22009
G1 X109.659 Y91.951 E.01677
G1 X137.137 Y119.43 E1.22009
G1 X136.603 Y119.43 E.01677
G1 X109.125 Y91.951 E1.22009
G1 X108.591 Y91.951 E.01677
G1 X136.07 Y119.43 E1.22009
G1 X135.536 Y119.43 E.01677
G1 X108.057 Y91.951 E1.22009
G1 X107.523 Y91.951 E.01677
M73 Q2 S134
G1 X135.002 Y119.43 E1.22009
G1 X134.468 Y119.43 E.01677
G1 X106.989 Y91.951 E1.22009
G1 X106.455 Y91.951 E.01677
G1 X133.934 Y119.43 E1.22009
G1 X133.4 Y119.43 E.01677
G1 X105.921 Y91.951 E1.22009
G1 X105.387 Y91.951 E.01677
G1 X132.866 Y119.43 E1.22009
G1 X132.332 Y119.43 E.01677
G1 X104.853 Y91.951 E1.22009
G1 X104.319 Y91.951 E.01677
G1 X131.798 Y119.43 E1.22009
G1 X131.264 Y119.43 E.01677
G1 X103.785 Y91.951 E1.22009
G1 X103.251 Y91.951 E.01677
G1 X130.73 Y119.43 E1.22009
G1 X130.196 Y119.43 E.01677
G1 X102.717 Y91.951 E1.22009
G1 X102.183 Y91.951 E.01677
G1 X129.662 Y119.43 E1.22009
G1 X129.128 Y119.43 E.01677
G1 X101.649 Y91.951 E1.22009
G1 X101.115 Y91.951 E.01677
G1 X128.594 Y119.43 E1.22009
G1 X128.06 Y119.43 E.01677
G1 X100.581 Y91.951 E1.22009
G1 X100.047 Y91.951 E.01677
G1 X127.526 Y119.43 E1.22009
G1 X126.992 Y119.43 E.01677
G1 X99.513 Y91.951 E1.22009
G1 X98.979 Y91.951 E.01677
G1 X126.458 Y119.43 E1.22009
G1 X125.924 Y119.43 E.01677
G1 X98.445 Y91.951 E1.22009
G1 X97.911 Y91.951 E.01677
G1 X125.39 Y119.43 E1.22009
G1 X124.856 Y119.43 E.01676
G1 X97.377 Y91.951 E1.22009
G1 X96.843 Y91.951 E.01677
G1 X124.322 Y119.43 E1.22009
G1 X123.788 Y119.43 E.01677
G1 X96.309 Y91.951 E1.22009
G1 X95.775 Y91.951 E.01677
G1 X123.254 Y119.43 E1.22009
G1 X122.72 Y119.43 E.01677
M73 P3 R133
G1 X95.241 Y91.951 E1.22009
G1 X94.707 Y91.951 E.01677
M73 Q3 S134
G1 X122.186 Y119.43 E1.22009
G1 X121.652 Y119.43 E.01677
G1 X94.173 Y91.951 E1.22009
G1 X93.639 Y91.951 E.01677
M73 P3 R132
G1 X121.118 Y119.43 E1.22009
G1 X120.584 Y119.43 E.01677
G1 X93.105 Y91.951 E1.22009
G1 X92.571 Y91.951 E.01677
G1 X120.05 Y119.43 E1.22009
G1 X119.516 Y119.43 E.01677
G1 X92.037 Y91.951 E1.22009
G1 X91.503 Y91.951 E.01677
M73 Q3 S133
G1 X118.982 Y119.43 E1.22009
G1 X118.448 Y119.43 E.01677
G1 X90.969 Y91.951 E1.22009
G1 X90.435 Y91.951 E.01677
G1 X117.914 Y119.43 E1.22009
G1 X117.38 Y119.43 E.01677
G1 X89.901 Y91.951 E1.22009
G1 X89.367 Y91.951 E.01677
G1 X116.846 Y119.43 E1.22009
G1 X116.312 Y119.43 E.01677
G1 X88.833 Y91.951 E1.22009
G1 X88.299 Y91.951 E.01677
G1 X115.778 Y119.43 E1.22009
G1 X115.244 Y119.43 E.01677
G1 X87.765 Y91.951 E1.22009
G1 X87.231 Y91.951 E.01677
G1 X114.71 Y119.43 E1.22009
G1 X114.176 Y119.43 E.01677
G1 X86.697 Y91.951 E1.22009
G1 X86.163 Y91.951 E.01677
G1 X113.642 Y119.43 E1.22009
G1 X113.108 Y119.43 E.01677
G1 X85.629 Y91.951 E1.22009
G1 X85.451 Y91.951 E.00559
G1 X85.451 Y92.307 E.01117
G1 X112.574 Y119.43 E1.20429
G1 X112.04 Y119.43 E.01677
G1 X85.451 Y92.841 E1.18058
G1 X85.451 Y93.375 E.01677
G1 X111.506 Y119.43 E1.15687
G1 X110.972 Y119.43 E.01677
G1 X85.451 Y93.909 E1.13316
G1 X85.451 Y94.443 E.01677
G1 X110.438 Y119.43 E1.10945
G1 X109.904 Y119.43 E.01677
G1 X85.451 Y94.977 E1.08574
G1 X85.451 Y95.511 E.01677
G1 X109.37 Y119.43 E1.06203
G1 X108.836 Y119.43 E.01677
G1 X85.451 Y96.045 E1.03832
G1 X85.451 Y96.579 E.01677
G1 X108.302 Y119.43 E1.01461
G1 X107.768 Y119.43 E.01677
G1 X85.451 Y97.113 E.9909
G1 X85.451 Y97.647 E.01677
G1 X107.234 Y119.43 E.96719
G1 X106.7 Y119.43 E.01677
G1 X85.451 Y98.181 E.94348
G1 X85.451 Y98.715 E.01677
G1 X106.166 Y119.43 E.91978
G1 X105.632 Y119.43 E.01677
G1 X85.451 Y99.249 E.89607
G1 X85.451 Y99.783 E.01677
G1 X105.098 Y119.43 E.87236
G1 X104.565 Y119.43 E.01677
G1 X85.451 Y100.317 E.84865
G1 X85.451 Y100.851 E.01677
M73 P3 R131
G1 X104.031 Y119.43 E.82494
G1 X103.497 Y119.43 E.01677
G1 X85.451 Y101.385 E.80123
G1 X85.451 Y101.919 E.01677
G1 X102.963 Y119.43 E.77752
G1 X102.429 Y119.43 E.01677
G1 X85.451 Y102.453 E.75381
G1 X85.451 Y102.987 E.01677
G1 X101.895 Y119.43 E.7301
G1 X101.361 Y119.43 E.01677
G1 X85.451 Y103.521 E.70639
G1 X85.451 Y104.055 E.01677
G1 X100.827 Y119.43 E.68268
G1 X100.293 Y119.43 E.01677
G1 X85.451 Y104.589 E.65897
G1 X85.451 Y105.123 E.01677
M73 Q3 S132
G1 X99.759 Y119.43 E.63526
G1 X99.225 Y119.43 E.01677
G1 X85.451 Y105.657 E.61155
G1 X85.451 Y106.191 E.01677
G1 X98.691 Y119.43 E.58784
G1 X98.157 Y119.43 E.01677
G1 X85.451 Y106.725 E.56414
G1 X85.451 Y107.259 E.01677
G1 X97.623 Y119.43 E.54043
G1 X97.089 Y119.43 E.01677
G1 X85.451 Y107.793 E.51672
G1 X85.451 Y108.327 E.01677
G1 X96.555 Y119.43 E.49301
G1 X96.021 Y119.43 E.01677
G1 X85.451 Y108.861 E.4693
G1 X85.451 Y109.395 E.01677
M73 P4 R131
G1 X95.487 Y119.43 E.44559
G1 X94.953 Y119.43 E.01677
G1 X85.451 Y109.929 E.42188
G1 X85.451 Y110.462 E.01677
G1 X94.419 Y119.43 E.39817
G1 X93.885 Y119.43 E.01677
M73 Q4 S132
G1 X85.451 Y110.996 E.37446
G1 X85.451 Y111.53 E.01677
G1 X93.351 Y119.43 E.35075
G1 X92.817 Y119.43 E.01677
G1 X85.451 Y112.064 E.32704
G1 X85.451 Y112.598 E.01677
G1 X92.283 Y119.43 E.30333
G1 X91.749 Y119.43 E.01677
G1 X85.451 Y113.132 E.27962
G1 X85.451 Y113.666 E.01677
G1 X91.215 Y119.43 E.25591
G1 X90.681 Y119.43 E.01677
G1 X85.451 Y114.2 E.23221
G1 X85.451 Y114.734 E.01677
G1 X90.147 Y119.43 E.2085
G1 X89.613 Y119.43 E.01677
G1 X85.451 Y115.268 E.18479
G1 X85.451 Y115.802 E.01677
G1 X89.079 Y119.43 E.16108
G1 X88.545 Y119.43 E.01677
G1 X85.451 Y116.336 E.13737
G1 X85.451 Y116.87 E.01677
G1 X88.011 Y119.43 E.11366
G1 X87.477 Y119.43 E.01677
G1 X85.451 Y117.404 E.08995
G1 X85.451 Y117.938 E.01677
G1 X86.943 Y119.43 E.06624
G1 X86.409 Y119.43 E.01677
G1 X85.451 Y118.472 E.04253
G1 X85.451 Y119.006 E.01677
G1 X86.045 Y119.6 E.02636
M106 S255
;LAYER_CHANGE
;Z:0.4
;HEIGHT:0.2
;BEFORE_LAYER_CHANGE
G92 E0.0
;0.4


;WIPE_START
G1 F8640
G1 X85.451 Y119.006 E-.19383
G1 X85.451 Y118.472 E-.1233
G1 X86.409 Y119.43 E-.31279
G1 X86.943 Y119.43 E-.1233
G1 X86.922 Y119.409 E-.00678
;WIPE_END
G1 E-.04 F2100
G1 Z.8 F10800
;AFTER_LAYER_CHANGE
;0.4
M104 S210 ; set temperature
G1 X86.922 Y122.877
G1 Z.4
G1 E.8 F2100
;TYPE:Skirt/Brim
;WIDTH:0.42
G1 F3000
G1 X83.679 Y122.877 E.10168
G1 X82.372 Y122.485 E.04278
G1 X81.496 Y121.44 E.04278
G1 X81.302 Y120.5 E.03008
G1 X81.312 Y91.21 E.91837
G1 X81.537 Y90.217 E.03191
G1 X81.939 Y89.432 E.02766
G1 X82.565 Y88.722 E.0297
G1 X83.552 Y88.1 E.03656
G1 X84.134 Y87.908 E.01923
G1 X85 Y87.802 E.02735
G1 X165.015 Y87.802 E2.50882
G1 X165.801 Y87.892 E.0248
G1 X166.393 Y88.08 E.01948
G1 X166.984 Y88.383 E.0208
G1 X167.568 Y88.84 E.02327
G1 X168.055 Y89.422 E.02378
G1 X168.377 Y90.001 E.02078
G1 X168.592 Y90.634 E.02098
G1 X168.69 Y91.312 E.02146
G1 X168.698 Y120.5 E.91518
G1 X168.306 Y121.807 E.04278
G1 X167.26 Y122.683 E.04278
G1 X166.321 Y122.877 E.03008
G1 X86.982 Y122.877 E2.4876
;WIPE_START
G1 F8640
G1 X83.691 Y122.877 E-.76
;WIPE_END
G1 E-.04 F2100
G1 Z1 F10800
G1 X86.582 Y119.868
G1 Z.4
G1 E.8 F2100
M204 S800
;TYPE:Perimeter
;WIDTH:0.45
