; generated by PrusaSlicer 2.3.0+win64 on 2021-02-15 at 19:03:58 UTC

; 

; external perimeters extrusion width = 0.45mm
; perimeters extrusion width = 0.45mm
; infill extrusion width = 0.45mm
; solid infill extrusion width = 0.45mm
; top infill extrusion width = 0.40mm
; support material extrusion width = 0.35mm
; first layer extrusion width = 0.42mm

M73 P0 R177
M73 Q0 S177
M201 X1000 Y1000 Z200 E5000 ; sets maximum accelerations, mm/sec^2
M203 X200 Y200 Z12 E120 ; sets maximum feedrates, mm/sec
M204 P1250 R1250 T1250 ; sets acceleration (P, T) and retract acceleration (R), mm/sec^2
M205 X8.00 Y8.00 Z0.40 E4.50 ; sets the jerk limits, mm/sec
M205 S0 T0 ; sets the minimum extruding and travel feed rate, mm/sec
M107
;TYPE:Custom
M862.3 P "MK3S" ; printer model check
M862.1 P0.4 ; nozzle diameter check
M115 U3.9.1 ; tell printer latest fw version
G90 ; use absolute coordinates
M83 ; extruder relative mode
M104 S215 ; set extruder temp
M140 S60 ; set bed temp
M190 S60 ; wait for bed temp
M109 S215 ; wait for extruder temp
G28 W ; home all without mesh bed level
G80 ; mesh bed leveling
G1 Y-3.0 F1000.0 ; go outside print area
G92 E0.0
G1 X60.0 E9.0 F1000.0 ; intro line
G1 X100.0 E12.5 F1000.0 ; intro line
G92 E0.0
M221 S95

; Don't change E values below. Excessive value can damage the printer.
M907 E430 ; set extruder motor current
G21 ; set units to millimeters
G90 ; use absolute coordinates
M83 ; use relative distances for extrusion
M900 K0.05 ; Filament gcode LA 1.5
M900 K30 ; Filament gcode LA 1.0
;LAYER_CHANGE
;Z:0.2
;HEIGHT:0.2
;BEFORE_LAYER_CHANGE
G92 E0.0
;0.2


G1 E-0.80000 F2100.000
G1 Z0.600 F10800.000
;AFTER_LAYER_CHANGE
;0.2
G1 X47.763 Y14.197
G1 Z0.200
G1 E0.80000 F2100.000
M204 S1000
;TYPE:Skirt
;WIDTH:0.42
G1 F1200.000
G1 X48.163 Y13.492 E0.02543
G1 X48.535 Y13.128 E0.01633
G1 X48.978 Y12.854 E0.01633
G1 X49.470 Y12.683 E0.01633
G1 X49.987 Y12.623 E0.01633
G1 X200.004 Y12.623 E4.70366
G1 X200.906 Y12.802 E0.02884
G1 X201.675 Y13.313 E0.02896
G1 X202.190 Y14.076 E0.02884
G1 X202.377 Y14.976 E0.02884
G1 X202.377 Y195.008 E5.64476
M73 P0 R176
G1 X202.237 Y195.803 E0.02532
G1 X201.837 Y196.508 E0.02543
G1 X201.462 Y196.875 E0.01645
G1 X201.018 Y197.148 E0.01633
G1 X200.526 Y197.318 E0.01633
G1 X200.005 Y197.377 E0.01645
G1 X49.992 Y197.377 E4.70354
G1 X49.197 Y197.237 E0.02532
G1 X48.492 Y196.837 E0.02543
G1 X48.125 Y196.462 E0.01645
G1 X47.852 Y196.018 E0.01633
G1 X47.682 Y195.526 E0.01633
G1 X47.623 Y195.005 E0.01645
G1 X47.623 Y14.992 E5.64417
M73 Q0 S176
G1 X47.752 Y14.256 E0.02343
;WIPE_START
G1 F8640.000
G1 X48.163 Y13.492 E-0.20040
G1 X48.535 Y13.128 E-0.12025
G1 X48.978 Y12.854 E-0.12025
G1 X49.470 Y12.683 E-0.12025
G1 X49.987 Y12.623 E-0.12025
G1 X50.328 Y12.623 E-0.07860
;WIPE_END
G1 E-0.04000 F2100.000
G1 Z0.800 F10800.000
G1 X108.430 Y70.008
G1 Z0.200
G1 E0.80000 F2100.000
;TYPE:Support material interface
;WIDTH:0.35
G1 F1200.000
G1 X108.430 Y80.639 E0.27144
;WIPE_START
G1 F8640.000
G1 X108.430 Y77.348 E-0.76000
;WIPE_END
G1 E-0.04000 F2100.000
G1 Z0.800 F10800.000
G1 X108.948 Y83.655
G1 Z0.200
G1 E0.80000 F2100.000
G1 F1200.000
G1 X108.948 Y71.041 E0.32209
G1 X109.466 Y71.973 E0.02722
G1 X109.466 Y84.330 E0.31552
G1 X109.957 Y86.011 E0.04471
G1 X109.663 Y86.168 E0.00851
G1 X109.800 Y86.830 E0.01728
G1 X109.984 Y87.382 E0.01484
G1 X109.984 Y72.572 E0.37816
G1 X110.215 Y72.649 E0.00623
G1 X110.501 Y72.646 E0.00731
G1 X110.501 Y88.804 E0.41257
G1 X110.879 Y89.623 E0.02303
G1 X111.019 Y89.835 E0.00649
G1 X111.019 Y72.341 E0.44671
G1 X111.124 Y72.152 E0.00551
G1 X111.183 Y71.978 E0.00470
G1 X111.280 Y71.242 E0.01895
G1 X111.322 Y69.600 E0.04193
G1 X111.469 Y69.423 E0.00589
G1 X111.537 Y69.273 E0.00420
G1 X111.537 Y90.623 E0.54513
G1 X112.055 Y91.113 E0.01820
G1 X112.055 Y67.910 E0.59245
G1 X112.573 Y66.056 E0.04915
G1 X112.573 Y91.608 E0.65243
G1 X113.090 Y92.103 E0.01829
G1 X113.090 Y64.202 E0.71241
G1 X113.598 Y62.386 E0.04815
G1 X113.574 Y61.739 E0.01652
G1 X113.608 Y61.511 E0.00589
G1 X113.608 Y92.640 E0.79485
G1 X114.126 Y93.181 E0.01912
G1 X114.126 Y61.022 E0.82114
G1 X114.644 Y60.032 E0.02853
G1 X114.644 Y93.722 E0.86024
G1 X115.162 Y94.263 E0.01912
G1 X115.162 Y59.042 E0.89934
G1 X115.679 Y58.051 E0.02853
G1 X115.679 Y94.817 E0.93877
G1 X116.197 Y95.373 E0.01939
G1 X116.197 Y57.061 E0.97825
G1 X116.281 Y56.902 E0.00459
G1 X116.715 Y56.938 E0.01113
G1 X116.715 Y95.952 E0.99617
G1 X117.233 Y96.585 E0.02089
G1 X117.233 Y56.982 E1.01122
G1 X117.751 Y57.026 E0.01327
G1 X117.751 Y97.260 E1.02733
G1 X118.268 Y98.016 E0.02340
G1 X118.268 Y57.070 E1.04551
G1 X118.786 Y57.113 E0.01327
G1 X118.786 Y98.772 E1.06370
G1 X119.304 Y99.528 E0.02340
G1 X119.304 Y57.157 E1.08189
G1 X119.822 Y57.201 E0.01327
G1 X119.822 Y100.454 E1.10443
G1 X120.340 Y101.383 E0.02716
G1 X120.340 Y57.244 E1.12704
M73 P0 R175
G1 X120.858 Y57.288 E0.01327
G1 X120.858 Y102.350 E1.15059
G1 X121.375 Y103.487 E0.03190
G1 X121.375 Y57.332 E1.17850
G1 X121.893 Y57.375 E0.01327
G1 X121.893 Y104.623 E1.20642
G1 X122.134 Y105.157 E0.01494
G1 X122.411 Y106.047 E0.02381
G1 X122.411 Y57.419 E1.24165
G1 X122.929 Y57.463 E0.01327
G1 X122.929 Y107.857 E1.28674
G1 X123.263 Y109.042 E0.03146
G1 X123.447 Y109.782 E0.01945
G1 X123.447 Y57.507 E1.33478
G1 X123.964 Y57.550 E0.01327
G1 X123.964 Y111.848 E1.38644
G1 X124.057 Y112.210 E0.00954
G1 X124.267 Y112.246 E0.00543
G1 X124.482 Y112.330 E0.00589
G1 X124.482 Y57.594 E1.39761
M73 Q0 S175
G1 X125.000 Y57.638 E0.01327
G1 X125.000 Y112.770 E1.40772
G1 X125.518 Y113.397 E0.02076
G1 X125.518 Y57.681 E1.42262
G1 X126.036 Y57.725 E0.01327
G1 X126.036 Y114.138 E1.44044
M73 P1 R175
M73 Q1 S175
G1 X126.553 Y115.078 E0.02741
G1 X126.553 Y57.769 E1.46333
G1 X127.071 Y57.813 E0.01327
G1 X127.071 Y116.130 E1.48906
G1 X127.589 Y117.378 E0.03450
G1 X127.589 Y57.856 E1.51981
G1 X128.107 Y57.900 E0.01327
G1 X128.107 Y118.767 E1.55416
G1 X128.280 Y119.254 E0.01320
G1 X128.625 Y120.438 E0.03149
G1 X128.625 Y57.944 E1.59571
G1 X129.142 Y57.987 E0.01327
G1 X129.142 Y122.922 E1.65801
G1 X129.208 Y123.272 E0.00910
G1 X129.509 Y123.341 E0.00789
G1 X129.660 Y124.091 E0.01954
G1 X129.660 Y58.031 E1.68675
G1 X130.178 Y58.075 E0.01327
G1 X130.178 Y184.973 E3.24018
G1 X130.696 Y185.157 E0.01404
G1 X130.696 Y58.119 E3.24378
M73 P1 R174
G1 X131.214 Y58.162 E0.01327
G1 X131.214 Y185.342 E3.24739
G1 X131.732 Y185.527 E0.01404
G1 X131.732 Y58.206 E3.25099
G1 X132.249 Y58.250 E0.01327
G1 X132.249 Y185.712 E3.25459
M73 Q1 S174
G1 X132.767 Y185.897 E0.01404
G1 X132.767 Y58.293 E3.25820
G1 X133.285 Y58.337 E0.01327
G1 X133.285 Y186.082 E3.26180
G1 X133.803 Y186.267 E0.01404
G1 X133.803 Y58.381 E3.26541
G1 X134.321 Y58.425 E0.01327
G1 X134.321 Y186.451 E3.26901
G1 X134.838 Y186.636 E0.01404
G1 X134.838 Y58.468 E3.27261
G1 X135.356 Y58.512 E0.01327
G1 X135.356 Y186.821 E3.27622
M73 P1 R173
G1 X135.874 Y187.006 E0.01404
G1 X135.874 Y58.556 E3.27982
G1 X136.018 Y58.568 E0.00369
G1 X136.392 Y58.802 E0.01127
G1 X136.392 Y187.191 E3.27824
M73 P2 R173
M73 Q2 S174
G1 X136.910 Y187.376 E0.01404
G1 X136.910 Y59.127 E3.27466
M73 Q2 S173
G1 X137.427 Y59.452 E0.01561
G1 X137.427 Y187.561 E3.27108
G1 X137.508 Y187.589 E0.00219
G1 X137.945 Y187.416 E0.01201
G1 X137.945 Y59.777 E3.25910
G1 X138.463 Y60.102 E0.01561
G1 X138.463 Y187.211 E3.24556
G1 X138.981 Y187.006 E0.01422
G1 X138.981 Y60.427 E3.23202
G1 X139.499 Y60.752 E0.01561
G1 X139.499 Y186.800 E3.21849
G1 X140.016 Y186.595 E0.01422
G1 X140.016 Y61.077 E3.20495
G1 X140.534 Y61.402 E0.01561
G1 X140.534 Y186.390 E3.19141
M73 P2 R172
G1 X141.052 Y186.185 E0.01422
G1 X141.052 Y61.727 E3.17788
G1 X141.570 Y62.052 E0.01561
G1 X141.570 Y185.980 E3.16434
G1 X142.088 Y185.774 E0.01422
G1 X142.088 Y62.377 E3.15080
M73 Q2 S172
G1 X142.236 Y62.470 E0.00447
G1 X142.536 Y62.407 E0.00781
G1 X142.606 Y62.504 E0.00304
G1 X142.605 Y185.569 E3.14233
G1 X143.123 Y185.364 E0.01422
G1 X143.123 Y62.587 E3.13495
G1 X143.641 Y62.587 E0.01322
G1 X143.641 Y185.159 E3.12971
G1 X144.159 Y184.953 E0.01422
G1 X144.159 Y62.587 E3.12447
G1 X144.677 Y62.587 E0.01322
G1 X144.677 Y184.748 E3.11923
G1 X145.195 Y184.543 E0.01422
G1 X145.195 Y62.587 E3.11399
M73 P3 R171
M73 Q3 S172
G1 X145.712 Y62.587 E0.01322
G1 X145.712 Y184.338 E3.10875
G1 X146.230 Y184.133 E0.01422
G1 X146.230 Y62.587 E3.10351
G1 X146.429 Y62.472 E0.00588
G1 X146.473 Y62.383 E0.00251
G1 X146.586 Y62.997 E0.01592
G1 X146.748 Y64.354 E0.03491
G1 X146.748 Y183.927 E3.05316
M73 Q3 S171
G1 X147.266 Y183.722 E0.01422
G1 X147.266 Y68.131 E2.95147
G1 X147.717 Y70.401 E0.05907
G1 X147.784 Y70.921 E0.01339
G1 X147.784 Y183.517 E2.87500
G1 X148.301 Y183.312 E0.01422
G1 X148.301 Y72.785 E2.82216
G1 X148.819 Y72.972 E0.01406
G1 X148.819 Y183.260 E2.81607
;WIPE_START
G1 F8640.000
G1 X148.819 Y179.969 E-0.76000
;WIPE_END
G1 E-0.04000 F2100.000
G1 Z0.800 F10800.000
G1 X150.373 Y182.645
G1 Z0.200
G1 E0.80000 F2100.000
G1 F1200.000
G1 X150.373 Y92.225 E2.30875
G1 X149.855 Y91.255 E0.02809
G1 X149.855 Y182.696 E2.33485
G1 X149.337 Y182.901 E0.01422
G1 X149.337 Y73.159 E2.80213
G1 X149.855 Y73.346 E0.01406
G1 X149.855 Y87.542 E0.36246
G1 X150.163 Y83.860 E0.09434
G1 X150.182 Y82.384 E0.03770
G1 X150.373 Y80.940 E0.03719
G1 X150.373 Y73.534 E0.18911
G1 X150.890 Y73.721 E0.01406
G1 X150.890 Y78.114 E0.11217
;WIPE_START
G1 F8640.000
G1 X150.890 Y74.822 E-0.76000
;WIPE_END
G1 E-0.04000 F2100.000
G1 Z0.800 F10800.000
G1 X150.890 Y94.091
G1 Z0.200
G1 E0.80000 F2100.000
G1 F1200.000
G1 X150.890 Y182.286 E2.25195
M73 P3 R170
G1 X151.408 Y182.080 E0.01422
G1 X151.408 Y95.605 E2.20805
G1 X151.926 Y96.767 E0.03249
G1 X151.926 Y181.875 E2.17313
G1 X152.444 Y181.670 E0.01422
G1 X152.444 Y97.930 E2.13821
G1 X152.609 Y97.900 E0.00428
G1 X152.962 Y98.843 E0.02572
G1 X152.962 Y181.465 E2.10964
M73 Q3 S170
G1 X153.479 Y181.260 E0.01422
G1 X153.479 Y100.313 E2.06686
G1 X153.628 Y100.735 E0.01142
G1 X153.997 Y101.940 E0.03216
G1 X153.997 Y181.054 E2.02010
G1 X154.515 Y180.849 E0.01422
G1 X154.515 Y104.325 E1.95395
G1 X154.770 Y105.655 E0.03457
G1 X154.992 Y107.325 E0.04302
G1 X155.033 Y107.883 E0.01429
G1 X155.033 Y180.644 E1.85786
G1 X155.551 Y180.439 E0.01422
G1 X155.551 Y115.646 E1.65441
G1 X155.586 Y115.883 E0.00613
G1 X155.769 Y116.064 E0.00658
G1 X156.069 Y116.103 E0.00771
G1 X156.069 Y180.234 E1.63749
G1 X156.586 Y180.028 E0.01422
G1 X156.586 Y116.156 E1.63089
M73 P4 R170
M73 Q4 S170
G1 X156.713 Y116.117 E0.00338
G1 X157.104 Y115.770 E0.01337
G1 X157.104 Y179.977 E1.63946
;WIPE_START
G1 F8640.000
G1 X157.104 Y176.686 E-0.76000
;WIPE_END
G1 E-0.04000 F2100.000
G1 Z0.800 F10800.000
G1 X129.660 Y184.940
G1 Z0.200
G1 E0.80000 F2100.000
G1 F1200.000
G1 X129.660 Y141.661 E1.10507
G1 X129.449 Y142.017 E0.01058
G1 X129.142 Y142.777 E0.02091
G1 X129.142 Y184.603 E1.06798
G1 X128.625 Y184.418 E0.01404
G1 X128.625 Y144.010 E1.03177
G1 X128.450 Y144.328 E0.00925
G1 X128.107 Y144.802 E0.01495
G1 X128.107 Y184.233 E1.00684
G1 X127.589 Y184.048 E0.01404
G1 X127.589 Y145.293 E0.98958
M73 P4 R169
G1 X127.254 Y145.523 E0.01038
G1 X127.071 Y145.582 E0.00491
G1 X127.071 Y183.864 E0.97746
G1 X126.553 Y183.679 E0.01404
G1 X126.553 Y145.715 E0.96935
G1 X126.036 Y145.818 E0.01348
G1 X126.036 Y183.494 E0.96202
G1 X125.518 Y183.309 E0.01404
G1 X125.518 Y145.911 E0.95491
G1 X125.241 Y145.961 E0.00719
G1 X125.000 Y145.978 E0.00616
G1 X125.000 Y183.124 E0.94849
G1 X124.482 Y182.939 E0.01404
G1 X124.482 Y146.010 E0.94294
G1 X123.964 Y146.043 E0.01325
G1 X123.964 Y182.754 E0.93738
G1 X123.447 Y182.570 E0.01404
G1 X123.447 Y146.019 E0.93327
G1 X122.929 Y145.972 E0.01328
G1 X122.929 Y182.385 E0.92975
G1 X122.411 Y182.200 E0.01404
G1 X122.411 Y145.925 E0.92624
M73 Q4 S169
G1 X121.893 Y145.806 E0.01357
G1 X121.893 Y182.015 E0.92456
G1 X121.375 Y181.830 E0.01404
G1 X121.375 Y145.675 E0.92319
G1 X120.858 Y145.543 E0.01364
G1 X120.858 Y181.645 E0.92182
G1 X120.340 Y181.461 E0.01404
G1 X120.340 Y145.412 E0.92045
G1 X119.822 Y145.255 E0.01382
G1 X119.822 Y181.276 E0.91975
G1 X119.304 Y181.091 E0.01404
G1 X119.304 Y145.236 E0.91550
G1 X118.786 Y145.240 E0.01322
G1 X118.786 Y180.906 E0.91070
G1 X118.268 Y180.721 E0.01404
G1 X118.268 Y145.243 E0.90590
G1 X117.751 Y145.247 E0.01322
G1 X117.751 Y180.536 E0.90107
G1 X117.233 Y180.351 E0.01404
G1 X117.233 Y145.252 E0.89623
G1 X116.715 Y145.266 E0.01323
G1 X116.715 Y180.167 E0.89115
G1 X116.545 Y180.106 E0.00462
G1 X116.197 Y179.310 E0.02216
G1 X116.197 Y145.314 E0.86805
G1 X116.043 Y145.371 E0.00421
G1 X115.954 Y145.382 E0.00227
G1 X115.679 Y145.352 E0.00706
G1 X115.679 Y178.125 E0.83682
G1 X115.162 Y176.939 E0.03304
G1 X115.162 Y145.295 E0.80799
G1 X114.644 Y145.239 E0.01330
G1 X114.644 Y175.753 E0.77916
G1 X114.126 Y174.568 E0.03304
G1 X114.126 Y145.182 E0.75032
G1 X114.005 Y145.169 E0.00310
G1 X113.608 Y145.985 E0.02317
G1 X113.608 Y173.382 E0.69955
G1 X113.090 Y172.196 E0.03304
G1 X113.090 Y147.048 E0.64213
G1 X112.573 Y148.112 E0.03020
G1 X112.573 Y171.011 E0.58470
G1 X112.055 Y169.825 E0.03304
G1 X112.055 Y149.175 E0.52728
G1 X111.537 Y150.238 E0.03020
G1 X111.537 Y168.997 E0.47898
;WIPE_START
G1 F8640.000
G1 X111.537 Y165.705 E-0.76000
;WIPE_END
G1 E-0.04000 F2100.000
G1 Z0.800 F10800.000
G1 X122.738 Y144.210
G1 Z0.200
G1 E0.80000 F2100.000
;TYPE:Support material
;WIDTH:0.42
G1 F1200.000
G1 X122.738 Y143.469 E0.02322
G1 X123.492 Y143.311 E0.02416
G1 X123.492 Y144.123 E0.02546
G1 X124.246 Y144.105 E0.02365
G1 X124.246 Y143.154 E0.02981
G1 X125.000 Y142.996 E0.02416
G1 X125.000 Y144.086 E0.03417
G1 X125.597 Y144.071 E0.01873
G1 X125.754 Y144.037 E0.00504
G1 X125.754 Y142.838 E0.03758
G1 X126.508 Y142.680 E0.02416
G1 X126.508 Y143.964 E0.04025
;WIPE_START
G1 F8640.000
G1 X126.508 Y142.680 E-0.29645
G1 X125.754 Y142.838 E-0.17791
G1 X125.754 Y144.037 E-0.27676
G1 X125.717 Y144.045 E-0.00888
;WIPE_END
G1 E-0.04000 F2100.000
G1 Z0.800 F10800.000
G1 X127.262 Y138.858
G1 Z0.200
G1 E0.80000 F2100.000
G1 F1200.000
G1 X127.262 Y135.829 E0.09498
G1 X127.327 Y132.178 E0.11447
G1 X128.017 Y132.186 E0.02162
G1 X128.017 Y138.880 E0.20990
;WIPE_START
G1 F8640.000
G1 X128.017 Y135.589 E-0.76000
;WIPE_END
G1 E-0.04000 F2100.000
G1 Z0.800 F10800.000
G1 X121.983 Y112.802
G1 Z0.200
G1 E0.80000 F2100.000
G1 F1200.000
G1 X121.983 Y111.543 E0.03949
G1 X121.229 Y108.716 E0.09173
G1 X121.229 Y112.823 E0.12877
G1 X121.208 Y112.829 E0.00068
G1 X120.475 Y110.137 E0.08745
G1 X120.475 Y106.218 E0.12289
G1 X120.361 Y105.907 E0.01040
G1 X119.721 Y106.086 E0.02084
G1 X119.721 Y108.015 E0.06048
;WIPE_START
G1 F8640.000
G1 X119.721 Y106.086 E-0.44536
G1 X120.361 Y105.907 E-0.15350
G1 X120.475 Y106.218 E-0.07657
G1 X120.475 Y106.584 E-0.08457
;WIPE_END
G1 E-0.04000 F2100.000
G1 Z0.800 F10800.000
G1 X116.704 Y100.140
G1 Z0.200
G1 E0.80000 F2100.000
G1 F1200.000
G1 X116.704 Y99.035 E0.03464
G1 X115.950 Y98.032 E0.03935
G1 X115.950 Y99.566 E0.04810
G1 X115.196 Y98.722 E0.03549
G1 X115.196 Y97.135 E0.04974
G1 X114.442 Y96.261 E0.03621
G1 X114.442 Y97.878 E0.05070
G1 X113.688 Y97.034 E0.03549
G1 X113.688 Y95.468 E0.04910
G1 X112.933 Y94.675 E0.03431
M73 P4 R168
G1 X112.933 Y96.190 E0.04750
G1 X112.179 Y95.345 E0.03549
G1 X112.179 Y94.518 E0.02595
;WIPE_START
G1 F8640.000
G1 X112.179 Y95.345 E-0.19110
G1 X112.933 Y96.190 E-0.26136
G1 X112.933 Y94.858 E-0.30754
;WIPE_END
G1 E-0.04000 F2100.000
G1 Z0.800 F10800.000
G1 X161.247 Y128.412
G1 Z0.200
G1 E0.80000 F2100.000
;TYPE:Support material interface
;WIDTH:0.35
G1 F1200.000
G1 X161.247 Y125.813 E0.06636
G1 X161.212 Y124.726 E0.02778
G1 X160.927 Y122.867 E0.04802
G1 X160.729 Y122.118 E0.01978
G1 X160.729 Y130.142 E0.20487
G1 X160.211 Y131.887 E0.04649
G1 X160.211 Y120.596 E0.28832
G1 X159.988 Y120.070 E0.01458
G1 X159.693 Y119.626 E0.01361
G1 X159.693 Y133.107 E0.34423
G1 X159.175 Y134.306 E0.03334
G1 X159.175 Y118.837 E0.39496
G1 X158.658 Y117.955 E0.02612
G1 X158.658 Y135.434 E0.44632
G1 X158.579 Y135.637 E0.00553
G1 X158.464 Y135.740 E0.00395
G1 X158.256 Y137.172 E0.03695
G1 X158.467 Y137.433 E0.00857
G1 X158.658 Y137.446 E0.00488
G1 X158.658 Y142.428 E0.12721
G1 X158.140 Y143.154 E0.02278
G1 X158.140 Y116.700 E0.67548
G1 X157.680 Y115.257 E0.03865
