; generated by PrusaSlicer 2.3.0+win64 on 2021-02-15 at 18:39:07 UTC

; 

; external perimeters extrusion width = 0.45mm
; perimeters extrusion width = 0.45mm
; infill extrusion width = 0.45mm
; solid infill extrusion width = 0.45mm
; top infill extrusion width = 0.40mm
; support material extrusion width = 0.35mm
; first layer extrusion width = 0.42mm

M73 P0 R161
M73 Q0 S161
M201 X1000 Y1000 Z200 E5000 ; sets maximum accelerations, mm/sec^2
M203 X200 Y200 Z12 E120 ; sets maximum feedrates, mm/sec
M204 P1250 R1250 T1250 ; sets acceleration (P, T) and retract acceleration (R), mm/sec^2
M205 X8.00 Y8.00 Z0.40 E4.50 ; sets the jerk limits, mm/sec
M205 S0 T0 ; sets the minimum extruding and travel feed rate, mm/sec
M107
;TYPE:Custom
M862.3 P "MK3S" ; printer model check
M862.1 P0.4 ; nozzle diameter check
M115 U3.9.1 ; tell printer latest fw version
G90 ; use absolute coordinates
M83 ; extruder relative mode
M104 S215 ; set extruder temp
M140 S60 ; set bed temp
M190 S60 ; wait for bed temp
M109 S215 ; wait for extruder temp
G28 W ; home all without mesh bed level
G80 ; mesh bed leveling
G1 Y-3.0 F1000.0 ; go outside print area
G92 E0.0
G1 X60.0 E9.0 F1000.0 ; intro line
G1 X100.0 E12.5 F1000.0 ; intro line
G92 E0.0
M221 S95

; Don't change E values below. Excessive value can damage the printer.
M907 E430 ; set extruder motor current
G21 ; set units to millimeters
G90 ; use absolute coordinates
M83 ; use relative distances for extrusion
M900 K0.05 ; Filament gcode LA 1.5
M900 K30 ; Filament gcode LA 1.0
;LAYER_CHANGE
;Z:0.2
;HEIGHT:0.2
;BEFORE_LAYER_CHANGE
G92 E0.0
;0.2


G1 E-0.80000 F2100.000
G1 Z0.600 F10800.000
;AFTER_LAYER_CHANGE
;0.2
G1 X50.203 Y16.865
G1 Z0.200
G1 E0.80000 F2100.000
M204 S1000
;TYPE:Skirt
;WIDTH:0.42
G1 F1200.000
G1 X50.603 Y16.160 E0.02543
G1 X50.975 Y15.796 E0.01633
G1 X51.418 Y15.522 E0.01633
G1 X51.910 Y15.351 E0.01633
G1 X52.428 Y15.291 E0.01633
G1 X202.444 Y15.291 E4.70366
M73 P0 R160
G1 X203.346 Y15.470 E0.02884
G1 X204.115 Y15.981 E0.02896
G1 X204.630 Y16.744 E0.02884
G1 X204.817 Y17.644 E0.02884
G1 X204.817 Y197.676 E5.64476
G1 X204.677 Y198.471 E0.02532
G1 X204.277 Y199.176 E0.02543
G1 X203.902 Y199.543 E0.01645
G1 X203.458 Y199.816 E0.01633
G1 X202.966 Y199.986 E0.01633
G1 X202.445 Y200.045 E0.01645
G1 X52.432 Y200.045 E4.70354
M73 Q0 S160
G1 X51.637 Y199.905 E0.02532
G1 X50.932 Y199.505 E0.02543
G1 X50.565 Y199.130 E0.01645
G1 X50.292 Y198.686 E0.01633
G1 X50.122 Y198.194 E0.01633
G1 X50.063 Y197.673 E0.01645
G1 X50.063 Y17.660 E5.64417
G1 X50.192 Y16.924 E0.02343
;WIPE_START
G1 F8640.000
G1 X50.603 Y16.160 E-0.20040
G1 X50.975 Y15.796 E-0.12025
G1 X51.418 Y15.522 E-0.12025
G1 X51.910 Y15.351 E-0.12025
G1 X52.428 Y15.291 E-0.12025
G1 X52.768 Y15.291 E-0.07860
;WIPE_END
G1 E-0.04000 F2100.000
G1 Z0.800 F10800.000
G1 X95.336 Y23.438
G1 Z0.200
G1 E0.80000 F2100.000
;TYPE:Support material interface
;WIDTH:0.35
G1 F1200.000
G1 X95.336 Y32.565 E0.23304
G1 X95.854 Y61.483 E0.73849
G1 X95.854 Y23.452 E0.97107
G1 X96.372 Y23.317 E0.01366
G1 X96.372 Y90.400 E1.71287
G1 X96.547 Y100.218 E0.25073
G1 X96.889 Y101.573 E0.03568
G1 X96.889 Y23.183 E2.00158
G1 X97.407 Y23.049 E0.01366
G1 X97.407 Y103.624 E2.05738
G1 X97.925 Y105.675 E0.05401
G1 X97.925 Y22.915 E2.11318
G1 X98.443 Y22.780 E0.01366
G1 X98.443 Y107.726 E2.16898
G1 X98.961 Y109.777 E0.05401
G1 X98.961 Y22.646 E2.22478
M73 P0 R159
G1 X99.478 Y22.512 E0.01366
G1 X99.478 Y111.828 E2.28058
G1 X99.996 Y113.879 E0.05401
G1 X99.996 Y22.378 E2.33638
G1 X100.514 Y22.243 E0.01366
G1 X100.514 Y115.930 E2.39218
G1 X101.032 Y117.981 E0.05401
G1 X101.032 Y22.771 E2.43109
G1 X101.550 Y23.330 E0.01947
G1 X101.550 Y120.032 E2.46916
M73 Q0 S159
G1 X102.067 Y122.083 E0.05401
G1 X102.067 Y23.890 E2.50724
M73 P1 R159
M73 Q1 S159
G1 X102.585 Y24.450 E0.01947
G1 X102.585 Y124.134 E2.54532
G1 X103.103 Y126.185 E0.05401
G1 X103.103 Y25.010 E2.58340
G1 X103.621 Y25.570 E0.01947
G1 X103.621 Y128.237 E2.62147
G1 X104.013 Y129.790 E0.04090
G1 X104.139 Y129.996 E0.00618
G1 X104.139 Y26.129 E2.65212
G1 X104.656 Y26.689 E0.01947
G1 X104.656 Y130.848 E2.65956
G1 X105.174 Y131.699 E0.02544
G1 X105.174 Y27.249 E2.66700
G1 X105.692 Y27.809 E0.01947
M73 P1 R158
G1 X105.692 Y132.550 E2.67444
G1 X106.210 Y133.401 E0.02544
G1 X106.210 Y29.221 E2.66011
G1 X106.728 Y30.646 E0.03871
G1 X106.728 Y134.252 E2.64547
G1 X107.245 Y135.104 E0.02544
G1 X107.246 Y32.071 E2.63082
M73 Q1 S158
G1 X107.763 Y33.495 E0.03871
G1 X107.763 Y135.955 E2.61618
G1 X108.281 Y136.806 E0.02544
G1 X108.281 Y34.920 E2.60153
G1 X108.799 Y36.345 E0.03871
G1 X108.799 Y74.456 E0.97311
G1 X108.624 Y76.740 E0.05851
G1 X108.663 Y79.574 E0.07236
G1 X108.782 Y80.811 E0.03173
G1 X108.401 Y80.887 E0.00991
G1 X108.799 Y85.759 E0.12480
G1 X108.799 Y137.657 E1.32516
G1 X109.317 Y138.509 E0.02544
G1 X109.317 Y88.904 E1.26659
G1 X109.835 Y90.112 E0.03356
G1 X109.835 Y139.360 E1.25748
G1 X110.352 Y140.211 E0.02544
G1 X110.352 Y91.320 E1.24836
G1 X110.870 Y92.529 E0.03356
G1 X110.870 Y141.062 E1.23925
G1 X111.388 Y141.914 E0.02544
G1 X111.388 Y93.737 E1.23013
G1 X111.906 Y94.945 E0.03356
G1 X111.906 Y142.765 E1.22102
G1 X112.424 Y143.616 E0.02544
G1 X112.424 Y95.703 E1.22340
G1 X112.941 Y96.196 E0.01826
G1 X112.941 Y144.467 E1.23254
G1 X113.459 Y145.318 E0.02544
G1 X113.459 Y96.248 E1.25294
G1 X113.571 Y96.208 E0.00305
G1 X113.644 Y95.563 E0.01656
G1 X113.977 Y95.892 E0.01196
G1 X113.977 Y145.948 E1.27810
M73 P1 R157
G1 X114.495 Y145.948 E0.01322
G1 X114.495 Y96.404 E1.26503
M73 P2 R157
M73 Q2 S158
G1 X115.013 Y96.922 E0.01869
G1 X115.013 Y145.948 E1.25181
G1 X115.530 Y145.948 E0.01322
G1 X115.530 Y97.465 E1.23795
G1 X116.048 Y98.009 E0.01919
G1 X116.048 Y145.948 E1.22405
G1 X116.566 Y145.948 E0.01322
G1 X116.566 Y98.554 E1.21015
G1 X117.084 Y99.109 E0.01940
G1 X117.084 Y145.948 E1.19596
G1 X117.602 Y145.948 E0.01322
G1 X117.602 Y99.717 E1.18043
G1 X118.119 Y100.325 E0.02039
G1 X118.119 Y145.948 E1.16491
M73 Q2 S157
G1 X118.637 Y145.948 E0.01322
G1 X118.637 Y100.979 E1.14822
G1 X119.155 Y101.668 E0.02200
G1 X119.155 Y145.948 E1.13063
G1 X119.673 Y145.948 E0.01322
G1 X119.673 Y102.393 E1.11211
G1 X120.191 Y103.232 E0.02517
G1 X120.191 Y145.948 E1.09069
G1 X120.327 Y145.950 E0.00349
G1 X120.709 Y146.008 E0.00985
G1 X120.709 Y104.142 E1.06900
G1 X121.226 Y105.081 E0.02738
G1 X121.226 Y146.087 E1.04704
G1 X121.744 Y146.164 E0.01337
G1 X121.744 Y106.074 E1.02366
G1 X122.262 Y107.170 E0.03095
G1 X122.262 Y146.264 E0.99822
G1 X122.780 Y146.365 E0.01347
G1 X122.780 Y108.430 E0.96862
G1 X123.172 Y109.502 E0.02916
G1 X123.298 Y109.949 E0.01184
G1 X123.298 Y146.456 E0.93215
G1 X123.815 Y146.546 E0.01342
G1 X123.815 Y111.795 E0.88732
G1 X124.333 Y113.737 E0.05131
G1 X124.333 Y146.637 E0.84006
G1 X124.851 Y146.700 E0.01332
G1 X124.851 Y115.952 E0.78512
G1 X124.953 Y116.564 E0.01584
G1 X125.040 Y116.698 E0.00408
G1 X125.369 Y116.916 E0.01007
G1 X125.369 Y146.758 E0.76199
G1 X125.887 Y146.816 E0.01330
G1 X125.887 Y117.258 E0.75473
G1 X126.404 Y117.601 E0.01585
G1 X126.404 Y146.809 E0.74581
G1 X126.922 Y146.796 E0.01323
G1 X126.922 Y117.885 E0.73821
G1 X127.004 Y118.011 E0.00383
G1 X127.440 Y118.893 E0.02513
G1 X127.440 Y146.783 E0.71214
G1 X127.958 Y146.770 E0.01323
G1 X127.958 Y119.942 E0.68504
G1 X128.059 Y120.147 E0.00585
G1 X128.476 Y121.224 E0.02948
G1 X128.476 Y146.674 E0.64984
G1 X128.798 Y146.572 E0.00863
G1 X128.993 Y146.420 E0.00633
G1 X128.993 Y122.603 E0.60814
G1 X129.311 Y123.620 E0.02722
G1 X129.511 Y124.641 E0.02656
G1 X129.511 Y145.756 E0.53914
G1 X129.637 Y145.375 E0.01024
G1 X129.943 Y143.666 E0.04433
G1 X130.029 Y143.087 E0.01495
M73 P2 R156
G1 X130.029 Y128.332 E0.37677
G1 X130.313 Y130.518 E0.05629
G1 X130.547 Y132.125 E0.04148
G1 X130.547 Y141.239 E0.23270
;WIPE_START
G1 F8640.000
G1 X130.547 Y137.947 E-0.76000
;WIPE_END
G1 E-0.04000 F2100.000
G1 Z0.800 F10800.000
G1 X124.423 Y149.838
G1 Z0.200
G1 E0.80000 F2100.000
;TYPE:Support material
;WIDTH:0.42
G1 F1200.000
G1 X124.423 Y148.527 E0.04110
G1 X123.669 Y148.336 E0.02439
G1 X123.669 Y149.531 E0.03746
G1 X122.915 Y149.396 E0.02402
G1 X122.915 Y148.145 E0.03923
G1 X122.191 Y147.931 E0.02368
G1 X122.161 Y147.932 E0.00093
G1 X122.161 Y149.262 E0.04170
G1 X121.407 Y149.127 E0.02402
G1 X121.407 Y147.936 E0.03734
G1 X120.653 Y147.941 E0.02365
G1 X120.653 Y148.992 E0.03297
G1 X119.898 Y148.858 E0.02402
G1 X119.898 Y147.947 E0.02856
G1 X119.144 Y147.970 E0.02366
G1 X119.144 Y148.895 E0.02902
;WIPE_START
G1 F8640.000
G1 X119.144 Y147.970 E-0.21373
G1 X119.898 Y147.947 E-0.17422
G1 X119.898 Y148.858 E-0.21036
G1 X120.588 Y148.981 E-0.16169
;WIPE_END
G1 E-0.04000 F2100.000
G1 Z0.800 F10800.000
G1 X111.603 Y74.741
G1 Z0.200
G1 E0.80000 F2100.000
G1 F1200.000
G1 X111.603 Y74.157 E0.01833
G1 X110.972 Y73.032 E0.04041
G1 X110.849 Y73.621 E0.01886
G1 X110.849 Y75.233 E0.05055
;WIPE_START
G1 F8640.000
G1 X110.849 Y73.621 E-0.37229
G1 X110.972 Y73.032 E-0.13890
G1 X111.499 Y73.972 E-0.24881
;WIPE_END
G1 E-0.04000 F2100.000
G1 Z0.800 F10800.000
G1 X109.317 Y72.394
G1 Z0.200
G1 E0.80000 F2100.000
;TYPE:Support material interface
;WIDTH:0.35
G1 F1200.000
G1 X109.317 Y37.770 E0.88409
G1 X109.835 Y39.194 E0.03871
G1 X109.835 Y70.519 E0.79984
G1 X109.969 Y70.372 E0.00510
G1 X110.080 Y70.295 E0.00344
G1 X110.211 Y70.240 E0.00363
G1 X110.352 Y70.214 E0.00367
G1 X110.352 Y40.619 E0.75568
G1 X110.870 Y42.044 E0.03871
G1 X110.870 Y70.386 E0.72368
G1 X111.388 Y70.801 E0.01694
G1 X111.388 Y43.469 E0.69789
G1 X111.906 Y44.893 E0.03871
G1 X111.906 Y71.354 E0.67563
G1 X112.270 Y71.885 E0.01645
G1 X112.338 Y71.720 E0.00455
G1 X112.212 Y71.065 E0.01703
G1 X112.187 Y70.363 E0.01795
G1 X112.195 Y69.812 E0.01407
G1 X112.273 Y69.334 E0.01237
G1 X112.424 Y68.829 E0.01344
G1 X112.424 Y65.477 E0.08561
G1 X112.194 Y64.097 E0.03571
G1 X112.285 Y63.889 E0.00580
G1 X112.424 Y63.797 E0.00425
G1 X112.424 Y46.318 E0.44630
G1 X112.941 Y47.743 E0.03871
G1 X112.941 Y63.454 E0.40116
G1 X113.459 Y63.111 E0.01586
G1 X113.459 Y49.168 E0.35601
G1 X113.977 Y50.593 E0.03871
G1 X113.977 Y62.767 E0.31087
G1 X114.495 Y62.424 E0.01586
G1 X114.495 Y52.017 E0.26572
G1 X115.013 Y53.442 E0.03871
G1 X115.013 Y62.081 E0.22058
G1 X115.152 Y61.989 E0.00426
G1 X115.462 Y62.121 E0.00861
G1 X115.530 Y62.066 E0.00225
G1 X115.530 Y54.867 E0.18381
G1 X116.048 Y56.292 E0.03871
G1 X116.048 Y61.394 E0.13029
G1 X116.566 Y61.051 E0.01586
G1 X116.566 Y57.716 E0.08515
G1 X117.084 Y59.141 E0.03871
G1 X117.084 Y60.879 E0.04438
;WIPE_START
G1 F8640.000
G1 X117.084 Y59.141 E-0.40136
G1 X116.566 Y57.716 E-0.35003
G1 X116.566 Y57.754 E-0.00861
;WIPE_END
G1 E-0.04000 F2100.000
G1 Z0.800 F10800.000
G1 X126.035 Y115.958
M73 Q2 S156
G1 Z0.200
G1 E0.80000 F2100.000
;TYPE:Perimeter
;WIDTH:0.42
G1 F1200.000
G1 X126.359 Y116.020 E0.01033
G1 X126.185 Y116.059 E0.00557
G1 X126.085 Y115.992 E0.00378
;WIPE_START
G1 F8640.000
G1 X126.359 Y116.020 E-0.06353
G1 X126.185 Y116.059 E-0.04099
G1 X126.085 Y115.992 E-0.02784
;WIPE_END
G1 E-0.66765 F2100.000
G1 Z0.800 F10800.000
G1 X131.079 Y127.395
G1 Z0.200
G1 E0.80000 F2100.000
G1 F1200.000
G1 X131.430 Y127.457 E0.01117
G1 X131.234 Y128.149 E0.02254
G1 X131.208 Y128.314 E0.00522
G1 X131.087 Y127.455 E0.02720
;WIPE_START
G1 F8640.000
G1 X131.430 Y127.457 E-0.07908
G1 X131.234 Y128.149 E-0.16601
G1 X131.208 Y128.314 E-0.03847
G1 X131.087 Y127.455 E-0.20030
;WIPE_END
G1 E-0.31613 F2100.000
G1 Z0.800 F10800.000
G1 X135.389 Y122.774
G1 Z0.200
G1 E0.80000 F2100.000
G1 F1200.000
G1 X135.449 Y122.730 E0.00234
G1 X135.465 Y122.841 E0.00352
G1 X135.434 Y122.814 E0.00131
;WIPE_START
G1 F8640.000
G1 X135.449 Y122.730 E-0.01963
G1 X135.465 Y122.841 E-0.02594
G1 X135.434 Y122.814 E-0.00965
;WIPE_END
G1 E-0.74478 F2100.000
G1 Z0.800 F10800.000
G1 X138.699 Y116.265
G1 Z0.200
G1 E0.80000 F2100.000
G1 F1200.000
G1 X138.546 Y116.120 E0.00659
G1 X138.641 Y116.063 E0.00349
G1 X138.682 Y116.207 E0.00469
;WIPE_START
G1 F8640.000
G1 X138.546 Y116.120 E-0.03731
G1 X138.641 Y116.063 E-0.02568
G1 X138.682 Y116.207 E-0.03456
;WIPE_END
G1 E-0.70245 F2100.000
G1 Z0.800 F10800.000
G1 X142.807 Y114.083
G1 Z0.200
G1 E0.80000 F2100.000
G1 F1200.000
G1 X142.725 Y113.910 E0.00600
G1 X142.819 Y113.894 E0.00299
G1 X142.811 Y114.023 E0.00406
;WIPE_START
G1 F8640.000
G1 X142.725 Y113.910 E-0.03274
G1 X142.819 Y113.894 E-0.02200
G1 X142.811 Y114.023 E-0.02987
;WIPE_END
G1 E-0.71539 F2100.000
G1 Z0.800 F10800.000
G1 X153.060 Y116.001
G1 Z0.200
G1 E0.80000 F2100.000
G1 F1200.000
G1 X153.168 Y116.015 E0.00340
G1 X153.100 Y116.172 E0.00537
G1 X153.076 Y116.059 E0.00364
;WIPE_START
G1 F8640.000
G1 X153.168 Y116.015 E-0.02357
G1 X153.100 Y116.172 E-0.03956
G1 X153.076 Y116.059 E-0.02677
;WIPE_END
G1 E-0.71009 F2100.000
G1 Z0.800 F10800.000
G1 X158.236 Y117.589
G1 Z0.200
G1 E0.80000 F2100.000
G1 F1200.000
G1 X158.756 Y117.587 E0.01629
G1 X158.355 Y117.984 E0.01769
G1 X158.268 Y117.641 E0.01111
;WIPE_START
G1 F8640.000
G1 X158.756 Y117.587 E-0.11343
G1 X158.355 Y117.984 E-0.13028
G1 X158.268 Y117.641 E-0.08181
;WIPE_END
G1 E-0.47447 F2100.000
G1 Z0.800 F10800.000
G1 X131.485 Y143.186
G1 Z0.200
G1 E0.80000 F2100.000
G1 F1200.000
G1 X131.119 Y143.703 E0.01986
G1 X131.214 Y143.005 E0.02210
G1 X131.436 Y143.153 E0.00837
;WIPE_START
G1 F8640.000
G1 X131.119 Y143.703 E-0.14653
G1 X131.214 Y143.005 E-0.16273
G1 X131.436 Y143.153 E-0.06165
;WIPE_END
G1 E-0.42908 F2100.000
G1 Z0.800 F10800.000
G1 X134.887 Y152.337
G1 Z0.200
G1 E0.80000 F2100.000
G1 F1200.000
G1 X134.921 Y152.330 E0.00109
G1 X134.915 Y152.356 E0.00083
;WIPE_START
G1 F8640.000
G1 X134.921 Y152.330 E-0.00612
G1 X134.915 Y152.356 E-0.00612
;WIPE_END
G1 E-0.78776 F2100.000
G1 Z0.800 F10800.000
G1 X132.523 Y86.813
G1 Z0.200
G1 E0.80000 F2100.000
G1 F1200.000
G1 X132.370 Y86.699 E0.00600
G1 X132.505 Y86.654 E0.00445
G1 X132.517 Y86.754 E0.00316
;WIPE_START
G1 F8640.000
G1 X132.370 Y86.699 E-0.03608
G1 X132.505 Y86.654 E-0.03277
G1 X132.517 Y86.754 E-0.02327
;WIPE_END
G1 E-0.70788 F2100.000
G1 Z0.800 F10800.000
G1 X112.700 Y93.469
G1 Z0.200
G1 E0.80000 F2100.000
G1 F1200.000
G1 X112.711 Y93.887 E0.01310
G1 X112.175 Y92.606 E0.04352
G1 X112.294 Y92.864 E0.00889
G1 X112.667 Y93.419 E0.02097
;WIPE_START
G1 F8640.000
G1 X112.711 Y93.887 E-0.10846
G1 X112.175 Y92.606 E-0.32052
G1 X112.294 Y92.864 E-0.06548
G1 X112.667 Y93.419 E-0.15442
;WIPE_END
G1 E-0.15112 F2100.000
G1 Z0.800 F10800.000
G1 X112.367 Y87.779
G1 Z0.200
G1 E0.80000 F2100.000
G1 F1200.000
G1 X111.935 Y87.226 E0.02202
G1 X112.052 Y87.098 E0.00544
G1 X112.342 Y87.725 E0.02164
G1 X111.471 Y87.364 F10800.000
G1 F1200.000
G1 X110.750 Y87.649 E0.02433
G1 X110.810 Y88.366 E0.02256
G1 X111.107 Y89.803 E0.04603
G1 X111.572 Y91.197 E0.04607
G1 X110.146 Y87.866 E0.11363
G1 X109.873 Y84.554 E0.10419
G1 X109.814 Y84.030 E0.01654
G1 X109.701 Y83.483 E0.01749
G1 X109.638 Y83.297 E0.00617
G1 X110.086 Y83.457 E0.01491
G1 X110.044 Y82.544 E0.02865
G1 X110.810 Y82.516 E0.02406
G1 X110.946 Y83.294 E0.02478
G1 X111.080 Y83.921 E0.02010
G1 X109.934 Y84.101 E0.03635
G1 X110.209 Y85.984 E0.05967
G1 X110.310 Y86.460 E0.01526
G1 X110.393 Y86.710 E0.00826
G1 X110.577 Y87.052 E0.01214
G1 X110.826 Y87.206 E0.00919
G1 X111.113 Y87.310 E0.00959
G1 X111.412 Y87.355 E0.00947
;WIPE_START
G1 F8640.000
G1 X110.750 Y87.649 E-0.16731
G1 X110.810 Y88.366 E-0.16611
G1 X111.107 Y89.803 E-0.33896
G1 X111.227 Y90.163 E-0.08762
;WIPE_END
G1 E-0.04000 F2100.000
G1 Z0.800 F10800.000
G1 X112.596 Y73.545
G1 Z0.200
G1 E0.80000 F2100.000
G1 F1200.000
G1 X112.504 Y73.416 E0.00500
G1 X112.617 Y73.395 E0.00362
G1 X112.605 Y73.486 E0.00287
;WIPE_START
G1 F8640.000
G1 X112.504 Y73.416 E-0.02840
G1 X112.617 Y73.395 E-0.02667
G1 X112.605 Y73.486 E-0.02112
;WIPE_END
G1 E-0.72381 F2100.000
G1 Z0.800 F10800.000
G1 X114.196 Y69.379
G1 Z0.200
G1 E0.80000 F2100.000
G1 F1200.000
G1 X113.406 Y69.581 E0.02554
G1 X113.590 Y69.009 E0.01881
G1 X113.914 Y68.325 E0.02372
G1 X113.991 Y68.052 E0.00890
G1 X113.985 Y67.772 E0.00878
G1 X113.451 Y64.520 E0.10335
G1 X114.973 Y63.504 E0.05737
G1 X115.080 Y63.540 E0.00353
G1 X114.904 Y63.897 E0.01248
G1 X114.838 Y64.390 E0.01562
G1 X115.140 Y66.720 E0.07366
