; generated by PrusaSlicer 2.3.0+win64 on 2021-02-15 at 19:28:53 UTC

; 

; external perimeters extrusion width = 0.45mm
; perimeters extrusion width = 0.45mm
; infill extrusion width = 0.45mm
; solid infill extrusion width = 0.45mm
; top infill extrusion width = 0.40mm
; support material extrusion width = 0.35mm
; first layer extrusion width = 0.42mm

M73 P0 R96
M73 Q0 S98
M201 X1000 Y1000 Z200 E5000 ; sets maximum accelerations, mm/sec^2
M203 X200 Y200 Z12 E120 ; sets maximum feedrates, mm/sec
M204 P1250 R1250 T1250 ; sets acceleration (P, T) and retract acceleration (R), mm/sec^2
M205 X8.00 Y8.00 Z0.40 E4.50 ; sets the jerk limits, mm/sec
M205 S0 T0 ; sets the minimum extruding and travel feed rate, mm/sec
M107
;TYPE:Custom
M862.3 P "MK3S" ; printer model check
M862.1 P0.4 ; nozzle diameter check
M115 U3.9.1 ; tell printer latest fw version
G90 ; use absolute coordinates
M83 ; extruder relative mode
M104 S215 ; set extruder temp
M140 S60 ; set bed temp
M190 S60 ; wait for bed temp
M109 S215 ; wait for extruder temp
G28 W ; home all without mesh bed level
G80 ; mesh bed leveling
G1 Y-3.0 F1000.0 ; go outside print area
G92 E0.0
G1 X60.0 E9.0 F1000.0 ; intro line
G1 X100.0 E12.5 F1000.0 ; intro line
G92 E0.0
M221 S95

; Don't change E values below. Excessive value can damage the printer.
M907 E430 ; set extruder motor current
G21 ; set units to millimeters
G90 ; use absolute coordinates
M83 ; use relative distances for extrusion
M900 K0.05 ; Filament gcode LA 1.5
M900 K30 ; Filament gcode LA 1.0
;LAYER_CHANGE
;Z:0.2
;HEIGHT:0.2
;BEFORE_LAYER_CHANGE
G92 E0.0
;0.2


G1 E-0.80000 F2100.000
G1 Z0.600 F10800.000
;AFTER_LAYER_CHANGE
;0.2
G1 X83.355 Y89.824
G1 Z0.200
G1 E0.80000 F2100.000
M204 S1000
;TYPE:Skirt
;WIDTH:0.42
G1 F1200.000
G1 X168.836 Y89.775 E2.68019
G1 X169.549 Y89.886 E0.02260
G1 X170.195 Y90.205 E0.02260
G1 X170.716 Y90.703 E0.02260
G1 X171.064 Y91.334 E0.02260
G1 X171.198 Y91.915 E0.01870
G1 X171.688 Y97.550 E0.17733
G1 X171.694 Y101.674 E0.12931
G1 X171.195 Y107.415 E0.18069
G1 X170.948 Y108.235 E0.02684
G1 X170.428 Y108.915 E0.02684
G1 X169.945 Y109.253 E0.01846
G1 X169.391 Y109.463 E0.01858
G1 X139.422 Y116.406 E0.96454
G1 X133.735 Y117.131 E0.17978
G1 X120.070 Y117.129 E0.42844
G1 X114.591 Y116.428 E0.17322
G1 X83.220 Y109.449 E1.00766
G1 X82.615 Y109.194 E0.02060
G1 X82.102 Y108.782 E0.02060
G1 X81.722 Y108.247 E0.02060
G1 X81.503 Y107.627 E0.02060
G1 X80.968 Y101.561 E0.19096
G1 X80.971 Y97.627 E0.12335
G1 X81.468 Y91.904 E0.18009
G1 X81.664 Y91.179 E0.02355
G1 X82.073 Y90.554 E0.02343
G1 X82.656 Y90.087 E0.02343
G1 X83.299 Y89.845 E0.02155
;WIPE_START
G1 F8640.000
G1 X86.591 Y89.842 E-0.76000
;WIPE_END
G1 E-0.04000 F2100.000
G1 Z0.800 F10800.000
G1 X83.345 Y97.748
G1 Z0.200
G1 E0.80000 F2100.000
;TYPE:Support material
G1 F1200.000
G1 X83.345 Y101.556 E0.11939
;WIPE_START
G1 F8640.000
G1 X83.345 Y98.265 E-0.76000
;WIPE_END
G1 E-0.04000 F2100.000
G1 Z0.800 F10800.000
G1 X86.362 Y101.000
G1 Z0.200
G1 E0.80000 F2100.000
G1 F1200.000
G1 X86.372 Y98.725 E0.07133
G1 X86.730 Y97.861 E0.02933
G1 X87.116 Y97.357 E0.01991
G1 X87.116 Y101.948 E0.14393
G1 X87.299 Y102.186 E0.00941
G1 X87.870 Y102.624 E0.02258
G1 X87.870 Y96.680 E0.18637
G1 X88.041 Y96.549 E0.00674
G1 X88.624 Y96.308 E0.01980
G1 X88.624 Y102.997 E0.20973
G1 X88.905 Y103.113 E0.00952
G1 X89.379 Y103.175 E0.01498
G1 X89.379 Y96.129 E0.22093
G1 X89.832 Y96.069 E0.01435
G1 X90.133 Y96.109 E0.00950
G1 X90.133 Y103.196 E0.22220
G1 X90.760 Y103.113 E0.01983
G1 X90.887 Y103.060 E0.00432
G1 X90.887 Y96.244 E0.21372
G1 X91.641 Y96.563 E0.02567
G1 X91.641 Y102.742 E0.19375
G1 X92.395 Y102.147 E0.03011
G1 X92.395 Y97.157 E0.15647
G1 X92.935 Y97.861 E0.02781
G1 X93.149 Y98.378 E0.01754
G1 X93.149 Y101.370 E0.09382
;WIPE_START
G1 F8640.000
G1 X93.149 Y98.378 E-0.69095
G1 X93.035 Y98.102 E-0.06905
;WIPE_END
G1 E-0.04000 F2100.000
G1 Z0.800 F10800.000
G1 X159.515 Y101.370
M73 Q0 S97
G1 Z0.200
G1 E0.80000 F2100.000
G1 F1200.000
G1 X159.515 Y98.378 E0.09382
G1 X159.730 Y97.861 E0.01754
G1 X160.270 Y97.157 E0.02781
G1 X160.270 Y102.148 E0.15647
G1 X161.024 Y102.742 E0.03011
G1 X161.024 Y96.563 E0.19375
G1 X161.778 Y96.244 E0.02567
G1 X161.778 Y103.060 E0.21372
G1 X161.905 Y103.113 E0.00432
G1 X162.532 Y103.196 E0.01983
G1 X162.532 Y96.109 E0.22220
G1 X162.832 Y96.069 E0.00950
G1 X163.286 Y96.129 E0.01435
G1 X163.286 Y103.175 E0.22093
G1 X163.760 Y103.113 E0.01498
G1 X164.040 Y102.997 E0.00952
G1 X164.040 Y96.308 E0.20973
G1 X164.624 Y96.549 E0.01980
G1 X164.795 Y96.680 E0.00674
G1 X164.795 Y102.624 E0.18637
G1 X165.366 Y102.186 E0.02258
G1 X165.549 Y101.948 E0.00941
G1 X165.549 Y97.357 E0.14393
G1 X165.935 Y97.861 E0.01991
G1 X166.293 Y98.725 E0.02933
G1 X166.303 Y101.000 E0.07133
;WIPE_START
G1 F8640.000
G1 X166.293 Y98.725 E-0.52527
G1 X165.935 Y97.861 E-0.21597
G1 X165.886 Y97.796 E-0.01876
;WIPE_END
G1 E-0.04000 F2100.000
G1 Z0.800 F10800.000
G1 X169.319 Y101.556
G1 Z0.200
G1 E0.80000 F2100.000
G1 F1200.000
G1 X169.319 Y97.748 E0.11938
;WIPE_START
G1 F8640.000
G1 X169.319 Y101.040 E-0.76000
;WIPE_END
G1 E-0.04000 F2100.000
G1 Z0.800 F10800.000
G1 X167.463 Y98.412
G1 Z0.200
G1 E0.80000 F2100.000
;TYPE:Perimeter
G1 F1200.000
G1 X167.626 Y99.652 E0.03924
G1 X167.463 Y100.893 E0.03924
G1 X166.984 Y102.049 E0.03924
G1 X166.222 Y103.042 E0.03924
G1 X165.229 Y103.804 E0.03924
G1 X164.073 Y104.283 E0.03924
G1 X162.832 Y104.446 E0.03924
G1 X161.592 Y104.283 E0.03924
G1 X160.435 Y103.804 E0.03924
G1 X159.443 Y103.042 E0.03924
G1 X158.681 Y102.049 E0.03924
G1 X158.202 Y100.893 E0.03924
G1 X158.039 Y99.652 E0.03924
G1 X158.202 Y98.412 E0.03924
G1 X158.681 Y97.255 E0.03924
G1 X159.443 Y96.262 E0.03924
G1 X160.435 Y95.501 E0.03924
G1 X161.592 Y95.022 E0.03924
G1 X162.832 Y94.858 E0.03924
G1 X164.073 Y95.022 E0.03924
G1 X165.229 Y95.501 E0.03924
G1 X166.222 Y96.262 E0.03924
G1 X166.984 Y97.255 E0.03924
G1 X167.440 Y98.356 E0.03736
G1 X167.092 Y98.500 F10800.000
;TYPE:External perimeter
G1 F1200.000
G1 X167.246 Y99.652 E0.03644
G1 X167.096 Y100.795 E0.03613
G1 X166.655 Y101.859 E0.03613
G1 X165.953 Y102.773 E0.03613
G1 X165.039 Y103.475 E0.03613
G1 X163.975 Y103.915 E0.03613
G1 X162.832 Y104.066 E0.03613
G1 X161.690 Y103.915 E0.03613
G1 X160.626 Y103.475 E0.03613
G1 X159.712 Y102.773 E0.03613
G1 X159.010 Y101.859 E0.03613
G1 X158.569 Y100.795 E0.03613
G1 X158.419 Y99.652 E0.03613
G1 X158.569 Y98.510 E0.03613
G1 X159.010 Y97.445 E0.03613
G1 X159.712 Y96.531 E0.03613
G1 X160.626 Y95.830 E0.03613
G1 X161.690 Y95.389 E0.03613
G1 X162.832 Y95.239 E0.03613
G1 X163.975 Y95.389 E0.03613
G1 X165.039 Y95.830 E0.03613
G1 X165.953 Y96.531 E0.03613
G1 X166.655 Y97.445 E0.03613
G1 X167.069 Y98.445 E0.03392
G1 X167.478 Y98.603 F10800.000
;WIPE_START
G1 F8640.000
G1 X167.246 Y99.652 E-0.28176
G1 X167.096 Y100.795 E-0.26604
G1 X166.744 Y101.644 E-0.21220
;WIPE_END
G1 E-0.04000 F2100.000
G1 Z0.800 F10800.000
G1 X94.626 Y99.652
G1 Z0.200
G1 E0.80000 F2100.000
;TYPE:Perimeter
G1 F1200.000
G1 X94.463 Y100.893 E0.03924
G1 X93.984 Y102.049 E0.03924
G1 X93.222 Y103.042 E0.03924
G1 X92.229 Y103.804 E0.03924
G1 X91.073 Y104.283 E0.03924
G1 X89.832 Y104.446 E0.03924
G1 X88.592 Y104.283 E0.03924
G1 X87.435 Y103.804 E0.03924
G1 X86.443 Y103.042 E0.03924
G1 X85.681 Y102.049 E0.03924
G1 X85.202 Y100.893 E0.03924
G1 X85.039 Y99.652 E0.03924
G1 X85.202 Y98.412 E0.03924
G1 X85.681 Y97.255 E0.03924
G1 X86.443 Y96.262 E0.03924
G1 X87.435 Y95.501 E0.03924
G1 X88.592 Y95.022 E0.03924
G1 X89.832 Y94.858 E0.03924
G1 X91.073 Y95.022 E0.03924
G1 X92.229 Y95.501 E0.03924
G1 X93.222 Y96.262 E0.03924
G1 X93.984 Y97.255 E0.03924
G1 X94.463 Y98.412 E0.03924
G1 X94.618 Y99.593 E0.03736
G1 X94.245 Y99.642 F10800.000
;TYPE:External perimeter
G1 F1200.000
G1 X94.096 Y100.795 E0.03644
G1 X93.655 Y101.859 E0.03613
G1 X92.953 Y102.773 E0.03613
G1 X92.039 Y103.475 E0.03613
G1 X90.975 Y103.915 E0.03613
G1 X89.832 Y104.066 E0.03613
G1 X88.690 Y103.915 E0.03613
G1 X87.626 Y103.475 E0.03613
G1 X86.712 Y102.773 E0.03613
G1 X86.010 Y101.859 E0.03613
G1 X85.569 Y100.795 E0.03613
G1 X85.419 Y99.652 E0.03613
G1 X85.569 Y98.510 E0.03613
G1 X86.010 Y97.445 E0.03613
G1 X86.712 Y96.531 E0.03613
G1 X87.626 Y95.830 E0.03613
G1 X88.690 Y95.389 E0.03613
G1 X89.832 Y95.239 E0.03613
G1 X90.975 Y95.389 E0.03613
G1 X92.039 Y95.830 E0.03613
G1 X92.953 Y96.531 E0.03613
G1 X93.655 Y97.445 E0.03613
G1 X94.096 Y98.510 E0.03613
G1 X94.237 Y99.583 E0.03392
G1 X94.591 Y99.841 F10800.000
;WIPE_START
G1 F8640.000
G1 X94.096 Y100.795 E-0.28176
G1 X93.655 Y101.859 E-0.26604
G1 X93.095 Y102.588 E-0.21220
;WIPE_END
G1 E-0.04000 F2100.000
G1 Z0.800 F10800.000
G1 X157.619 Y96.365
G1 Z0.200
G1 E0.80000 F2100.000
;TYPE:Perimeter
G1 F1200.000
G1 X95.045 Y96.365 E1.96197
M73 P0 R95
G1 X95.045 Y106.365 E0.31354
G1 X84.619 Y106.365 E0.32689
G1 X84.619 Y92.939 E0.42096
G1 X168.045 Y92.939 E2.61576
G1 X168.045 Y106.365 E0.42096
G1 X157.619 Y106.365 E0.32689
G1 X157.619 Y96.425 E0.31166
G1 X157.242 Y96.742 F10800.000
;TYPE:External perimeter
G1 F1200.000
G1 X95.422 Y96.742 E1.93832
G1 X95.422 Y106.742 E0.31354
G1 X84.242 Y106.742 E0.35054
G1 X84.242 Y92.562 E0.44460
G1 X168.422 Y92.562 E2.63940
G1 X168.422 Y106.742 E0.44460
G1 X157.242 Y106.742 E0.35054
G1 X157.242 Y96.802 E0.31166
G1 X157.132 Y96.358 F10800.000
;WIPE_START
G1 F8640.000
G1 X153.951 Y96.799 E-0.76000
;WIPE_END
G1 E-0.04000 F2100.000
G1 Z0.800 F10800.000
G1 X157.960 Y98.107
G1 Z0.200
G1 E0.80000 F2100.000
;TYPE:Gap fill
;WIDTH:0.296886
G1 F1200.000
G1 X157.917 Y98.320 E0.00460
;WIDTH:0.261413
G1 X157.914 Y98.349 E0.00051
;WIDTH:0.254
G1 X157.893 Y98.661 E0.00550
;WIDTH:0.21383
G1 X157.873 Y98.974 E0.00445
;WIDTH:0.17366
G1 X157.852 Y99.287 E0.00341
;WIDTH:0.13349
G1 X157.832 Y99.599 E0.00236
G1 X157.832 Y99.705 F10800.000
;WIDTH:0.133491
G1 F1200.000
G1 X157.852 Y100.018 E0.00236
;WIDTH:0.173661
G1 X157.873 Y100.331 E0.00341
;WIDTH:0.213831
G1 X157.893 Y100.643 E0.00445
;WIDTH:0.254
G1 X157.914 Y100.956 E0.00550
;WIDTH:0.261412
G1 X157.917 Y100.984 E0.00051
;WIDTH:0.296886
G1 X157.960 Y101.198 E0.00460
;WIPE_START
M73 P1 R95
G1 F8640.000
G1 X157.917 Y100.984 E-0.05031
;WIPE_END
M73 Q1 S97
G1 E-0.74969 F2100.000
G1 Z0.800 F10800.000
G1 X167.323 Y101.527
G1 Z0.200
G1 E0.80000 F2100.000
;TYPE:Solid infill
;WIDTH:0.425906
G1 F1200.000
G1 X167.763 Y101.967 E0.01981
G1 X167.763 Y102.508 E0.01725
G1 X167.294 Y102.040 E0.02110
G1 X167.231 Y102.192 E0.00524
G1 X167.089 Y102.377 E0.00742
G1 X167.763 Y103.050 E0.03032
G1 X167.763 Y103.592 E0.01725
G1 X166.854 Y102.683 E0.04092
G1 X166.619 Y102.990 E0.01230
G1 X167.763 Y104.133 E0.05151
G1 X167.763 Y104.675 E0.01725
G1 X166.372 Y103.284 E0.06264
G1 X166.065 Y103.519 E0.01230
G1 X167.763 Y105.217 E0.07645
G1 X167.763 Y105.758 E0.01725
G1 X165.759 Y103.754 E0.09025
G1 X165.452 Y103.989 E0.01230
G1 X167.545 Y106.082 E0.09426
G1 X167.004 Y106.082 E0.01725
G1 X165.089 Y104.168 E0.08622
G1 X164.706 Y104.327 E0.01320
G1 X166.462 Y106.082 E0.07907
G1 X165.920 Y106.082 E0.01725
G1 X164.323 Y104.485 E0.07193
G1 X164.147 Y104.558 E0.00607
G1 X163.889 Y104.592 E0.00830
G1 X165.379 Y106.082 E0.06711
G1 X164.837 Y106.082 E0.01725
G1 X163.410 Y104.655 E0.06427
G1 X162.931 Y104.718 E0.01537
G1 X164.295 Y106.082 E0.06143
G1 X163.754 Y106.082 E0.01725
G1 X162.338 Y104.666 E0.06378
G1 X161.714 Y104.584 E0.02003
G1 X163.212 Y106.082 E0.06748
G1 X162.671 Y106.082 E0.01725
G1 X160.570 Y103.982 E0.09459
;WIPE_START
G1 F8640.000
G1 X162.671 Y106.082 E-0.68582
G1 X162.992 Y106.082 E-0.07418
;WIPE_END
G1 E-0.04000 F2100.000
G1 Z0.800 F10800.000
G1 X158.502 Y101.914
G1 Z0.200
G1 E0.80000 F2100.000
G1 F1200.000
G1 X158.055 Y101.467 E0.02014
G1 X157.902 Y101.498 E0.00497
G1 X157.902 Y101.856 E0.01141
G1 X162.129 Y106.082 E0.19035
G1 X161.587 Y106.082 E0.01725
G1 X157.902 Y102.397 E0.16596
G1 X157.902 Y102.939 E0.01725
G1 X161.046 Y106.082 E0.14157
G1 X160.504 Y106.082 E0.01725
G1 X157.902 Y103.481 E0.11718
G1 X157.902 Y104.022 E0.01725
G1 X159.962 Y106.082 E0.09278
G1 X159.421 Y106.082 E0.01725
G1 X157.902 Y104.564 E0.06839
G1 X157.902 Y105.105 E0.01725
G1 X158.879 Y106.082 E0.04400
G1 X158.338 Y106.082 E0.01725
G1 X157.733 Y105.477 E0.02725
;WIPE_START
G1 F8640.000
G1 X158.338 Y106.082 E-0.19756
G1 X158.879 Y106.082 E-0.12506
G1 X157.902 Y105.105 E-0.31901
G1 X157.902 Y104.593 E-0.11837
;WIPE_END
G1 E-0.04000 F2100.000
G1 Z0.800 F10800.000
G1 X167.705 Y101.198
G1 Z0.200
G1 E0.80000 F2100.000
;TYPE:Gap fill
;WIDTH:0.296885
G1 F1200.000
G1 X167.748 Y100.984 E0.00460
;WIDTH:0.261412
G1 X167.751 Y100.956 E0.00051
;WIDTH:0.253998
G1 X167.772 Y100.643 E0.00550
;WIDTH:0.213829
G1 X167.792 Y100.331 E0.00445
;WIDTH:0.173659
G1 X167.813 Y100.018 E0.00341
;WIDTH:0.13349
G1 X167.833 Y99.705 E0.00236
G1 X167.833 Y99.599 F10800.000
;WIDTH:0.13349
G1 F1200.000
G1 X167.772 Y98.661 E0.00708
;WIDTH:0.253998
G1 X167.751 Y98.349 E0.00550
G1 X167.705 Y98.107 E0.00432
;WIPE_START
G1 F8640.000
G1 X167.751 Y98.349 E-0.05683
G1 X167.772 Y98.661 E-0.07236
;WIPE_END
G1 E-0.67081 F2100.000
G1 Z0.800 F10800.000
G1 X167.168 Y93.052
G1 Z0.200
G1 E0.80000 F2100.000
;TYPE:Solid infill
;WIDTH:0.420823
G1 F1200.000
G1 X167.763 Y93.647 E0.02641
G1 X167.763 Y94.181 E0.01679
G1 X166.803 Y93.222 E0.04262
G1 X166.269 Y93.222 E0.01679
G1 X167.763 Y94.716 E0.06637
G1 X167.763 Y95.250 E0.01679
G1 X165.735 Y93.222 E0.09012
G1 X165.200 Y93.222 E0.01679
G1 X167.763 Y95.785 E0.11387
G1 X167.763 Y96.319 E0.01679
G1 X164.666 Y93.222 E0.13762
G1 X164.131 Y93.222 E0.01679
G1 X167.763 Y96.853 E0.16137
G1 X167.763 Y97.388 E0.01679
G1 X163.597 Y93.222 E0.18512
G1 X163.062 Y93.222 E0.01679
G1 X164.897 Y95.057 E0.08154
G1 X165.372 Y95.254 E0.01614
G1 X166.424 Y96.061 E0.04166
G1 X167.231 Y97.113 E0.04166
G1 X167.428 Y97.587 E0.01614
G1 X167.811 Y97.970 E0.01702
;WIPE_START
G1 F8640.000
G1 X167.428 Y97.587 E-0.12509
G1 X167.231 Y97.113 E-0.11863
G1 X166.424 Y96.061 E-0.30616
G1 X165.702 Y95.507 E-0.21013
;WIPE_END
G1 E-0.04000 F2100.000
G1 Z0.800 F10800.000
G1 X164.298 Y94.993
G1 Z0.200
G1 E0.80000 F2100.000
G1 F1200.000
G1 X162.528 Y93.222 E0.07868
G1 X161.994 Y93.222 E0.01679
G1 X163.422 Y94.651 E0.06349
G1 X162.813 Y94.576 E0.01930
G1 X161.459 Y93.222 E0.06015
G1 X160.925 Y93.222 E0.01679
G1 X162.340 Y94.638 E0.06292
G1 X161.868 Y94.700 E0.01497
G1 X160.390 Y93.222 E0.06568
G1 X159.856 Y93.222 E0.01679
G1 X161.420 Y94.787 E0.06952
G1 X161.042 Y94.943 E0.01285
G1 X159.321 Y93.222 E0.07648
G1 X158.787 Y93.222 E0.01679
G1 X160.664 Y95.100 E0.08344
G1 X160.288 Y95.257 E0.01283
G1 X158.252 Y93.222 E0.09045
G1 X157.718 Y93.222 E0.01679
G1 X159.985 Y95.490 E0.10076
G1 X159.683 Y95.722 E0.01198
G1 X157.184 Y93.222 E0.11107
G1 X156.649 Y93.222 E0.01679
G1 X159.381 Y95.954 E0.12138
G1 X159.241 Y96.061 E0.00553
G1 X159.116 Y96.223 E0.00644
G1 X156.115 Y93.222 E0.13338
G1 X155.580 Y93.222 E0.01679
G1 X158.884 Y96.526 E0.14681
G1 X158.652 Y96.828 E0.01198
G1 X155.046 Y93.222 E0.16025
G1 X154.511 Y93.222 E0.01679
G1 X157.372 Y96.082 E0.12711
G1 X157.902 Y96.082 E0.01667
G1 X157.902 Y96.613 E0.01667
G1 X158.424 Y97.135 E0.02321
G1 X158.268 Y97.513 E0.01285
G1 X157.902 Y97.147 E0.01625
G1 X157.902 Y97.682 E0.01679
G1 X158.241 Y98.021 E0.01507
;WIPE_START
G1 F8640.000
G1 X157.902 Y97.682 E-0.11070
G1 X157.902 Y97.147 E-0.12340
G1 X158.268 Y97.513 E-0.11941
G1 X158.424 Y97.135 E-0.09445
G1 X157.902 Y96.613 E-0.17052
G1 X157.902 Y96.082 E-0.12251
G1 X157.820 Y96.082 E-0.01901
;WIPE_END
G1 E-0.04000 F2100.000
G1 Z0.800 F10800.000
G1 X157.007 Y96.252
G1 Z0.200
G1 E0.80000 F2100.000
G1 F1200.000
G1 X153.977 Y93.222 E0.13465
G1 X153.443 Y93.222 E0.01679
G1 X156.303 Y96.082 E0.12711
G1 X155.768 Y96.082 E0.01679
G1 X152.908 Y93.222 E0.12711
G1 X152.374 Y93.222 E0.01679
G1 X155.234 Y96.082 E0.12711
G1 X154.700 Y96.082 E0.01679
G1 X151.839 Y93.222 E0.12711
G1 X151.305 Y93.222 E0.01679
G1 X154.165 Y96.082 E0.12711
G1 X153.631 Y96.082 E0.01679
G1 X150.770 Y93.222 E0.12711
G1 X150.236 Y93.222 E0.01679
G1 X153.096 Y96.082 E0.12711
G1 X152.562 Y96.082 E0.01679
G1 X149.702 Y93.222 E0.12711
G1 X149.167 Y93.222 E0.01679
G1 X152.027 Y96.082 E0.12711
