; generated by PrusaSlicer 2.4.0+win64 on 2022-02-15 at 00:57:44 UTC

; 

; external perimeters extrusion width = 0.45mm
; perimeters extrusion width = 0.45mm
; infill extrusion width = 0.45mm
; solid infill extrusion width = 0.45mm
; top infill extrusion width = 0.40mm
; support material extrusion width = 0.35mm
; first layer extrusion width = 0.42mm

M73 P0 R79
M73 Q0 S80
M201 X1000 Y1000 Z200 E5000 ; sets maximum accelerations, mm/sec^2
M203 X200 Y200 Z12 E120 ; sets maximum feedrates, mm/sec
M204 P1250 R1250 T1250 ; sets acceleration (P, T) and retract acceleration (R), mm/sec^2
M205 X8.00 Y8.00 Z0.40 E4.50 ; sets the jerk limits, mm/sec
M205 S0 T0 ; sets the minimum extruding and travel feed rate, mm/sec
M107
;TYPE:Custom
M862.3 P "MK3S" ; printer model check
M862.1 P0.4 ; nozzle diameter check
M115 U3.9.1 ; tell printer latest fw version
G90 ; use absolute coordinates
M83 ; extruder relative mode
M104 S230 ; set extruder temp
M140 S85 ; set bed temp
M190 S85 ; wait for bed temp
M109 S230 ; wait for extruder temp
G28 W ; home all without mesh bed level
G80 ; mesh bed leveling
G1 Y-3.0 F1000.0 ; go outside print area
G92 E0.0
G1 X60.0 E9.0 F1000.0 ; intro line
G1 X100.0 E12.5 F1000.0 ; intro line
G92 E0.0
M221 S95

; Don't change E values below. Excessive value can damage the printer.
M907 E430 ; set extruder motor current
G21 ; set units to millimeters
G90 ; use absolute coordinates
M83 ; use relative distances for extrusion
M900 K0.08 ; Filament gcode LA 1.5
M900 K45 ; Filament gcode LA 1.0
M107
;LAYER_CHANGE
;Z:0.2
;HEIGHT:0.2
;BEFORE_LAYER_CHANGE
G92 E0.0
;0.2


G1 E-1.4 F2100
G1 Z.2 F10800
;AFTER_LAYER_CHANGE
;0.2
G1 Z.4
G1 X97.305 Y63.462
G1 Z.2
G1 E1.4 F2100
M204 S1000
;TYPE:Skirt/Brim
;WIDTH:0.42
G1 F1200
G1 X99.612 Y61.155 E.1023
G1 X101.293 Y60.459 E.05704
G1 X148.707 Y60.459 E1.48664
G1 X150.388 Y61.155 E.05704
G1 X152.695 Y63.462 E.1023
G1 X153.391 Y65.143 E.05704
G1 X153.391 Y140.243 E2.35469
G1 X152.695 Y141.923 E.05704
G1 X150.388 Y144.231 E.1023
G1 X149.77 Y144.676 E.02388
G1 X140.542 Y149.29 E.3235
G1 X139.479 Y149.541 E.03425
G1 X110.521 Y149.541 E.90795
G1 X109.458 Y149.29 E.03425
G1 X100.23 Y144.676 E.3235
G1 X99.612 Y144.231 E.02388
G1 X97.305 Y141.923 E.1023
G1 X96.609 Y140.243 E.05704
G1 X96.609 Y65.143 E2.35469
G1 X97.282 Y63.518 E.05516
;WIPE_START
G1 F8640
G1 X99.612 Y61.155 E-.76619
G1 X101.293 Y60.459 E-.42009
G1 X101.915 Y60.459 E-.14372
;WIPE_END
G1 E-.07 F2100
G1 Z.4 F10800
G1 X148.707 Y65.143
G1 Z.2
G1 E1.4 F2100
;TYPE:Support material
G1 F1200
G1 X151.014 Y65.143 E.07234
G1 X151.014 Y140.243 E2.35469
G1 X148.707 Y140.243 E.07234
G1 X148.707 Y142.55 E.07234
G1 X144.093 Y142.55 E.14467
G1 X144.093 Y144.857 E.07234
G1 X139.479 Y144.857 E.14467
G1 X139.479 Y147.164 E.07234
G1 X110.521 Y147.164 E.90795
G1 X110.521 Y144.857 E.07234
G1 X105.907 Y144.857 E.14467
G1 X105.907 Y142.55 E.07234
G1 X101.293 Y142.55 E.14467
M73 Q0 S79
G1 X101.293 Y140.243 E.07234
G1 X98.986 Y140.243 E.07234
G1 X98.986 Y65.143 E2.35469
G1 X101.293 Y65.143 E.07234
G1 X101.293 Y62.836 E.07234
G1 X148.707 Y62.836 E1.48664
G1 X148.707 Y65.087 E.07056
G1 X138.569 Y126.071 F10800
G1 F1200
G1 X138.314 Y126.326 E.0113
G1 X138.314 Y130.586 E.13358
G1 X138.569 Y130.841 E.0113
G1 X140.529 Y130.841 E.06147
G1 X140.784 Y130.586 E.0113
G1 X140.784 Y126.326 E.13358
G1 X140.529 Y126.071 E.0113
G1 X138.625 Y126.071 E.05969
G1 X109.469 Y126.071 F10800
G1 F1200
G1 X109.214 Y126.326 E.0113
G1 X109.214 Y130.586 E.13358
G1 X109.469 Y130.841 E.0113
G1 X111.429 Y130.841 E.06147
G1 X111.684 Y130.586 E.0113
G1 X111.684 Y126.326 E.13358
G1 X111.429 Y126.071 E.0113
G1 X109.525 Y126.071 E.05969
;WIPE_START
G1 F8640
G1 X111.429 Y126.071 E-.43959
G1 X111.684 Y126.326 E-.08321
G1 X111.684 Y129.821 E-.8072
;WIPE_END
G1 E-.07 F2100
G1 Z.4 F10800
G1 X124.989 Y85.821
G1 Z.2
G1 E1.4 F2100
G1 F1200
G1 X124.646 Y85.837 E.01076
G1 X124.306 Y85.882 E.01077
G1 X123.99 Y85.952 E.01017
G1 X123.662 Y86.055 E.01076
G1 X123.344 Y86.185 E.01076
G1 X123.04 Y86.343 E.01076
G1 X122.75 Y86.527 E.01076
G1 X122.477 Y86.735 E.01076
G1 X122.21 Y86.98 E.01136
G1 X121.978 Y87.234 E.01076
G1 X121.77 Y87.507 E.01077
G1 X121.596 Y87.78 E.01017
G1 X121.443 Y88.073 E.01035
G1 X121.304 Y88.401 E.01117
G1 X121.2 Y88.728 E.01076
G1 X121.125 Y89.063 E.01076
G1 X121.08 Y89.403 E.01076
G1 X121.064 Y89.746 E.01076
G1 X121.078 Y90.089 E.01076
G1 X121.122 Y90.43 E.01076
G1 X121.2 Y90.783 E.01136
G1 X121.304 Y91.111 E.01076
G1 X121.429 Y91.41 E.01017
G1 X121.586 Y91.715 E.01076
G1 X121.77 Y92.005 E.01077
G1 X121.978 Y92.278 E.01076
G1 X122.21 Y92.532 E.01076
G1 X122.477 Y92.776 E.01136
G1 X122.75 Y92.985 E.01076
G1 X123.04 Y93.168 E.01076
G1 X123.344 Y93.326 E.01076
G1 X123.674 Y93.461 E.01117
G1 X123.99 Y93.559 E.01035
G1 X124.306 Y93.629 E.01017
G1 X124.646 Y93.675 E.01077
G1 X124.989 Y93.691 E.01076
G1 X125.332 Y93.677 E.01076
G1 X125.673 Y93.633 E.01077
G1 X126.008 Y93.559 E.01076
G1 X126.354 Y93.45 E.01136
G1 X126.671 Y93.318 E.01077
G1 X126.975 Y93.159 E.01076
G1 X127.264 Y92.974 E.01076
G1 X127.521 Y92.776 E.01017
G1 X127.775 Y92.545 E.01076
G1 X128.019 Y92.278 E.01136
G1 X128.228 Y92.005 E.01077
G1 X128.411 Y91.715 E.01077
G1 X128.569 Y91.41 E.01076
G1 X128.7 Y91.093 E.01077
G1 X128.802 Y90.765 E.01076
G1 X128.876 Y90.43 E.01076
G1 X128.918 Y90.108 E.01017
G1 X128.934 Y89.765 E.01076
G1 X128.92 Y89.422 E.01076
G1 X128.872 Y89.063 E.01136
G1 X128.797 Y88.728 E.01076
G1 X128.693 Y88.401 E.01076
G1 X128.555 Y88.073 E.01117
G1 X128.402 Y87.78 E.01035
G1 X128.228 Y87.507 E.01017
G1 X128.019 Y87.234 E.01076
G1 X127.788 Y86.98 E.01076
G1 X127.521 Y86.735 E.01136
G1 X127.248 Y86.527 E.01076
G1 X126.958 Y86.343 E.01076
G1 X126.653 Y86.185 E.01076
G1 X126.336 Y86.055 E.01076
G1 X126.008 Y85.952 E.01076
G1 X125.673 Y85.879 E.01076
G1 X125.351 Y85.837 E.01017
G1 X125.046 Y85.822 E.00958
G1 X138.569 Y74.471 F10800
G1 F1200
G1 X138.314 Y74.726 E.0113
G1 X138.314 Y78.986 E.13358
G1 X138.569 Y79.241 E.0113
G1 X140.529 Y79.241 E.06147
G1 X140.784 Y78.986 E.0113
G1 X140.784 Y74.726 E.13358
G1 X140.529 Y74.471 E.0113
G1 X138.625 Y74.471 E.05969
G1 X109.469 Y74.471 F10800
G1 F1200
G1 X109.214 Y74.726 E.0113
G1 X109.214 Y78.986 E.13358
G1 X109.469 Y79.241 E.0113
G1 X111.429 Y79.241 E.06147
G1 X111.684 Y78.986 E.0113
G1 X111.684 Y74.726 E.13358
G1 X111.429 Y74.471 E.0113
G1 X109.525 Y74.471 E.05969
;WIPE_START
G1 F8640
G1 X111.429 Y74.471 E-.43959
G1 X111.684 Y74.726 E-.08321
G1 X111.684 Y78.221 E-.8072
;WIPE_END
G1 E-.07 F2100
G1 Z.4 F10800
G1 X150.558 Y140.073
G1 Z.2
G1 E1.4 F2100
G1 F1200
G1 X150.558 Y65.483 E2.33872
G1 X150.139 Y65.483 E.01314
G1 X150.139 Y139.903 E2.3334
G1 X149.72 Y139.903 E.01314
M73 P1 R79
M73 Q1 S79
G1 X149.72 Y65.483 E2.3334
G1 X149.301 Y65.483 E.01314
M73 P1 R78
G1 X149.301 Y139.903 E2.3334
G1 X148.882 Y139.903 E.01314
G1 X148.882 Y65.483 E2.3334
G1 X148.463 Y65.483 E.01314
G1 X148.463 Y139.903 E2.3334
G1 X148.368 Y139.903 E.00298
G1 X148.368 Y142.21 E.07234
G1 X148.044 Y142.21 E.01016
G1 X148.044 Y63.176 E2.47808
G1 X147.625 Y63.176 E.01314
G1 X147.625 Y142.21 E2.47808
G1 X147.206 Y142.21 E.01314
G1 X147.206 Y63.176 E2.47808
G1 X146.787 Y63.176 E.01314
G1 X146.787 Y142.21 E2.47808
G1 X146.368 Y142.21 E.01314
G1 X146.368 Y63.176 E2.47808
G1 X145.949 Y63.176 E.01314
G1 X145.949 Y142.21 E2.47808
G1 X145.53 Y142.21 E.01314
M73 Q1 S78
G1 X145.53 Y63.176 E2.47808
G1 X145.111 Y63.176 E.01314
G1 X145.111 Y142.21 E2.47808
G1 X144.692 Y142.21 E.01314
M73 P2 R78
M73 Q2 S78
G1 X144.692 Y63.176 E2.47808
G1 X144.273 Y63.176 E.01314
G1 X144.273 Y142.21 E2.47808
G1 X143.854 Y142.21 E.01314
G1 X143.854 Y63.176 E2.47808
G1 X143.435 Y63.176 E.01314
G1 X143.435 Y144.517 E2.55041
G1 X143.016 Y144.517 E.01314
G1 X143.016 Y63.176 E2.55041
G1 X142.597 Y63.176 E.01314
M73 P2 R77
G1 X142.597 Y144.517 E2.55041
G1 X142.178 Y144.517 E.01314
G1 X142.178 Y63.176 E2.55041
G1 X141.759 Y63.176 E.01314
G1 X141.759 Y144.517 E2.55041
G1 X141.34 Y144.517 E.01314
G1 X141.34 Y63.176 E2.55041
G1 X140.921 Y63.176 E.01314
G1 X140.921 Y74.383 E.3514
G1 X140.67 Y74.131 E.01115
G1 X140.502 Y74.131 E.00525
G1 X140.502 Y63.176 E.34351
G1 X140.083 Y63.176 E.01314
G1 X140.083 Y74.131 E.34351
G1 X139.664 Y74.131 E.01314
G1 X139.664 Y63.176 E.34351
G1 X139.245 Y63.176 E.01314
G1 X139.245 Y74.131 E.34351
G1 X138.826 Y74.131 E.01314
G1 X138.826 Y63.176 E.34351
G1 X138.407 Y63.176 E.01314
G1 X138.407 Y74.392 E.35169
;WIPE_START
G1 F8640
G1 X138.407 Y68.632 E-1.33
;WIPE_END
G1 E-.07 F2100
G1 Z.4 F10800
G1 X140.921 Y144.687
G1 Z.2
G1 E1.4 F2100
G1 F1200
G1 X140.921 Y130.929 E.43138
G1 X140.67 Y131.18 E.01115
G1 X140.502 Y131.18 E.00525
G1 X140.502 Y144.517 E.41818
G1 X140.083 Y144.517 E.01314
G1 X140.083 Y131.18 E.41818
G1 X139.664 Y131.18 E.01314
G1 X139.664 Y144.517 E.41818
G1 X139.245 Y144.517 E.01314
G1 X139.245 Y131.18 E.41818
G1 X138.826 Y131.18 E.01314
G1 X138.826 Y146.824 E.49051
G1 X138.407 Y146.824 E.01314
G1 X138.407 Y130.919 E.49869
;WIPE_START
G1 F8640
M73 P3 R77
M73 Q3 S78
G1 X138.407 Y136.679 E-1.33
;WIPE_END
G1 E-.07 F2100
G1 Z.4 F10800
G1 X140.921 Y126.223
G1 Z.2
G1 E1.4 F2100
G1 F1200
G1 X140.921 Y79.329 E1.47034
G1 X140.67 Y79.58 E.01115
G1 X140.502 Y79.58 E.00525
G1 X140.502 Y125.731 E1.44704
G1 X140.083 Y125.731 E.01314
M73 Q3 S77
G1 X140.083 Y79.58 E1.44704
G1 X139.664 Y79.58 E.01314
G1 X139.664 Y125.731 E1.44704
G1 X139.245 Y125.731 E.01314
G1 X139.245 Y79.58 E1.44704
G1 X138.826 Y79.58 E.01314
G1 X138.826 Y125.731 E1.44704
G1 X138.428 Y125.731 E.01248
G1 X138.407 Y125.752 E.00092
G1 X138.407 Y79.319 E1.45587
G1 X137.988 Y146.994 F10800
G1 F1200
G1 X137.988 Y63.176 E2.62807
G1 X137.569 Y63.176 E.01314
G1 X137.569 Y146.824 E2.62275
G1 X137.15 Y146.824 E.01314
G1 X137.15 Y63.176 E2.62275
G1 X136.731 Y63.176 E.01314
M73 P3 R76
G1 X136.731 Y146.824 E2.62275
G1 X136.312 Y146.824 E.01314
G1 X136.312 Y63.176 E2.62275
G1 X135.893 Y63.176 E.01314
G1 X135.893 Y146.824 E2.62275
G1 X135.474 Y146.824 E.01314
G1 X135.474 Y63.176 E2.62275
G1 X135.055 Y63.176 E.01314
G1 X135.055 Y146.824 E2.62275
G1 X134.636 Y146.824 E.01314
M73 P4 R76
M73 Q4 S77
G1 X134.636 Y63.176 E2.62275
G1 X134.217 Y63.176 E.01314
G1 X134.217 Y146.824 E2.62275
G1 X133.799 Y146.824 E.01314
G1 X133.799 Y63.176 E2.62275
G1 X133.38 Y63.176 E.01314
M73 Q4 S76
G1 X133.38 Y146.824 E2.62275
G1 X132.961 Y146.824 E.01314
G1 X132.961 Y63.176 E2.62275
G1 X132.542 Y63.176 E.01314
G1 X132.542 Y146.824 E2.62275
G1 X132.123 Y146.824 E.01314
G1 X132.123 Y63.176 E2.62275
G1 X131.704 Y63.176 E.01314
G1 X131.704 Y146.824 E2.62275
G1 X131.285 Y146.824 E.01314
G1 X131.285 Y63.176 E2.62275
G1 X130.866 Y63.176 E.01314
G1 X130.866 Y146.824 E2.62275
G1 X130.447 Y146.824 E.01314
M73 P4 R75
G1 X130.447 Y63.176 E2.62275
G1 X130.028 Y63.176 E.01314
M73 P5 R75
M73 Q5 S76
G1 X130.028 Y146.824 E2.62275
G1 X129.609 Y146.824 E.01314
G1 X129.609 Y63.176 E2.62275
G1 X129.19 Y63.176 E.01314
G1 X129.19 Y146.824 E2.62275
G1 X128.771 Y146.824 E.01314
G1 X128.771 Y91.76 E1.72652
G1 X128.51 Y92.194 E.01588
G1 X128.352 Y92.402 E.0082
G1 X128.352 Y146.824 E1.70637
G1 X127.933 Y146.824 E.01314
G1 X127.933 Y92.86 E1.69201
G1 X127.514 Y93.21 E.0171
G1 X127.514 Y146.824 E1.68106
G1 X127.095 Y146.824 E.01314
G1 X127.095 Y93.48 E1.67258
G1 X126.676 Y93.684 E.01462
M73 Q5 S75
G1 X126.676 Y146.824 E1.66618
G1 X126.257 Y146.824 E.01314
G1 X126.257 Y93.837 E1.66137
G1 X125.838 Y93.945 E.01356
G1 X125.838 Y146.824 E1.65801
G1 X125.419 Y146.824 E.01314
G1 X125.419 Y94.008 E1.65601
G1 X125 Y94.03 E.01315
G1 X125 Y146.824 E1.65533
G1 X124.581 Y146.824 E.01314
G1 X124.581 Y94.009 E1.656
G1 X124.162 Y93.945 E.01329
G1 X124.162 Y146.824 E1.658
G1 X123.743 Y146.824 E.01314
G1 X123.743 Y93.838 E1.66135
G1 X123.324 Y93.685 E.01399
M73 P6 R75
M73 Q6 S75
G1 X123.324 Y146.824 E1.66615
G1 X122.905 Y146.824 E.01314
G1 X122.905 Y93.481 E1.67255
G1 X122.486 Y93.211 E.01562
M73 P6 R74
G1 X122.486 Y146.824 E1.681
G1 X122.067 Y146.824 E.01314
G1 X122.067 Y92.862 E1.69194
G1 X121.648 Y92.405 E.01945
G1 X121.648 Y146.824 E1.70628
G1 X121.229 Y146.824 E.01314
G1 X121.229 Y91.372 E1.73866
;WIPE_START
G1 F8640
G1 X121.229 Y97.132 E-1.33
;WIPE_END
G1 E-.07 F2100
G1 Z.4 F10800
G1 X128.771 Y88.145
G1 Z.2
G1 E1.4 F2100
G1 F1200
G1 X128.771 Y63.176 E.78289
G1 X128.352 Y63.176 E.01314
G1 X128.352 Y87.11 E.75043
G1 X127.933 Y86.651 E.01947
G1 X127.933 Y63.176 E.73607
G1 X127.514 Y63.176 E.01314
G1 X127.514 Y86.302 E.72512
G1 X127.095 Y86.032 E.01563
G1 X127.095 Y63.176 E.71664
G1 X126.676 Y63.176 E.01314
G1 X126.676 Y85.828 E.71024
G1 X126.257 Y85.674 E.01399
G1 X126.257 Y63.176 E.70543
G1 X125.838 Y63.176 E.01314
G1 X125.838 Y85.567 E.70207
G1 X125.419 Y85.503 E.01329
G1 X125.419 Y63.176 E.70007
G1 X125 Y63.176 E.01314
G1 X125 Y85.481 E.69938
G1 X124.581 Y85.503 E.01315
G1 X124.581 Y63.176 E.70006
G1 X124.162 Y63.176 E.01314
G1 X124.162 Y85.567 E.70205
G1 X123.743 Y85.673 E.01356
G1 X123.743 Y63.176 E.7054
G1 X123.324 Y63.176 E.01314
G1 X123.324 Y85.827 E.71021
G1 X122.905 Y86.031 E.01461
G1 X122.905 Y63.176 E.7166
G1 X122.486 Y63.176 E.01314
G1 X122.486 Y86.3 E.72506
G1 X122.067 Y86.649 E.01709
G1 X122.067 Y63.176 E.736
G1 X121.648 Y63.176 E.01314
G1 X121.648 Y87.107 E.75034
G1 X121.488 Y87.318 E.00833
M73 Q6 S74
G1 X121.229 Y87.748 E.01571
G1 X121.229 Y63.176 E.77044
G1 X120.81 Y63.176 E.01314
G1 X120.81 Y146.824 E2.62275
G1 X120.391 Y146.824 E.01314
G1 X120.391 Y63.176 E2.62275
G1 X119.972 Y63.176 E.01314
M73 P7 R74
M73 Q7 S74
G1 X119.972 Y146.824 E2.62275
G1 X119.553 Y146.824 E.01314
G1 X119.553 Y63.176 E2.62275
G1 X119.134 Y63.176 E.01314
G1 X119.134 Y146.824 E2.62275
G1 X118.715 Y146.824 E.01314
G1 X118.715 Y63.176 E2.62275
G1 X118.296 Y63.176 E.01314
M73 P7 R73
G1 X118.296 Y146.824 E2.62275
G1 X117.877 Y146.824 E.01314
G1 X117.877 Y63.176 E2.62275
G1 X117.458 Y63.176 E.01314
G1 X117.458 Y146.824 E2.62275
G1 X117.039 Y146.824 E.01314
G1 X117.039 Y63.176 E2.62275
G1 X116.62 Y63.176 E.01314
G1 X116.62 Y146.824 E2.62275
G1 X116.201 Y146.824 E.01314
G1 X116.201 Y63.176 E2.62275
G1 X115.783 Y63.176 E.01314
G1 X115.783 Y146.824 E2.62275
G1 X115.364 Y146.824 E.01314
M73 P8 R73
G1 X115.364 Y63.176 E2.62275
G1 X114.945 Y63.176 E.01314
M73 Q8 S73
G1 X114.945 Y146.824 E2.62275
G1 X114.526 Y146.824 E.01314
G1 X114.526 Y63.176 E2.62275
G1 X114.107 Y63.176 E.01314
G1 X114.107 Y146.824 E2.62275
G1 X113.688 Y146.824 E.01314
G1 X113.688 Y63.176 E2.62275
G1 X113.269 Y63.176 E.01314
G1 X113.269 Y146.824 E2.62275
G1 X112.85 Y146.824 E.01314
G1 X112.85 Y63.176 E2.62275
G1 X112.431 Y63.176 E.01314
G1 X112.431 Y146.824 E2.62275
G1 X112.012 Y146.824 E.01314
M73 P8 R72
G1 X112.012 Y63.176 E2.62275
G1 X111.593 Y63.176 E.01314
G1 X111.593 Y74.155 E.34424
G1 X111.57 Y74.131 E.00103
G1 X111.174 Y74.131 E.01241
G1 X111.174 Y63.176 E.34351
G1 X110.755 Y63.176 E.01314
G1 X110.755 Y74.131 E.34351
G1 X110.336 Y74.131 E.01314
G1 X110.336 Y63.176 E.34351
G1 X109.917 Y63.176 E.01314
G1 X109.917 Y74.131 E.34351
G1 X109.498 Y74.131 E.01314
G1 X109.498 Y63.176 E.34351
G1 X109.079 Y63.176 E.01314
G1 X109.079 Y74.381 E.35133
G1 X108.874 Y74.585 E.00906
G1 X108.874 Y79.127 E.1424
G1 X109.079 Y79.331 E.00906
G1 X109.079 Y125.981 E1.46267
G1 X109.328 Y125.731 E.01105
G1 X109.498 Y125.731 E.00532
G1 X109.498 Y79.58 E1.44704
G1 X109.917 Y79.58 E.01314
G1 X109.917 Y125.731 E1.44704
G1 X110.336 Y125.731 E.01314
M73 P9 R72
G1 X110.336 Y79.58 E1.44704
G1 X110.755 Y79.58 E.01314
M73 Q9 S73
G1 X110.755 Y125.731 E1.44704
G1 X111.174 Y125.731 E.01314
G1 X111.174 Y79.58 E1.44704
G1 X111.57 Y79.58 E.01241
G1 X111.593 Y79.557 E.00103
G1 X111.593 Y125.995 E1.45602
G1 X111.593 Y146.994 F10800
G1 F1200
G1 X111.593 Y131.157 E.49656
G1 X111.57 Y131.18 E.00103
G1 X111.174 Y131.18 E.01241
G1 X111.174 Y146.824 E.49051
G1 X110.861 Y146.824 E.00982
G1 X110.861 Y144.517 E.07234
G1 X110.755 Y144.517 E.00332
G1 X110.755 Y131.18 E.41818
G1 X110.336 Y131.18 E.01314
G1 X110.336 Y144.517 E.41818
G1 X109.917 Y144.517 E.01314
G1 X109.917 Y131.18 E.41818
G1 X109.498 Y131.18 E.01314
G1 X109.498 Y144.517 E.41818
G1 X109.079 Y144.517 E.01314
M73 Q9 S72
