; generated by PrusaSlicer 2.4.0+win64 on 2022-02-11 at 03:02:11 UTC

; 

; external perimeters extrusion width = 0.45mm
; perimeters extrusion width = 0.45mm
; infill extrusion width = 0.45mm
; solid infill extrusion width = 0.45mm
; top infill extrusion width = 0.40mm
; support material extrusion width = 0.35mm
; first layer extrusion width = 0.42mm

M73 P0 R102
M73 Q0 S103
M201 X1000 Y1000 Z200 E5000 ; sets maximum accelerations, mm/sec^2
M203 X200 Y200 Z12 E120 ; sets maximum feedrates, mm/sec
M204 P1250 R1250 T1250 ; sets acceleration (P, T) and retract acceleration (R), mm/sec^2
M205 X8.00 Y8.00 Z0.40 E4.50 ; sets the jerk limits, mm/sec
M205 S0 T0 ; sets the minimum extruding and travel feed rate, mm/sec
M107
;TYPE:Custom
M862.3 P "MK3S" ; printer model check
M862.1 P0.4 ; nozzle diameter check
M115 U3.9.1 ; tell printer latest fw version
G90 ; use absolute coordinates
M83 ; extruder relative mode
M104 S230 ; set extruder temp
M140 S85 ; set bed temp
M190 S85 ; wait for bed temp
M109 S230 ; wait for extruder temp
G28 W ; home all without mesh bed level
G80 ; mesh bed leveling
G1 Y-3.0 F1000.0 ; go outside print area
G92 E0.0
G1 X60.0 E9.0 F1000.0 ; intro line
G1 X100.0 E12.5 F1000.0 ; intro line
G92 E0.0
M221 S95

; Don't change E values below. Excessive value can damage the printer.
M907 E430 ; set extruder motor current
G21 ; set units to millimeters
G90 ; use absolute coordinates
M83 ; use relative distances for extrusion
M900 K0.08 ; Filament gcode LA 1.5
M900 K45 ; Filament gcode LA 1.0
M107
;LAYER_CHANGE
;Z:0.2
;HEIGHT:0.2
;BEFORE_LAYER_CHANGE
G92 E0.0
;0.2


G1 E-1.4 F2100
G1 Z.2 F10800
;AFTER_LAYER_CHANGE
;0.2
G1 Z.4
G1 X101.432 Y74.49
G1 Z.2
M73 Q0 S102
G1 E1.4 F2100
M204 S1000
;TYPE:Skirt/Brim
;WIDTH:0.42
G1 F1200
G1 X113.574 Y59.059 E.61565
G1 X114.69 Y58.274 E.04278
G1 X115.442 Y58.152 E.02389
G1 X123.329 Y58.152 E.24729
G1 X124.584 Y58.51 E.0409
G1 X142.279 Y69.503 E.65317
G1 X144.346 Y70.881 E.07791
G1 X146.39 Y72.479 E.08134
G1 X148.302 Y74.233 E.08133
G1 X149.067 Y75.98 E.05982
G1 X148.377 Y141.015 E2.03926
G1 X147.631 Y144.965 E.12602
G1 X146.992 Y146.17 E.04278
G1 X145.3 Y146.877 E.05748
G1 X104.71 Y146.877 E1.27267
G1 X103.403 Y146.485 E.04278
G1 X102.38 Y144.973 E.05726
G1 X101.623 Y141.026 E.12601
G1 X100.923 Y75.96 E2.04021
G1 X101.412 Y74.547 E.04689
;WIPE_START
G1 F8640
G1 X104.97 Y70.017 E-1.33
;WIPE_END
G1 E-.07 F2100
G1 Z.4 F10800
G1 X113.7 Y68.758
G1 Z.2
G1 E1.4 F2100
;TYPE:Support material interface
;WIDTH:0.35
G1 F1200
G1 X113.465 Y68.845 E.00641
G1 X113.465 Y63.473 E.13719
G1 X113.844 Y63.473 E.00969
G1 X113.844 Y68.705 E.13361
G1 X114.351 Y68.519 E.01379
G1 X114.351 Y63.473 E.12885
G1 X114.858 Y63.473 E.01295
G1 X114.858 Y68.332 E.12409
G1 X115.209 Y68.204 E.00953
G1 X115.209 Y65.487 E.06936
G1 X115.366 Y65.331 E.00566
G1 X115.366 Y63.473 E.04744
G1 X115.719 Y63.473 E.00903
;WIPE_START
G1 F8640
G1 X115.366 Y63.473 E-.08163
G1 X115.366 Y65.331 E-.42904
G1 X115.209 Y65.487 E-.0512
G1 X115.209 Y68.204 E-.62725
G1 X114.858 Y68.332 E-.08618
G1 X114.858 Y68.096 E-.05469
;WIPE_END
G1 E-.07 F2100
G1 Z.4 F10800
G1 X115.474 Y65.222
G1 Z.2
G1 E1.4 F2100
G1 F1200
G1 X115.545 Y65.152 E.00255
G1 X115.873 Y65.152 E.00837
G1 X115.873 Y63.473 E.04287
G1 X116.38 Y63.473 E.01295
G1 X116.38 Y65.121 E.0421
G1 X116.887 Y65.121 E.01295
G1 X116.887 Y63.473 E.0421
G1 X117.394 Y63.473 E.01295
G1 X117.394 Y65.121 E.0421
G1 X117.447 Y65.121 E.00136
G1 X117.477 Y65.152 E.00109
G1 X117.901 Y65.152 E.01081
G1 X117.901 Y63.473 E.04287
G1 X118.079 Y63.473 E.00454
G1 X118.079 Y63.825 E.009
;WIPE_START
G1 F8640
G1 X118.079 Y63.473 E-.08142
G1 X117.901 Y63.473 E-.04108
G1 X117.901 Y65.152 E-.38768
G1 X117.477 Y65.152 E-.09779
G1 X117.447 Y65.121 E-.00984
G1 X117.394 Y65.121 E-.01233
G1 X117.394 Y63.473 E-.38074
G1 X116.887 Y63.473 E-.11709
G1 X116.887 Y64.348 E-.20205
;WIPE_END
G1 E-.07 F2100
G1 Z.4 F10800
G1 X117.702 Y65.888
G1 Z.2
G1 E1.4 F2100
;TYPE:Support material
;WIDTH:0.42
G1 F1200
G1 X117.702 Y65.515 E.0117
G1 X117.805 Y65.515 E.00324
G1 X117.928 Y65.638 E.00544
G1 X117.933 Y67.383 E.05474
G1 X117.595 Y67.46 E.01088
G1 X117.299 Y67.461 E.00926
G1 X117.299 Y67.538 E.00242
G1 X115.674 Y67.996 E.05292
G1 X115.572 Y67.996 E.00319
G1 X115.572 Y65.638 E.07394
G1 X115.695 Y65.515 E.00545
G1 X115.798 Y65.515 E.00323
G1 X115.798 Y65.888 E.0117
G1 X116.203 Y65.485 E.01792
G1 X117.297 Y65.485 E.0343
G1 X117.662 Y65.848 E.01614
G1 X117.458 Y67.291 F10800
G1 F1200
G1 X117.458 Y66.125 E.03657
G1 X117.157 Y65.824 E.01334
G1 X117.039 Y65.824 E.00368
G1 X117.039 Y67.122 E.04069
G1 X116.961 Y67.123 E.00245
G1 X116.961 Y67.28 E.00495
G1 X116.62 Y67.376 E.01108
G1 X116.62 Y65.824 E.04865
G1 X116.343 Y65.824 E.00869
G1 X116.201 Y65.966 E.00627
G1 X116.201 Y67.67 E.05344
;WIPE_START
G1 F8640
G1 X116.201 Y65.966 E-.39353
G1 X116.343 Y65.824 E-.04618
G1 X116.62 Y65.824 E-.06403
G1 X116.62 Y67.376 E-.35826
G1 X116.961 Y67.28 E-.08159
G1 X116.961 Y67.123 E-.03646
G1 X117.039 Y67.122 E-.01803
G1 X117.039 Y65.824 E-.29969
G1 X117.157 Y65.824 E-.02712
G1 X117.173 Y65.84 E-.00512
;WIPE_END
G1 E-.07 F2100
G1 Z.4 F10800
G1 X123.329 Y66.635
G1 Z.2
G1 E1.4 F2100
G1 F1200
G1 X122.548 Y66.666 E.02451
G1 X120.13 Y66.951 E.07633
G1 X118.442 Y67.283 E.05393
G1 X118.442 Y63.109 E.13086
G1 X115.442 Y63.109 E.09406
G1 X115.442 Y60.529 E.08089
G1 X123.329 Y60.529 E.24729
G1 X123.329 Y66.578 E.18967
G1 X122.905 Y66.482 F10800
G1 F1200
G1 X122.905 Y60.869 E.17599
G1 X122.486 Y60.869 E.01314
G1 X122.486 Y66.332 E.1713
G1 X122.067 Y66.382 E.01323
G1 X122.067 Y60.869 E.17286
G1 X121.648 Y60.869 E.01314
G1 X121.648 Y66.431 E.1744
G1 X121.229 Y66.48 E.01323
G1 X121.229 Y60.869 E.17595
G1 X120.81 Y60.869 E.01314
G1 X120.81 Y66.529 E.1775
G1 X120.391 Y66.579 E.01323
G1 X120.391 Y60.869 E.17904
G1 X119.972 Y60.869 E.01314
G1 X119.972 Y66.634 E.18078
G1 X119.553 Y66.717 E.01339
G1 X119.553 Y60.869 E.18336
G1 X119.134 Y60.869 E.01314
G1 X119.134 Y66.8 E.18596
G1 X118.782 Y66.869 E.01127
G1 X118.782 Y62.77 E.12855
G1 X118.715 Y62.77 E.00208
G1 X118.715 Y60.869 E.05961
G1 X118.296 Y60.869 E.01314
G1 X118.296 Y62.77 E.05961
G1 X117.877 Y62.77 E.01314
G1 X117.877 Y60.869 E.05961
G1 X117.458 Y60.869 E.01314
M73 P0 R101
G1 X117.458 Y62.77 E.05961
G1 X117.039 Y62.77 E.01314
G1 X117.039 Y60.869 E.05961
G1 X116.62 Y60.869 E.01314
G1 X116.62 Y62.77 E.05961
G1 X116.201 Y62.77 E.01314
G1 X116.201 Y60.869 E.05961
G1 X115.783 Y60.869 E.01314
G1 X115.783 Y62.939 E.06493
;WIPE_START
G1 F8640
G1 X115.783 Y60.869 E-.47814
G1 X116.201 Y60.869 E-.09674
G1 X116.201 Y62.77 E-.43896
G1 X116.62 Y62.77 E-.09674
G1 X116.62 Y61.819 E-.21941
;WIPE_END
G1 E-.07 F2100
G1 Z.4 F10800
G1 X118.715 Y83.6
G1 Z.2
G1 E1.4 F2100
G1 F1200
G1 X119.749 Y83.6 E.03243
G1 X119.749 Y81.293 E.07234
G1 X130.251 Y81.293 E.32925
G1 X130.251 Y83.6 E.07234
G1 X131.285 Y83.6 E.03243
G1 X131.285 Y81.293 E.07234
G1 X140.565 Y81.293 E.29097
G1 X140.565 Y105.636 E.76327
G1 X131.285 Y105.636 E.29097
G1 X131.285 Y94.101 E.36168
G1 X130.251 Y94.101 E.03243
G1 X130.251 Y96.408 E.07234
G1 X119.749 Y96.408 E.32925
G1 X119.749 Y94.101 E.07234
G1 X118.715 Y94.101 E.03243
G1 X118.715 Y105.636 E.36168
G1 X109.435 Y105.636 E.29097
G1 X109.435 Y81.293 E.76327
G1 X118.715 Y81.293 E.29097
G1 X118.715 Y83.543 E.07056
G1 X124.991 Y87.005 F10800
G1 F1200
G1 X124.585 Y87.057 E.01282
G1 X124.296 Y87.159 E.00959
G1 X124.041 Y87.304 E.00921
G1 X123.802 Y87.505 E.0098
G1 X123.614 Y87.731 E.00921
G1 X123.42 Y88.105 E.0132
G1 X123.339 Y88.407 E.0098
G1 X123.315 Y88.699 E.00921
G1 X123.342 Y88.992 E.00921
G1 X123.469 Y89.394 E.0132
G1 X123.614 Y89.649 E.00921
G1 X123.815 Y89.888 E.0098
G1 X124.041 Y90.076 E.00921
G1 X124.297 Y90.221 E.00921
G1 X124.698 Y90.348 E.0132
G1 X124.991 Y90.375 E.00921
G1 X125.302 Y90.348 E.0098
G1 X125.585 Y90.27 E.0092
G1 X125.851 Y90.144 E.00921
G1 X126.185 Y89.888 E.0132
G1 X126.386 Y89.649 E.0098
G1 X126.531 Y89.394 E.00921
G1 X126.658 Y88.992 E.0132
G1 X126.685 Y88.699 E.00921
G1 X126.658 Y88.388 E.0098
G1 X126.58 Y88.105 E.00921
G1 X126.392 Y87.742 E.01282
G1 X126.198 Y87.505 E.00959
G1 X125.974 Y87.315 E.00921
G1 X125.704 Y87.159 E.0098
G1 X125.427 Y87.06 E.00921
G1 X125.047 Y87.007 E.01203
;WIPE_START
G1 F8640
G1 X125.427 Y87.06 E-.08859
G1 X125.704 Y87.159 E-.06782
G1 X125.974 Y87.315 E-.07219
G1 X126.198 Y87.505 E-.06781
G1 X126.392 Y87.742 E-.07062
G1 X126.58 Y88.105 E-.09442
G1 X126.658 Y88.388 E-.06783
G1 X126.685 Y88.699 E-.07218
G1 X126.658 Y88.992 E-.06783
G1 X126.531 Y89.394 E-.09722
G1 X126.386 Y89.649 E-.06782
G1 X126.185 Y89.888 E-.07218
G1 X125.851 Y90.144 E-.09722
G1 X125.585 Y90.27 E-.06785
G1 X125.302 Y90.348 E-.06779
G1 X124.991 Y90.375 E-.0722
G1 X124.698 Y90.348 E-.06783
G1 X124.489 Y90.282 E-.05062
;WIPE_END
G1 E-.07 F2100
G1 Z.4 F10800
G1 X140.083 Y105.467
G1 Z.2
G1 E1.4 F2100
G1 F1200
G1 X140.083 Y81.632 E.74731
G1 X139.664 Y81.632 E.01314
G1 X139.664 Y105.297 E.74199
G1 X139.245 Y105.297 E.01314
G1 X139.245 Y81.632 E.74199
G1 X138.826 Y81.632 E.01314
G1 X138.826 Y105.297 E.74199
G1 X138.407 Y105.297 E.01314
G1 X138.407 Y81.632 E.74199
G1 X137.988 Y81.632 E.01314
G1 X137.988 Y105.297 E.74199
G1 X137.569 Y105.297 E.01314
G1 X137.569 Y81.632 E.74199
G1 X137.15 Y81.632 E.01314
G1 X137.15 Y105.297 E.74199
G1 X136.731 Y105.297 E.01314
G1 X136.731 Y81.632 E.74199
G1 X136.312 Y81.632 E.01314
G1 X136.312 Y105.297 E.74199
G1 X135.893 Y105.297 E.01314
G1 X135.893 Y81.632 E.74199
G1 X135.474 Y81.632 E.01314
G1 X135.474 Y105.297 E.74199
G1 X135.055 Y105.297 E.01314
G1 X135.055 Y81.632 E.74199
G1 X134.636 Y81.632 E.01314
G1 X134.636 Y105.297 E.74199
G1 X134.217 Y105.297 E.01314
G1 X134.217 Y81.632 E.74199
G1 X133.799 Y81.632 E.01314
G1 X133.799 Y105.297 E.74199
G1 X133.38 Y105.297 E.01314
G1 X133.38 Y81.632 E.74199
G1 X132.961 Y81.632 E.01314
G1 X132.961 Y105.297 E.74199
G1 X132.542 Y105.297 E.01314
M73 P1 R101
M73 Q1 S102
G1 X132.542 Y81.632 E.74199
G1 X132.123 Y81.632 E.01314
G1 X132.123 Y105.297 E.74199
G1 X131.704 Y105.297 E.01314
G1 X131.704 Y81.632 E.74199
G1 X131.624 Y81.632 E.00249
G1 X131.624 Y83.939 E.07234
G1 X131.285 Y83.939 E.01065
M73 Q1 S101
G1 X131.285 Y93.762 E.30797
G1 X130.866 Y93.762 E.01314
G1 X130.866 Y83.939 E.30797
G1 X130.447 Y83.939 E.01314
G1 X130.447 Y93.762 E.30797
G1 X130.028 Y93.762 E.01314
G1 X130.028 Y83.939 E.30797
G1 X129.911 Y83.939 E.00365
G1 X129.911 Y81.632 E.07234
G1 X129.609 Y81.632 E.00948
G1 X129.609 Y96.069 E.45265
G1 X129.19 Y96.069 E.01314
G1 X129.19 Y81.632 E.45265
G1 X128.771 Y81.632 E.01314
G1 X128.771 Y96.069 E.45265
G1 X128.352 Y96.069 E.01314
G1 X128.352 Y81.632 E.45265
G1 X127.933 Y81.632 E.01314
G1 X127.933 Y96.069 E.45265
G1 X127.514 Y96.069 E.01314
G1 X127.514 Y81.632 E.45265
G1 X127.095 Y81.632 E.01314
G1 X127.095 Y96.069 E.45265
G1 X126.676 Y96.069 E.01314
G1 X126.676 Y89.825 E.19577
G1 X126.443 Y90.11 E.01153
G1 X126.257 Y90.276 E.00783
G1 X126.257 Y96.069 E.18164
G1 X125.838 Y96.069 E.01314
G1 X125.838 Y90.533 E.17357
G1 X125.419 Y90.669 E.01382
G1 X125.419 Y96.069 E.16929
G1 X125 Y96.069 E.01314
G1 X125 Y90.714 E.16788
G1 X124.581 Y90.669 E.01321
G1 X124.581 Y96.069 E.16929
G1 X124.162 Y96.069 E.01314
G1 X124.162 Y90.533 E.17357
G1 X123.973 Y90.435 E.00668
G1 X123.743 Y90.276 E.00877
G1 X123.743 Y96.069 E.18164
G1 X123.324 Y96.069 E.01314
G1 X123.324 Y89.825 E.19577
G1 X123.158 Y89.53 E.0106
G1 X123.049 Y89.23 E.01001
G1 X122.985 Y88.883 E.01106
G1 X122.976 Y88.673 E.0066
G1 X123.003 Y88.355 E.01001
G1 X123.049 Y88.15 E.0066
G1 X123.158 Y87.85 E.01
G1 X123.324 Y87.555 E.0106
G1 X123.324 Y81.632 E.18571
G1 X123.743 Y81.632 E.01314
G1 X123.743 Y87.104 E.17157
G1 X123.973 Y86.945 E.00876
G1 X124.162 Y86.847 E.00668
G1 X124.162 Y81.632 E.16351
G1 X124.581 Y81.632 E.01314
G1 X124.581 Y86.711 E.15923
G1 X125 Y86.666 E.01321
G1 X125 Y81.632 E.15782
G1 X125.419 Y81.632 E.01314
G1 X125.419 Y86.711 E.15923
G1 X125.838 Y86.847 E.01382
G1 X125.838 Y81.632 E.16351
G1 X126.257 Y81.632 E.01314
G1 X126.257 Y87.104 E.17157
G1 X126.443 Y87.27 E.00783
G1 X126.676 Y87.555 E.01153
G1 X126.676 Y81.463 E.19103
;WIPE_START
G1 F8640
G1 X126.676 Y87.223 E-1.33
;WIPE_END
G1 E-.07 F2100
G1 Z.4 F10800
G1 X122.905 Y96.238
G1 Z.2
G1 E1.4 F2100
G1 F1200
G1 X122.905 Y81.632 E.45797
G1 X122.486 Y81.632 E.01314
G1 X122.486 Y96.069 E.45265
G1 X122.067 Y96.069 E.01314
G1 X122.067 Y81.632 E.45265
G1 X121.648 Y81.632 E.01314
G1 X121.648 Y96.069 E.45265
G1 X121.229 Y96.069 E.01314
G1 X121.229 Y81.632 E.45265
G1 X120.81 Y81.632 E.01314
G1 X120.81 Y96.069 E.45265
G1 X120.391 Y96.069 E.01314
G1 X120.391 Y81.632 E.45265
G1 X120.089 Y81.632 E.00948
G1 X120.089 Y83.939 E.07234
G1 X119.972 Y83.939 E.00365
G1 X119.972 Y93.762 E.30797
G1 X119.553 Y93.762 E.01314
G1 X119.553 Y83.939 E.30797
G1 X119.134 Y83.939 E.01314
G1 X119.134 Y93.762 E.30797
G1 X118.715 Y93.762 E.01314
G1 X118.715 Y83.939 E.30797
G1 X118.376 Y83.939 E.01065
G1 X118.376 Y81.632 E.07234
G1 X118.296 Y81.632 E.00249
G1 X118.296 Y105.297 E.74199
G1 X117.877 Y105.297 E.01314
G1 X117.877 Y81.632 E.74199
G1 X117.458 Y81.632 E.01314
G1 X117.458 Y105.297 E.74199
G1 X117.039 Y105.297 E.01314
M73 P1 R100
G1 X117.039 Y81.632 E.74199
G1 X116.62 Y81.632 E.01314
G1 X116.62 Y105.297 E.74199
G1 X116.201 Y105.297 E.01314
G1 X116.201 Y81.632 E.74199
G1 X115.783 Y81.632 E.01314
G1 X115.783 Y105.297 E.74199
G1 X115.364 Y105.297 E.01314
G1 X115.364 Y81.632 E.74199
G1 X114.945 Y81.632 E.01314
G1 X114.945 Y105.297 E.74199
G1 X114.526 Y105.297 E.01314
G1 X114.526 Y81.632 E.74199
G1 X114.107 Y81.632 E.01314
G1 X114.107 Y105.297 E.74199
G1 X113.688 Y105.297 E.01314
G1 X113.688 Y81.632 E.74199
G1 X113.269 Y81.632 E.01314
G1 X113.269 Y105.297 E.74199
G1 X112.85 Y105.297 E.01314
G1 X112.85 Y81.632 E.74199
G1 X112.431 Y81.632 E.01314
G1 X112.431 Y105.297 E.74199
G1 X112.012 Y105.297 E.01314
G1 X112.012 Y81.632 E.74199
G1 X111.593 Y81.632 E.01314
G1 X111.593 Y105.297 E.74199
G1 X111.174 Y105.297 E.01314
G1 X111.174 Y81.632 E.74199
G1 X110.755 Y81.632 E.01314
G1 X110.755 Y105.297 E.74199
G1 X110.336 Y105.297 E.01314
G1 X110.336 Y81.632 E.74199
G1 X109.917 Y81.632 E.01314
G1 X109.917 Y105.467 E.74731
;WIPE_START
G1 F8640
G1 X109.917 Y99.707 E-1.33
;WIPE_END
G1 E-.07 F2100
G1 Z.4 F10800
G1 X118.715 Y121.786
G1 Z.2
G1 E1.4 F2100
G1 F1200
G1 X109.435 Y121.786 E.29097
G1 X109.435 Y106.671 E.47393
G1 X118.715 Y106.671 E.29097
G1 X118.715 Y121.729 E.47215
G1 X118.296 Y121.616 F10800
G1 F1200
G1 X118.296 Y107.01 E.45797
G1 X117.877 Y107.01 E.01314
G1 X117.877 Y121.447 E.45265
G1 X117.458 Y121.447 E.01314
G1 X117.458 Y107.01 E.45265
G1 X117.039 Y107.01 E.01314
G1 X117.039 Y121.447 E.45265
G1 X116.62 Y121.447 E.01314
G1 X116.62 Y107.01 E.45265
G1 X116.201 Y107.01 E.01314
G1 X116.201 Y121.447 E.45265
G1 X115.783 Y121.447 E.01314
G1 X115.783 Y107.01 E.45265
G1 X115.364 Y107.01 E.01314
G1 X115.364 Y121.447 E.45265
G1 X114.945 Y121.447 E.01314
G1 X114.945 Y107.01 E.45265
G1 X114.526 Y107.01 E.01314
G1 X114.526 Y121.447 E.45265
G1 X114.107 Y121.447 E.01314
M73 P2 R100
M73 Q2 S101
G1 X114.107 Y107.01 E.45265
G1 X113.688 Y107.01 E.01314
G1 X113.688 Y121.447 E.45265
G1 X113.269 Y121.447 E.01314
G1 X113.269 Y107.01 E.45265
G1 X112.85 Y107.01 E.01314
M73 Q2 S100
G1 X112.85 Y121.447 E.45265
G1 X112.431 Y121.447 E.01314
G1 X112.431 Y107.01 E.45265
G1 X112.012 Y107.01 E.01314
G1 X112.012 Y121.447 E.45265
G1 X111.593 Y121.447 E.01314
G1 X111.593 Y107.01 E.45265
G1 X111.174 Y107.01 E.01314
G1 X111.174 Y121.447 E.45265
G1 X110.755 Y121.447 E.01314
G1 X110.755 Y107.01 E.45265
G1 X110.336 Y107.01 E.01314
G1 X110.336 Y121.447 E.45265
G1 X109.917 Y121.447 E.01314
G1 X109.917 Y106.84 E.45797
;WIPE_START
G1 F8640
G1 X109.917 Y112.6 E-1.33
;WIPE_END
G1 E-.07 F2100
G1 Z.4 F10800
G1 X140.565 Y121.786
G1 Z.2
G1 E1.4 F2100
G1 F1200
G1 X131.285 Y121.786 E.29097
G1 X131.285 Y106.671 E.47393
G1 X140.565 Y106.671 E.29097
G1 X140.565 Y121.729 E.47215
G1 X140.083 Y121.616 F10800
G1 F1200
G1 X140.083 Y107.01 E.45797
G1 X139.664 Y107.01 E.01314
G1 X139.664 Y121.447 E.45265
G1 X139.245 Y121.447 E.01314
G1 X139.245 Y107.01 E.45265
G1 X138.826 Y107.01 E.01314
