; generated by PrusaSlicer 2.3.0+win64 on 2021-03-07 at 20:20:36 UTC

; 

; external perimeters extrusion width = 0.45mm
; perimeters extrusion width = 0.45mm
; infill extrusion width = 0.45mm
; solid infill extrusion width = 0.45mm
; top infill extrusion width = 0.40mm
; first layer extrusion width = 0.42mm

M73 P0 R20
M73 Q0 S20
M201 X1000 Y1000 Z200 E5000 ; sets maximum accelerations, mm/sec^2
M203 X200 Y200 Z12 E120 ; sets maximum feedrates, mm/sec
M204 P1250 R1250 T1250 ; sets acceleration (P, T) and retract acceleration (R), mm/sec^2
M205 X8.00 Y8.00 Z0.40 E4.50 ; sets the jerk limits, mm/sec
M205 S0 T0 ; sets the minimum extruding and travel feed rate, mm/sec
M107
;TYPE:Custom
M862.3 P "MK3S" ; printer model check
M862.1 P0.4 ; nozzle diameter check
M115 U3.9.1 ; tell printer latest fw version
G90 ; use absolute coordinates
M83 ; extruder relative mode
M104 S215 ; set extruder temp
M140 S60 ; set bed temp
M190 S60 ; wait for bed temp
M109 S215 ; wait for extruder temp
G28 W ; home all without mesh bed level
G80 ; mesh bed leveling
G1 Y-3.0 F1000.0 ; go outside print area
G92 E0.0
G1 X60.0 E9.0 F1000.0 ; intro line
G1 X100.0 E12.5 F1000.0 ; intro line
G92 E0.0
M221 S95

; Don't change E values below. Excessive value can damage the printer.
M907 E430 ; set extruder motor current
G21 ; set units to millimeters
G90 ; use absolute coordinates
M83 ; use relative distances for extrusion
M900 K0.05 ; Filament gcode LA 1.5
M900 K30 ; Filament gcode LA 1.0
;LAYER_CHANGE
;Z:0.2
;HEIGHT:0.2
;BEFORE_LAYER_CHANGE
G92 E0.0
;0.2


G1 E-0.80000 F2100.000
G1 Z0.600 F10800.000
;AFTER_LAYER_CHANGE
;0.2
G1 X154.159 Y96.797
G1 Z0.200
G1 E0.80000 F2100.000
M204 S1000
;TYPE:Skirt
;WIDTH:0.42
G1 F1200.000
G1 X154.678 Y97.548 E0.02860
G1 X154.876 Y98.434 E0.02849
G1 X154.859 Y111.789 E0.41872
G1 X154.658 Y112.497 E0.02308
G1 X154.252 Y113.106 E0.02296
G1 X153.680 Y113.563 E0.02296
G1 X152.993 Y113.825 E0.02308
G1 X152.505 Y113.877 E0.01538
G1 X112.496 Y113.877 E1.25444
G1 X110.997 Y113.734 E0.04722
G1 X109.836 Y113.457 E0.03743
G1 X108.134 Y112.718 E0.05818
G1 X106.823 Y111.818 E0.04987
G1 X106.289 Y111.314 E0.02301
G1 X105.271 Y110.146 E0.04859
G1 X104.378 Y108.552 E0.05728
G1 X104.071 Y107.743 E0.02712
G1 X103.755 Y106.465 E0.04127
G1 X103.660 Y105.677 E0.02490
G1 X103.657 Y104.430 E0.03910
G1 X103.763 Y103.497 E0.02944
G1 X104.289 Y101.640 E0.06051
G1 X105.276 Y99.846 E0.06421
G1 X106.653 Y98.324 E0.06434
G1 X107.943 Y97.392 E0.04990
G1 X108.903 Y96.901 E0.03380
G1 X109.791 Y96.560 E0.02984
G1 X110.853 Y96.292 E0.03435
G1 X112.490 Y96.123 E0.05160
G1 X152.504 Y96.123 E1.25459
M73 P1 R20
M73 Q1 S20
G1 X153.395 Y96.298 E0.02849
G1 X154.109 Y96.765 E0.02672
;WIPE_START
G1 F8640.000
G1 X154.678 Y97.548 E-0.22354
G1 X154.876 Y98.434 E-0.20978
G1 X154.874 Y99.849 E-0.32667
;WIPE_END
G1 E-0.04000 F2100.000
G1 Z0.800 F10800.000
G1 X109.547 Y108.880
G1 Z0.200
G1 E0.80000 F2100.000
;TYPE:Perimeter
G1 F1200.000
G1 X109.671 Y108.070 E0.02568
G1 X110.200 Y106.830 E0.04226
G1 X110.465 Y106.298 E0.01865
G1 X109.956 Y106.071 E0.01748
G1 X109.090 Y105.558 E0.03157
G1 X108.657 Y105.217 E0.01729
G1 X108.431 Y104.983 E0.01018
G1 X108.250 Y104.722 E0.00997
G1 X108.131 Y104.426 E0.00998
G1 X108.114 Y103.964 E0.01450
G1 X108.274 Y103.601 E0.01243
G1 X108.563 Y103.253 E0.01419
G1 X108.594 Y103.249 E0.00098
G1 X108.678 Y103.147 E0.00417
G1 X110.397 Y103.292 E0.05407
G1 X110.736 Y102.805 E0.01860
G1 X111.246 Y103.410 E0.02482
G1 X111.241 Y102.760 E0.02039
G1 X111.290 Y102.028 E0.02299
G1 X111.393 Y101.362 E0.02112
G1 X111.483 Y101.131 E0.00778
G1 X111.690 Y100.838 E0.01124
G1 X112.072 Y100.546 E0.01508
G1 X112.429 Y100.519 E0.01124
G1 X112.712 Y100.577 E0.00906
G1 X112.930 Y100.693 E0.00773
G1 X113.168 Y100.899 E0.00985
G1 X113.575 Y101.489 E0.02248
G1 X113.930 Y102.281 E0.02723
G1 X114.182 Y103.315 E0.03336
G1 X114.338 Y103.279 E0.00501
G1 X115.015 Y103.210 E0.02133
G1 X115.852 Y103.254 E0.02629
G1 X116.467 Y103.422 E0.01997
G1 X116.876 Y103.656 E0.01479
G1 X117.111 Y103.952 E0.01187
G1 X117.217 Y104.255 E0.01004
G1 X117.202 Y104.548 E0.00923
G1 X117.065 Y104.874 E0.01106
G1 X116.871 Y105.087 E0.00905
G1 X116.481 Y105.352 E0.01480
G1 X115.805 Y105.671 E0.02344
G1 X114.989 Y105.992 E0.02749
G1 X115.385 Y106.555 E0.02160
G1 X115.822 Y107.259 E0.02596
G1 X116.066 Y107.801 E0.01863
G1 X116.102 Y108.107 E0.00967
G1 X116.048 Y108.557 E0.01421
G1 X115.684 Y108.830 E0.01428
G1 X115.477 Y108.921 E0.00708
G1 X115.205 Y108.984 E0.00876
G1 X114.698 Y108.985 E0.01589
G1 X114.351 Y108.896 E0.01124
G1 X114.041 Y108.772 E0.01046
G1 X113.541 Y108.481 E0.01814
G1 X113.249 Y108.270 E0.01130
G1 X112.756 Y107.822 E0.02088
G1 X112.408 Y108.222 E0.01663
G1 X112.045 Y108.543 E0.01519
G1 X111.816 Y108.711 E0.00891
G1 X111.189 Y109.030 E0.02206
G1 X110.805 Y109.146 E0.01258
G1 X110.384 Y109.194 E0.01327
G1 X109.603 Y108.901 E0.02617
G1 X109.966 Y108.634 F10800.000
;TYPE:External perimeter
G1 F1200.000
G1 X110.037 Y108.175 E0.01458
G1 X110.543 Y106.989 E0.04043
G1 X110.967 Y106.109 E0.03063
G1 X110.129 Y105.736 E0.02874
G1 X109.303 Y105.247 E0.03010
G1 X108.910 Y104.937 E0.01570
G1 X108.724 Y104.743 E0.00842
G1 X108.584 Y104.542 E0.00770
G1 X108.505 Y104.347 E0.00658
G1 X108.494 Y104.037 E0.00972
G1 X108.598 Y103.801 E0.00808
G1 X108.754 Y103.613 E0.00767
G1 X108.786 Y103.610 E0.00099
G1 X108.844 Y103.539 E0.00285
G1 X110.582 Y103.686 E0.05470
G1 X110.765 Y103.424 E0.01002
G1 X111.044 Y103.755 E0.01360
G1 X111.627 Y103.914 E0.01895
G1 X111.618 Y102.771 E0.03584
G1 X111.665 Y102.069 E0.02204
G1 X111.759 Y101.460 E0.01932
G1 X111.817 Y101.311 E0.00503
G1 X111.964 Y101.103 E0.00798
G1 X112.212 Y100.914 E0.00977
G1 X112.405 Y100.899 E0.00608
G1 X112.583 Y100.936 E0.00569
G1 X112.715 Y101.006 E0.00470
G1 X112.885 Y101.153 E0.00701
G1 X113.245 Y101.675 E0.01989
G1 X113.572 Y102.404 E0.02507
G1 X113.828 Y103.453 E0.03385
G1 X113.828 Y103.804 E0.01099
G1 X113.956 Y103.755 E0.00431
G1 X114.400 Y103.652 E0.01429
G1 X115.026 Y103.588 E0.01973
G1 X115.784 Y103.627 E0.02379
G1 X116.321 Y103.773 E0.01746
G1 X116.626 Y103.947 E0.01100
G1 X116.776 Y104.137 E0.00760
G1 X116.837 Y104.309 E0.00573
G1 X116.829 Y104.463 E0.00483
G1 X116.743 Y104.668 E0.00696
G1 X116.622 Y104.800 E0.00562
G1 X116.293 Y105.024 E0.01247
G1 X115.652 Y105.326 E0.02222
G1 X114.399 Y105.809 E0.04213
G1 X115.071 Y106.764 E0.03660
G1 X115.489 Y107.437 E0.02483
G1 X115.698 Y107.902 E0.01601
G1 X115.722 Y108.107 E0.00645
G1 X115.693 Y108.352 E0.00776
G1 X115.492 Y108.503 E0.00786
G1 X115.358 Y108.562 E0.00460
G1 X115.161 Y108.607 E0.00631
G1 X114.745 Y108.608 E0.01307
G1 X114.468 Y108.537 E0.00895
G1 X114.207 Y108.432 E0.00882
G1 X113.747 Y108.164 E0.01670
G1 X113.487 Y107.977 E0.01005
G1 X112.688 Y107.240 E0.03406
G1 X112.442 Y107.614 E0.01406
G1 X112.141 Y107.955 E0.01426
G1 X111.809 Y108.249 E0.01390
G1 X111.618 Y108.389 E0.00742
G1 X111.048 Y108.679 E0.02004
G1 X110.729 Y108.775 E0.01046
G1 X110.432 Y108.809 E0.00937
G1 X110.022 Y108.655 E0.01371
G1 X109.571 Y108.569 F10800.000
;WIPE_START
G1 F8640.000
G1 X110.037 Y108.175 E-0.11105
G1 X110.543 Y106.989 E-0.29772
G1 X110.967 Y106.109 E-0.22554
G1 X110.469 Y105.887 E-0.12569
;WIPE_END
G1 E-0.04000 F2100.000
G1 Z0.800 F10800.000
G1 X151.713 Y110.313
G1 Z0.200
G1 E0.80000 F2100.000
;TYPE:Perimeter
G1 F1200.000
G1 X112.538 Y110.313 E1.22832
G1 X111.257 Y110.161 E0.04043
G1 X109.993 Y109.676 E0.04246
G1 X108.992 Y108.984 E0.03814
G1 X108.141 Y108.028 E0.04013
G1 X107.545 Y106.901 E0.03998
G1 X107.235 Y105.665 E0.03994
G1 X107.235 Y104.335 E0.04170
G1 X107.545 Y103.099 E0.03997
G1 X108.112 Y102.019 E0.03823
G1 X108.994 Y101.015 E0.04189
G1 X110.061 Y100.286 E0.04053
G1 X111.180 Y99.861 E0.03753
G1 X112.485 Y99.690 E0.04127
G1 X151.713 Y99.687 E1.22996
M73 Q2 S20
G1 X151.713 Y110.253 E0.33128
M73 P2 R19
G1 X152.090 Y110.690 F10800.000
;TYPE:External perimeter
G1 F1200.000
G1 X112.515 Y110.690 E1.24084
M73 Q2 S19
G1 X111.192 Y110.533 E0.04178
G1 X111.098 Y110.511 E0.00302
G1 X109.814 Y110.011 E0.04319
G1 X108.741 Y109.268 E0.04095
G1 X107.829 Y108.245 E0.04297
G1 X107.190 Y107.037 E0.04285
G1 X106.858 Y105.711 E0.04283
G1 X106.858 Y104.289 E0.04462
G1 X107.190 Y102.963 E0.04284
G1 X107.799 Y101.804 E0.04106
G1 X108.741 Y100.732 E0.04475
G1 X109.822 Y99.983 E0.04123
G1 X109.910 Y99.940 E0.00306
G1 X111.087 Y99.493 E0.03949
G1 X112.460 Y99.313 E0.04342
G1 X152.090 Y99.310 E1.24256
G1 X152.090 Y110.630 E0.35493
G1 X151.692 Y110.653 F10800.000
;WIPE_START
G1 F8640.000
G1 X148.799 Y110.635 E-0.76000
;WIPE_END
G1 E-0.04000 F2100.000
G1 Z0.800 F10800.000
G1 X150.830 Y99.800
G1 Z0.200
G1 E0.80000 F2100.000
;TYPE:Solid infill
;WIDTH:0.423685
G1 F1200.000
G1 X151.430 Y100.401 E0.02688
G1 X151.430 Y100.939 E0.01705
G1 X150.461 Y99.970 E0.04339
G1 X149.923 Y99.970 E0.01705
G1 X151.430 Y101.478 E0.06750
G1 X151.430 Y102.016 E0.01705
G1 X149.384 Y99.970 E0.09161
G1 X148.846 Y99.970 E0.01705
G1 X151.430 Y102.555 E0.11572
G1 X151.430 Y103.093 E0.01705
G1 X148.307 Y99.970 E0.13983
G1 X147.769 Y99.970 E0.01705
G1 X151.430 Y103.632 E0.16393
G1 X151.430 Y104.170 E0.01705
G1 X147.230 Y99.970 E0.18804
G1 X146.692 Y99.970 E0.01705
G1 X151.430 Y104.709 E0.21215
G1 X151.430 Y105.247 E0.01705
G1 X146.154 Y99.970 E0.23626
G1 X145.615 Y99.970 E0.01705
G1 X151.430 Y105.785 E0.26037
G1 X151.430 Y106.324 E0.01705
G1 X145.077 Y99.970 E0.28448
G1 X144.538 Y99.971 E0.01705
G1 X151.430 Y106.862 E0.30859
G1 X151.430 Y107.401 E0.01705
G1 X144.000 Y99.971 E0.33269
G1 X143.461 Y99.971 E0.01705
G1 X151.430 Y107.939 E0.35680
G1 X151.430 Y108.478 E0.01705
G1 X142.923 Y99.971 E0.38091
M73 Q3 S19
G1 X142.384 Y99.971 E0.01705
G1 X151.430 Y109.016 E0.40502
M73 P3 R19
G1 X151.430 Y109.555 E0.01705
G1 X141.846 Y99.971 E0.42913
G1 X141.308 Y99.971 E0.01705
G1 X151.367 Y110.030 E0.45041
G1 X150.828 Y110.030 E0.01705
G1 X140.769 Y99.971 E0.45041
G1 X140.231 Y99.971 E0.01705
G1 X150.290 Y110.030 E0.45040
G1 X149.751 Y110.030 E0.01705
G1 X139.692 Y99.971 E0.45040
G1 X139.154 Y99.971 E0.01705
G1 X149.213 Y110.030 E0.45040
G1 X148.674 Y110.030 E0.01705
G1 X138.615 Y99.971 E0.45040
G1 X138.077 Y99.971 E0.01705
G1 X148.136 Y110.030 E0.45040
G1 X147.598 Y110.030 E0.01705
G1 X137.538 Y99.971 E0.45039
G1 X137.000 Y99.971 E0.01705
G1 X147.059 Y110.030 E0.45039
G1 X146.521 Y110.030 E0.01705
G1 X136.462 Y99.971 E0.45039
G1 X135.923 Y99.971 E0.01705
G1 X145.982 Y110.030 E0.45039
G1 X145.444 Y110.030 E0.01705
G1 X135.385 Y99.971 E0.45039
G1 X134.846 Y99.971 E0.01705
G1 X144.905 Y110.030 E0.45038
G1 X144.367 Y110.030 E0.01705
G1 X134.308 Y99.971 E0.45038
M73 Q4 S19
G1 X133.769 Y99.971 E0.01705
G1 X143.828 Y110.030 E0.45038
M73 P4 R19
G1 X143.290 Y110.030 E0.01705
G1 X133.231 Y99.971 E0.45038
G1 X132.693 Y99.972 E0.01705
G1 X142.751 Y110.030 E0.45038
G1 X142.213 Y110.030 E0.01705
G1 X132.154 Y99.972 E0.45037
G1 X131.616 Y99.972 E0.01705
G1 X141.674 Y110.030 E0.45037
G1 X141.136 Y110.030 E0.01705
G1 X131.077 Y99.972 E0.45037
G1 X130.539 Y99.972 E0.01705
G1 X140.597 Y110.030 E0.45037
G1 X140.059 Y110.030 E0.01705
G1 X130.000 Y99.972 E0.45037
G1 X129.462 Y99.972 E0.01705
G1 X139.520 Y110.030 E0.45036
G1 X138.982 Y110.030 E0.01705
G1 X128.923 Y99.972 E0.45036
G1 X128.385 Y99.972 E0.01705
G1 X138.443 Y110.030 E0.45036
G1 X137.905 Y110.030 E0.01705
G1 X127.847 Y99.972 E0.45036
G1 X127.308 Y99.972 E0.01705
G1 X137.366 Y110.030 E0.45036
G1 X136.828 Y110.030 E0.01705
G1 X126.770 Y99.972 E0.45035
G1 X126.231 Y99.972 E0.01705
G1 X136.289 Y110.030 E0.45035
G1 X135.751 Y110.030 E0.01705
G1 X125.693 Y99.972 E0.45035
M73 Q5 S19
G1 X125.154 Y99.972 E0.01705
G1 X135.212 Y110.030 E0.45035
M73 P5 R19
G1 X134.674 Y110.030 E0.01705
G1 X124.616 Y99.972 E0.45035
G1 X124.078 Y99.972 E0.01705
G1 X134.135 Y110.030 E0.45034
G1 X133.597 Y110.030 E0.01705
G1 X123.539 Y99.972 E0.45034
G1 X123.001 Y99.972 E0.01705
G1 X133.058 Y110.030 E0.45034
G1 X132.520 Y110.030 E0.01705
G1 X122.462 Y99.972 E0.45034
G1 X121.924 Y99.972 E0.01705
G1 X131.982 Y110.030 E0.45034
G1 X131.443 Y110.030 E0.01705
G1 X121.385 Y99.972 E0.45033
G1 X120.847 Y99.972 E0.01705
G1 X130.905 Y110.030 E0.45033
G1 X130.366 Y110.030 E0.01705
G1 X120.308 Y99.973 E0.45033
G1 X119.770 Y99.973 E0.01705
G1 X129.828 Y110.030 E0.45033
G1 X129.289 Y110.030 E0.01705
G1 X119.232 Y99.973 E0.45033
G1 X118.693 Y99.973 E0.01705
G1 X128.751 Y110.030 E0.45032
G1 X128.212 Y110.030 E0.01705
G1 X118.155 Y99.973 E0.45032
G1 X117.616 Y99.973 E0.01705
G1 X127.674 Y110.030 E0.45032
G1 X127.135 Y110.030 E0.01705
G1 X117.078 Y99.973 E0.45032
M73 Q6 S19
G1 X116.539 Y99.973 E0.01705
G1 X126.597 Y110.030 E0.45032
M73 P6 R19
G1 X126.058 Y110.030 E0.01705
G1 X116.001 Y99.973 E0.45031
G1 X115.463 Y99.973 E0.01705
G1 X125.520 Y110.030 E0.45031
G1 X124.981 Y110.030 E0.01705
G1 X114.924 Y99.973 E0.45031
G1 X114.386 Y99.973 E0.01705
G1 X124.443 Y110.030 E0.45031
G1 X123.904 Y110.030 E0.01705
G1 X113.847 Y99.973 E0.45031
G1 X113.309 Y99.973 E0.01705
G1 X116.463 Y103.128 E0.14125
G1 X116.576 Y103.158 E0.00368
G1 X117.064 Y103.437 E0.01780
G1 X117.363 Y103.814 E0.01522
G1 X117.477 Y104.142 E0.01100
G1 X123.366 Y110.030 E0.26365
G1 X122.827 Y110.030 E0.01705
G1 X117.461 Y104.664 E0.24029
G1 X117.297 Y105.039 E0.01295
G1 X122.289 Y110.030 E0.22349
G1 X121.750 Y110.030 E0.01705
G1 X117.037 Y105.317 E0.21105
G1 X116.716 Y105.534 E0.01227
G1 X121.212 Y110.030 E0.20130
G1 X120.673 Y110.030 E0.01705
G1 X116.363 Y105.720 E0.19298
G1 X115.998 Y105.893 E0.01281
G1 X120.135 Y110.030 E0.18524
G1 X119.596 Y110.030 E0.01705
G1 X115.616 Y106.049 E0.17823
G1 X115.427 Y106.124 E0.00642
G1 X115.621 Y106.399 E0.01068
G1 X115.939 Y106.911 E0.01908
G1 X119.058 Y110.030 E0.13964
G1 X118.519 Y110.030 E0.01705
G1 X116.359 Y107.869 E0.09675
G1 X116.386 Y108.107 E0.00759
G1 X116.351 Y108.401 E0.00935
G1 X117.981 Y110.030 E0.07296
G1 X117.442 Y110.030 E0.01705
G1 X116.205 Y108.793 E0.05540
G1 X115.897 Y109.023 E0.01218
G1 X116.904 Y110.030 E0.04507
G1 X116.365 Y110.030 E0.01705
G1 X115.534 Y109.199 E0.03724
G1 X115.237 Y109.267 E0.00965
G1 X115.064 Y109.267 E0.00548
G1 X115.827 Y110.030 E0.03417
G1 X115.289 Y110.030 E0.01705
G1 X114.480 Y109.221 E0.03622
G1 X114.262 Y109.166 E0.00710
G1 X113.916 Y109.027 E0.01181
G1 X113.510 Y108.790 E0.01488
G1 X114.750 Y110.030 E0.05552
G1 X114.212 Y110.030 E0.01705
G1 X112.606 Y108.425 E0.07189
G1 X112.320 Y108.677 E0.01208
G1 X113.673 Y110.030 E0.06057
G1 X113.135 Y110.030 E0.01705
G1 X112.018 Y108.913 E0.05000
G1 X111.669 Y109.103 E0.01257
G1 X112.596 Y110.030 E0.04151
G1 X111.991 Y109.963 E0.01929
G1 X111.312 Y109.285 E0.03037
G1 X110.901 Y109.412 E0.01363
G1 X111.573 Y110.084 E0.03011
;WIPE_START
G1 F8640.000
G1 X110.901 Y109.412 E-0.21960
G1 X111.312 Y109.285 E-0.09941
G1 X111.991 Y109.963 E-0.22151
G1 X112.596 Y110.030 E-0.14065
G1 X112.355 Y109.789 E-0.07883
;WIPE_END
G1 E-0.04000 F2100.000
G1 Z0.800 F10800.000
G1 X110.207 Y106.564
G1 Z0.200
G1 E0.80000 F2100.000
G1 F1200.000
G1 X109.686 Y106.043 E0.02333
;WIPE_START
G1 F8640.000
G1 X110.207 Y106.564 E-0.17015
;WIPE_END
G1 E-0.62985 F2100.000
G1 Z0.800 F10800.000
G1 X115.965 Y103.168
G1 Z0.200
G1 E0.80000 F2100.000
G1 F1200.000
G1 X112.770 Y99.973 E0.14304
G1 X112.503 Y99.973 E0.00845
G1 X112.263 Y100.005 E0.00767
G1 X112.504 Y100.246 E0.01079
G1 X112.810 Y100.309 E0.00987
G1 X113.091 Y100.459 E0.01010
G1 X113.380 Y100.709 E0.01209
G1 X113.822 Y101.350 E0.02466
G1 X113.996 Y101.738 E0.01347
G1 X115.195 Y102.936 E0.05367
G1 X115.008 Y102.926 E0.00593
G1 X114.680 Y102.960 E0.01043
G1 X114.061 Y102.341 E0.02769
;WIPE_START
G1 F8640.000
G1 X114.680 Y102.960 E-0.20198
G1 X115.008 Y102.926 E-0.07609
G1 X115.195 Y102.936 E-0.04328
G1 X113.996 Y101.738 E-0.39142
G1 X113.913 Y101.551 E-0.04723
;WIPE_END
G1 E-0.04000 F2100.000
G1 Z0.800 F10800.000
G1 X112.147 Y100.427
G1 Z0.200
M73 Q7 S19
G1 E0.80000 F2100.000
G1 F1200.000
G1 X111.787 Y100.067 E0.01613
G1 X111.311 Y100.129 E0.01520
G1 X111.675 Y100.493 E0.01630
G1 X111.484 Y100.640 E0.00762
G1 X111.400 Y100.757 E0.00456
G1 X110.909 Y100.266 E0.02198
G1 X110.519 Y100.414 E0.01322
G1 X111.195 Y101.090 E0.03027
