; generated by PrusaSlicer 2.4.1+win64 on 2022-04-12 at 02:44:35 UTC

; 

; external perimeters extrusion width = 0.45mm
; perimeters extrusion width = 0.45mm
; infill extrusion width = 0.45mm
; solid infill extrusion width = 0.45mm
; top infill extrusion width = 0.40mm
; support material extrusion width = 0.35mm
; first layer extrusion width = 0.42mm

M73 P0 R55
M73 Q0 S56
M107
;TYPE:Custom
M862.3 P "MK3S" ; printer model check
M862.1 P0.4 ; nozzle diameter check
M115 U3.9.1 ; tell printer latest fw version
G90 ; use absolute coordinates
M83 ; extruder relative mode
M104 S215 ; set extruder temp
M140 S60 ; set bed temp
M190 S60 ; wait for bed temp
M109 S215 ; wait for extruder temp
G28 W ; home all without mesh bed level
G80 ; mesh bed leveling
G1 Y-3.0 F1000.0 ; go outside print area
G92 E0.0
G1 X60.0 E9.0 F1000.0 ; intro line
G1 X100.0 E12.5 F1000.0 ; intro line
G92 E0.0
M221 S95

; Don't change E values below. Excessive value can damage the printer.
M907 E430 ; set extruder motor current
G21 ; set units to millimeters
G90 ; use absolute coordinates
M83 ; use relative distances for extrusion
M900 K0.05 ; Filament gcode LA 1.5
M900 K30 ; Filament gcode LA 1.0
M107
;LAYER_CHANGE
;Z:0.2
;HEIGHT:0.2
;BEFORE_LAYER_CHANGE
G92 E0.0
;0.2


M73 Q0 S55
G1 E-.8 F2100
G1 Z.6 F10800
;AFTER_LAYER_CHANGE
;0.2
G1 X99.515 Y81.318
G1 Z.2
G1 E.8 F2100
M204 S1000
;TYPE:Skirt/Brim
;WIDTH:0.42
G1 F1200
G1 X100.56 Y80.442 E.04278
G1 X101.25 Y80.261 E.02235
G1 X135.649 Y76.622 E1.08458
G1 X153.321 Y76.609 E.55411
G1 X154.628 Y77 E.04278
G1 X155.505 Y78.046 E.04278
G1 X155.698 Y78.986 E.03008
G1 X155.698 Y131.014 E1.63132
G1 X155.307 Y132.321 E.04278
G1 X154.261 Y133.198 E.04278
G1 X153.321 Y133.391 E.03008
G1 X135.598 Y133.372 E.5557
G1 X101.199 Y128.983 E1.0873
G1 X99.952 Y128.429 E.04278
G1 X99.123 Y126.625 E.06226
G1 X99.123 Y82.625 E1.37959
G1 X99.497 Y81.375 E.0409
;WIPE_START
G1 F8640
G1 X100.56 Y80.442 E-.32671
G1 X101.25 Y80.261 E-.16461
G1 X102.407 Y80.139 E-.26868
;WIPE_END
G1 E-.04 F2100
G1 Z.8 F10800
G1 X153.321 Y131.014
G1 Z.2
G1 E.8 F2100
;TYPE:Support material
G1 F1200
G1 X135.899 Y131.014 E.54626
G1 X135.899 Y126.4 E.14467
G1 X133.592 Y126.4 E.07234
G1 X133.592 Y123.06 E.10473
G1 X138.68 Y123.06 E.15954
G1 X138.935 Y122.805 E.0113
G1 X138.935 Y115.899 E.21654
G1 X142.82 Y115.899 E.12182
G1 X142.82 Y94.101 E.68346
G1 X138.935 Y94.101 E.12182
G1 X138.935 Y86.445 E.24005
G1 X138.68 Y86.19 E.0113
G1 X133.592 Y86.19 E.15954
G1 X133.592 Y83.6 E.08121
G1 X135.899 Y83.6 E.07234
G1 X135.899 Y78.986 E.14467
G1 X153.321 Y78.986 E.54626
G1 X153.321 Y130.958 E1.62954
G1 X152.652 Y130.845 F10800
G1 F1200
G1 X152.652 Y79.325 E1.61536
G1 X152.234 Y79.325 E.01314
G1 X152.234 Y130.675 E1.61004
G1 X151.815 Y130.675 E.01314
G1 X151.815 Y79.325 E1.61004
G1 X151.396 Y79.325 E.01314
M73 P1 R54
M73 Q1 S55
G1 X151.396 Y130.675 E1.61004
G1 X150.977 Y130.675 E.01314
G1 X150.977 Y79.325 E1.61004
G1 X150.558 Y79.325 E.01314
G1 X150.558 Y130.675 E1.61004
G1 X150.139 Y130.675 E.01314
G1 X150.139 Y79.325 E1.61004
G1 X149.72 Y79.325 E.01314
G1 X149.72 Y130.675 E1.61004
G1 X149.301 Y130.675 E.01314
G1 X149.301 Y79.325 E1.61004
G1 X148.882 Y79.325 E.01314
G1 X148.882 Y130.675 E1.61004
G1 X148.463 Y130.675 E.01314
G1 X148.463 Y79.325 E1.61004
G1 X148.044 Y79.325 E.01314
G1 X148.044 Y130.675 E1.61004
G1 X147.625 Y130.675 E.01314
G1 X147.625 Y79.325 E1.61004
G1 X147.206 Y79.325 E.01314
M73 Q1 S54
G1 X147.206 Y130.675 E1.61004
G1 X146.787 Y130.675 E.01314
G1 X146.787 Y79.325 E1.61004
G1 X146.368 Y79.325 E.01314
G1 X146.368 Y130.675 E1.61004
G1 X145.949 Y130.675 E.01314
M73 P2 R54
M73 Q2 S54
G1 X145.949 Y79.325 E1.61004
G1 X145.53 Y79.325 E.01314
G1 X145.53 Y130.675 E1.61004
G1 X145.111 Y130.675 E.01314
G1 X145.111 Y79.325 E1.61004
G1 X144.692 Y79.325 E.01314
G1 X144.692 Y130.675 E1.61004
G1 X144.273 Y130.675 E.01314
G1 X144.273 Y79.325 E1.61004
G1 X143.854 Y79.325 E.01314
G1 X143.854 Y130.675 E1.61004
G1 X143.435 Y130.675 E.01314
G1 X143.435 Y79.325 E1.61004
G1 X143.016 Y79.325 E.01314
G1 X143.016 Y130.675 E1.61004
G1 X142.597 Y130.675 E.01314
G1 X142.597 Y116.238 E.45265
G1 X142.178 Y116.238 E.01314
G1 X142.178 Y130.675 E.45265
G1 X141.759 Y130.675 E.01314
G1 X141.759 Y116.238 E.45265
G1 X141.34 Y116.238 E.01314
G1 X141.34 Y130.675 E.45265
G1 X140.921 Y130.675 E.01314
G1 X140.921 Y116.238 E.45265
G1 X140.502 Y116.238 E.01314
G1 X140.502 Y130.675 E.45265
G1 X140.083 Y130.675 E.01314
G1 X140.083 Y116.238 E.45265
G1 X139.664 Y116.238 E.01314
M73 P2 R53
G1 X139.664 Y130.675 E.45265
G1 X139.245 Y130.675 E.01314
G1 X139.245 Y122.975 E.24143
G1 X138.826 Y123.394 E.01858
G1 X138.826 Y130.675 E.22829
G1 X138.407 Y130.675 E.01314
G1 X138.407 Y123.399 E.22812
G1 X137.988 Y123.399 E.01314
G1 X137.988 Y130.675 E.22812
G1 X137.569 Y130.675 E.01314
G1 X137.569 Y123.399 E.22812
G1 X137.15 Y123.399 E.01314
G1 X137.15 Y130.675 E.22812
G1 X136.731 Y130.675 E.01314
G1 X136.731 Y123.399 E.22812
G1 X136.312 Y123.399 E.01314
G1 X136.312 Y130.675 E.22812
G1 X136.238 Y130.675 E.00232
G1 X136.238 Y126.061 E.14467
G1 X135.893 Y126.061 E.01082
G1 X135.893 Y123.399 E.08344
G1 X135.474 Y123.399 E.01314
G1 X135.474 Y126.061 E.08344
G1 X135.055 Y126.061 E.01314
G1 X135.055 Y123.399 E.08344
G1 X134.636 Y123.399 E.01314
G1 X134.636 Y126.061 E.08344
G1 X134.217 Y126.061 E.01314
G1 X134.217 Y123.23 E.08877
;WIPE_START
G1 F8640
G1 X134.217 Y126.061 E-.65369
G1 X134.636 Y126.061 E-.09674
G1 X134.636 Y126.019 E-.00956
;WIPE_END
G1 E-.04 F2100
G1 Z.8 F10800
G1 X142.597 Y93.931
M73 P3 R53
G1 Z.2
M73 Q3 S54
G1 E.8 F2100
G1 F1200
G1 X142.597 Y79.325 E.45797
G1 X142.178 Y79.325 E.01314
G1 X142.178 Y93.762 E.45265
G1 X141.759 Y93.762 E.01314
G1 X141.759 Y79.325 E.45265
G1 X141.34 Y79.325 E.01314
G1 X141.34 Y93.762 E.45265
G1 X140.921 Y93.762 E.01314
G1 X140.921 Y79.325 E.45265
G1 X140.502 Y79.325 E.01314
G1 X140.502 Y93.762 E.45265
G1 X140.083 Y93.762 E.01314
G1 X140.083 Y79.325 E.45265
G1 X139.664 Y79.325 E.01314
G1 X139.664 Y93.762 E.45265
G1 X139.274 Y93.762 E.01222
G1 X139.274 Y86.304 E.23382
G1 X139.245 Y86.275 E.00129
G1 X139.245 Y79.325 E.21791
G1 X138.826 Y79.325 E.01314
G1 X138.826 Y85.856 E.20477
G1 X138.407 Y85.851 E.01314
G1 X138.407 Y79.325 E.2046
G1 X137.988 Y79.325 E.01314
G1 X137.988 Y85.851 E.2046
G1 X137.569 Y85.851 E.01314
G1 X137.569 Y79.325 E.2046
G1 X137.15 Y79.325 E.01314
G1 X137.15 Y85.851 E.2046
G1 X136.731 Y85.851 E.01314
G1 X136.731 Y79.325 E.2046
G1 X136.312 Y79.325 E.01314
G1 X136.312 Y85.851 E.2046
G1 X135.893 Y85.851 E.01314
G1 X135.893 Y83.939 E.05993
G1 X135.474 Y83.939 E.01314
G1 X135.474 Y85.851 E.05993
G1 X135.055 Y85.851 E.01314
G1 X135.055 Y83.939 E.05993
G1 X134.636 Y83.939 E.01314
G1 X134.636 Y85.851 E.05993
G1 X134.217 Y85.851 E.01314
G1 X134.217 Y83.77 E.06525
;WIPE_START
G1 F8640
G1 X134.217 Y85.851 E-.48051
G1 X134.636 Y85.851 E-.09674
G1 X134.636 Y85.059 E-.18274
;WIPE_END
G1 E-.04 F2100
G1 Z.8 F10800
G1 X112.713 Y87.412
G1 Z.2
G1 E.8 F2100
;TYPE:Perimeter
G1 F1200
G1 X137.713 Y87.412 E.78386
G1 X137.713 Y121.838 E1.0794
G1 X112.713 Y121.838 E.78386
G1 X112.713 Y125.838 E.12542
G1 X102.287 Y125.838 E.32689
G1 X102.287 Y83.412 E1.33023
G1 X112.713 Y83.412 E.32689
G1 X112.713 Y87.352 E.12354
G1 X113.09 Y87.035 F10800
;TYPE:External perimeter
G1 F1200
G1 X138.09 Y87.035 E.78386
G1 X138.09 Y122.215 E1.10304
G1 X113.09 Y122.215 E.78386
M73 Q3 S53
G1 X113.09 Y126.215 E.12542
G1 X101.91 Y126.215 E.35054
G1 X101.91 Y83.035 E1.35388
G1 X113.09 Y83.035 E.35054
G1 X113.09 Y86.975 E.12354
G1 X113.249 Y87.402 F10800
;WIPE_START
G1 F8640
G1 X116.381 Y86.983 E-.76
;WIPE_END
G1 E-.04 F2100
G1 Z.8 F10800
G1 X137.6 Y88.292
G1 Z.2
G1 E.8 F2100
;TYPE:Solid infill
;WIDTH:0.422149
G1 F1200
G1 X137.003 Y87.695 E.02663
G1 X136.466 Y87.695 E.01691
G1 X137.43 Y88.659 E.04298
G1 X137.43 Y89.195 E.01691
G1 X135.93 Y87.695 E.0669
G1 X135.394 Y87.695 E.01691
G1 X137.43 Y89.731 E.09081
G1 X137.43 Y90.268 E.01691
G1 X134.857 Y87.695 E.11473
G1 X134.321 Y87.695 E.01691
G1 X137.43 Y90.804 E.13864
G1 X137.43 Y91.34 E.01691
G1 X133.785 Y87.695 E.16256
G1 X133.248 Y87.695 E.01691
G1 X137.43 Y91.877 E.18648
G1 X137.43 Y92.413 E.01691
G1 X132.712 Y87.695 E.21039
G1 X132.176 Y87.695 E.01691
G1 X137.43 Y92.949 E.23431
G1 X137.43 Y93.485 E.01691
G1 X131.64 Y87.695 E.25823
G1 X131.103 Y87.695 E.01691
G1 X137.43 Y94.022 E.28214
G1 X137.43 Y94.558 E.01691
G1 X130.567 Y87.695 E.30606
G1 X130.031 Y87.695 E.01691
G1 X137.43 Y95.094 E.32998
G1 X137.43 Y95.631 E.01691
G1 X129.494 Y87.695 E.35389
G1 X128.958 Y87.695 E.01691
G1 X137.43 Y96.167 E.37781
G1 X137.43 Y96.703 E.01691
G1 X128.422 Y87.695 E.40173
G1 X127.885 Y87.695 E.01691
M73 P4 R53
M73 Q4 S53
G1 X137.43 Y97.24 E.42564
G1 X137.43 Y97.776 E.01691
G1 X127.349 Y87.695 E.44956
G1 X126.813 Y87.695 E.01691
G1 X137.43 Y98.312 E.47348
G1 X137.43 Y98.849 E.01691
G1 X126.276 Y87.695 E.49739
G1 X125.74 Y87.695 E.01691
G1 X137.43 Y99.385 E.52131
G1 X137.43 Y99.921 E.01691
G1 X125.204 Y87.695 E.54522
G1 X124.668 Y87.695 E.01691
G1 X137.43 Y100.457 E.56914
G1 X137.43 Y100.994 E.01691
G1 X124.131 Y87.695 E.59306
G1 X123.595 Y87.695 E.01691
G1 X137.43 Y101.53 E.61697
G1 X137.43 Y102.066 E.01691
G1 X123.059 Y87.695 E.64089
G1 X122.522 Y87.695 E.01691
G1 X137.43 Y102.603 E.66481
G1 X137.43 Y103.139 E.01691
G1 X121.986 Y87.695 E.68872
G1 X121.45 Y87.695 E.01691
G1 X137.43 Y103.675 E.71264
G1 X137.43 Y104.212 E.01691
G1 X120.913 Y87.695 E.73656
G1 X120.377 Y87.695 E.01691
G1 X137.43 Y104.748 E.76047
G1 X137.43 Y105.284 E.01691
G1 X119.841 Y87.695 E.78439
G1 X119.304 Y87.695 E.01691
G1 X137.43 Y105.821 E.80831
G1 X137.43 Y106.357 E.01691
G1 X118.768 Y87.695 E.83222
G1 X118.232 Y87.695 E.01691
G1 X137.43 Y106.893 E.85614
G1 X137.43 Y107.43 E.01691
G1 X117.695 Y87.695 E.88006
G1 X117.159 Y87.695 E.01691
M73 P4 R52
G1 X137.43 Y107.966 E.90397
G1 X137.43 Y108.502 E.01691
G1 X116.623 Y87.695 E.92789
G1 X116.087 Y87.695 E.01691
G1 X137.43 Y109.038 E.9518
G1 X137.43 Y109.575 E.01691
G1 X115.55 Y87.695 E.97572
G1 X115.014 Y87.695 E.01691
G1 X137.43 Y110.111 E.99964
G1 X137.43 Y110.647 E.01691
G1 X114.478 Y87.695 E1.02355
G1 X113.941 Y87.695 E.01691
G1 X137.43 Y111.184 E1.04747
G1 X137.43 Y111.72 E.01691
G1 X113.235 Y87.525 E1.07895
;WIPE_START
G1 F8640
M73 P5 R52
M73 Q5 S53
G1 X115.563 Y89.853 E-.76
;WIPE_END
G1 E-.04 F2100
G1 Z.8 F10800
G1 X112.6 Y84.208
G1 Z.2
G1 E.8 F2100
G1 F1200
G1 X112.087 Y83.695 E.02289
G1 X111.55 Y83.695 E.01691
G1 X112.43 Y84.575 E.03924
G1 X112.43 Y85.111 E.01691
G1 X111.014 Y83.695 E.06315
G1 X110.478 Y83.695 E.01691
G1 X112.43 Y85.647 E.08707
G1 X112.43 Y86.184 E.01691
G1 X109.941 Y83.695 E.11099
G1 X109.405 Y83.695 E.01691
G1 X112.6 Y86.89 E.14247
;WIPE_START
G1 F8640
G1 X110.272 Y84.562 E-.76
;WIPE_END
G1 E-.04 F2100
G1 Z.8 F10800
G1 X108.699 Y83.525
G1 Z.2
G1 E.8 F2100
G1 F1200
G1 X112.43 Y87.256 E.16639
G1 X112.43 Y87.695 E.01383
G1 X112.869 Y87.695 E.01383
G1 X137.43 Y112.256 E1.0953
G1 X137.43 Y112.793 E.01691
G1 X108.332 Y83.695 E1.2976
G1 X107.796 Y83.695 E.01691
G1 X137.43 Y113.329 E1.32151
G1 X137.43 Y113.865 E.01691
G1 X107.26 Y83.695 E1.34543
G1 X106.723 Y83.695 E.01691
G1 X137.43 Y114.402 E1.36935
G1 X137.43 Y114.938 E.01691
M73 Q5 S52
G1 X106.187 Y83.695 E1.39326
G1 X105.651 Y83.695 E.01691
G1 X137.43 Y115.474 E1.41718
G1 X137.43 Y116.01 E.01691
G1 X105.115 Y83.695 E1.4411
G1 X104.578 Y83.695 E.01691
G1 X137.43 Y116.547 E1.46501
G1 X137.43 Y117.083 E.01691
G1 X104.042 Y83.695 E1.48893
G1 X103.506 Y83.695 E.01691
G1 X137.43 Y117.619 E1.51285
G1 X137.43 Y118.156 E.01691
G1 X102.969 Y83.695 E1.53676
G1 X102.57 Y83.695 E.01259
G1 X102.57 Y83.832 E.00432
G1 X137.43 Y118.692 E1.55457
G1 X137.43 Y119.228 E.01691
G1 X102.57 Y84.368 E1.55457
G1 X102.57 Y84.904 E.01691
M73 P6 R52
M73 Q6 S52
G1 X137.43 Y119.765 E1.55457
G1 X137.43 Y120.301 E.01691
G1 X102.57 Y85.441 E1.55457
G1 X102.57 Y85.977 E.01691
G1 X137.43 Y120.837 E1.55457
G1 X137.43 Y121.374 E.01691
G1 X102.57 Y86.513 E1.55457
G1 X102.57 Y87.05 E.01691
G1 X137.075 Y121.555 E1.53875
G1 X136.539 Y121.555 E.01691
M73 P6 R51
G1 X102.57 Y87.586 E1.51483
G1 X102.57 Y88.122 E.01691
G1 X136.003 Y121.555 E1.49092
G1 X135.466 Y121.555 E.01691
G1 X102.57 Y88.659 E1.467
G1 X102.57 Y89.195 E.01691
G1 X134.93 Y121.555 E1.44309
G1 X134.394 Y121.555 E.01691
G1 X102.57 Y89.731 E1.41917
G1 X102.57 Y90.268 E.01691
G1 X133.857 Y121.555 E1.39525
G1 X133.321 Y121.555 E.01691
G1 X102.57 Y90.804 E1.37134
G1 X102.57 Y91.34 E.01691
G1 X132.785 Y121.555 E1.34742
G1 X132.249 Y121.555 E.01691
G1 X102.57 Y91.876 E1.3235
G1 X102.57 Y92.413 E.01691
M73 P7 R51
M73 Q7 S52
G1 X131.712 Y121.555 E1.29959
G1 X131.176 Y121.555 E.01691
G1 X102.57 Y92.949 E1.27567
G1 X102.57 Y93.485 E.01691
G1 X130.64 Y121.555 E1.25175
G1 X130.103 Y121.555 E.01691
M73 Q7 S51
G1 X102.57 Y94.022 E1.22784
G1 X102.57 Y94.558 E.01691
G1 X129.567 Y121.555 E1.20392
G1 X129.031 Y121.555 E.01691
G1 X102.57 Y95.094 E1.18
G1 X102.57 Y95.631 E.01691
G1 X128.494 Y121.555 E1.15609
G1 X127.958 Y121.555 E.01691
G1 X102.57 Y96.167 E1.13217
G1 X102.57 Y96.703 E.01691
G1 X127.422 Y121.555 E1.10825
G1 X126.885 Y121.555 E.01691
G1 X102.57 Y97.24 E1.08434
G1 X102.57 Y97.776 E.01691
G1 X126.349 Y121.555 E1.06042
G1 X125.813 Y121.555 E.01691
G1 X102.57 Y98.312 E1.03651
G1 X102.57 Y98.849 E.01691
G1 X125.276 Y121.555 E1.01259
G1 X124.74 Y121.555 E.01691
G1 X102.57 Y99.385 E.98867
G1 X102.57 Y99.921 E.01691
G1 X124.204 Y121.555 E.96476
G1 X123.668 Y121.555 E.01691
G1 X102.57 Y100.457 E.94084
G1 X102.57 Y100.994 E.01691
G1 X123.131 Y121.555 E.91692
G1 X122.595 Y121.555 E.01691
G1 X102.57 Y101.53 E.89301
G1 X102.57 Y102.066 E.01691
M73 P8 R51
G1 X122.059 Y121.555 E.86909
G1 X121.522 Y121.555 E.01691
M73 Q8 S51
G1 X102.57 Y102.603 E.84517
G1 X102.57 Y103.139 E.01691
G1 X120.986 Y121.555 E.82126
G1 X120.45 Y121.555 E.01691
G1 X102.57 Y103.675 E.79734
G1 X102.57 Y104.212 E.01691
G1 X119.913 Y121.555 E.77342
G1 X119.377 Y121.555 E.01691
G1 X102.57 Y104.748 E.74951
G1 X102.57 Y105.284 E.01691
M73 P8 R50
G1 X118.841 Y121.555 E.72559
G1 X118.304 Y121.555 E.01691
G1 X102.57 Y105.821 E.70167
G1 X102.57 Y106.357 E.01691
G1 X117.768 Y121.555 E.67776
G1 X117.232 Y121.555 E.01691
G1 X102.57 Y106.893 E.65384
G1 X102.57 Y107.429 E.01691
G1 X116.696 Y121.555 E.62993
G1 X116.159 Y121.555 E.01691
G1 X102.57 Y107.966 E.60601
G1 X102.57 Y108.502 E.01691
G1 X115.623 Y121.555 E.58209
G1 X115.087 Y121.555 E.01691
G1 X102.57 Y109.038 E.55818
G1 X102.57 Y109.575 E.01691
G1 X114.55 Y121.555 E.53426
G1 X114.014 Y121.555 E.01691
G1 X102.57 Y110.111 E.51034
G1 X102.57 Y110.647 E.01691
G1 X113.478 Y121.555 E.48643
G1 X112.941 Y121.555 E.01691
G1 X102.57 Y111.184 E.46251
G1 X102.57 Y111.72 E.01691
G1 X112.43 Y121.58 E.43971
G1 X112.43 Y122.117 E.01691
G1 X102.57 Y112.256 E.43971
G1 X102.57 Y112.793 E.01691
G1 X112.43 Y122.653 E.43971
G1 X112.43 Y123.189 E.01691
G1 X102.57 Y113.329 E.43971
G1 X102.57 Y113.865 E.01691
G1 X112.43 Y123.725 E.43971
G1 X112.43 Y124.262 E.01691
G1 X102.57 Y114.402 E.43971
G1 X102.57 Y114.938 E.01691
G1 X112.43 Y124.798 E.43971
G1 X112.43 Y125.334 E.01691
G1 X102.57 Y115.474 E.43971
G1 X102.57 Y116.01 E.01691
G1 X112.115 Y125.555 E.42564
G1 X111.578 Y125.555 E.01691
G1 X102.57 Y116.547 E.40172
G1 X102.57 Y117.083 E.01691
G1 X111.042 Y125.555 E.37781
G1 X110.506 Y125.555 E.01691
G1 X102.57 Y117.619 E.35389
G1 X102.57 Y118.156 E.01691
G1 X109.969 Y125.555 E.32997
G1 X109.433 Y125.555 E.01691
G1 X102.57 Y118.692 E.30606
G1 X102.57 Y119.228 E.01691
G1 X108.897 Y125.555 E.28214
G1 X108.36 Y125.555 E.01691
G1 X102.57 Y119.765 E.25822
G1 X102.57 Y120.301 E.01691
G1 X107.824 Y125.555 E.23431
G1 X107.288 Y125.555 E.01691
G1 X102.57 Y120.837 E.21039
G1 X102.57 Y121.374 E.01691
G1 X106.751 Y125.555 E.18647
G1 X106.215 Y125.555 E.01691
G1 X102.57 Y121.91 E.16256
G1 X102.57 Y122.446 E.01691
G1 X105.679 Y125.555 E.13864
G1 X105.143 Y125.555 E.01691
G1 X102.57 Y122.982 E.11473
G1 X102.57 Y123.519 E.01691
G1 X104.606 Y125.555 E.09081
G1 X104.07 Y125.555 E.01691
G1 X102.57 Y124.055 E.06689
G1 X102.57 Y124.591 E.01691
G1 X103.534 Y125.555 E.04298
