; generated by PrusaSlicer 2.4.1+win64 on 2022-04-23 at 19:29:34 UTC

; 

; external perimeters extrusion width = 0.45mm
; perimeters extrusion width = 0.45mm
; infill extrusion width = 0.45mm
; solid infill extrusion width = 0.45mm
; top infill extrusion width = 0.40mm
; support material extrusion width = 0.35mm
; first layer extrusion width = 0.42mm

M73 P0 R48
M73 Q0 S48
M107
;TYPE:Custom
M862.3 P "MK3S" ; printer model check
M862.1 P0.4 ; nozzle diameter check
M115 U3.9.1 ; tell printer latest fw version
G90 ; use absolute coordinates
M83 ; extruder relative mode
M104 S215 ; set extruder temp
M140 S60 ; set bed temp
M190 S60 ; wait for bed temp
M109 S215 ; wait for extruder temp
G28 W ; home all without mesh bed level
G80 ; mesh bed leveling
G1 Y-3.0 F1000.0 ; go outside print area
G92 E0.0
G1 X60.0 E9.0 F1000.0 ; intro line
G1 X100.0 E12.5 F1000.0 ; intro line
G92 E0.0
M221 S95

; Don't change E values below. Excessive value can damage the printer.
M907 E430 ; set extruder motor current
G21 ; set units to millimeters
G90 ; use absolute coordinates
M83 ; use relative distances for extrusion
M900 K0.05 ; Filament gcode LA 1.5
M900 K30 ; Filament gcode LA 1.0
M107
;LAYER_CHANGE
;Z:0.2
;HEIGHT:0.2
;BEFORE_LAYER_CHANGE
G92 E0.0
;0.2


M73 P0 R47
G1 E-.8 F2100
G1 Z.6 F10800
;AFTER_LAYER_CHANGE
;0.2
G1 X71.927 Y91.147
G1 Z.2
G1 E.8 F2100
M204 S1000
;TYPE:Skirt/Brim
;WIDTH:0.42
G1 F1200
G1 X72.545 Y90.702 E.02388
G1 X81.773 Y86.088 E.3235
G1 X82.836 Y85.837 E.03425
G1 X146.719 Y85.858 E2.003
G1 X170.069 Y89.02 E.73879
G1 X171.43 Y89.695 E.04765
G1 X181.43 Y99.695 E.44342
G1 X182.127 Y101.376 E.05704
G1 X182.127 Y107.376 E.18813
G1 X181.735 Y108.683 E.04278
G1 X180.121 Y109.724 E.06021
G1 X89.095 Y124.134 E2.88961
G1 X68.994 Y124.163 E.63025
G1 X67.313 Y123.467 E.05704
G1 X65.006 Y121.16 E.1023
G1 X64.31 Y119.479 E.05704
G1 X64.31 Y102.057 E.54626
G1 X64.561 Y100.993 E.03425
G1 X66.868 Y96.379 E.16175
G1 X67.313 Y95.762 E.02388
G1 X71.885 Y91.19 E.20272
;WIPE_START
G1 F8640
G1 X72.545 Y90.702 E-.18953
G1 X74.755 Y89.597 E-.57047
;WIPE_END
G1 E-.04 F2100
G1 Z.8 F10800
G1 X102.566 Y90.941
G1 Z.2
G1 E.8 F2100
;TYPE:Support material
G1 F1200
G1 X98.569 Y90.941 E.1253
G1 X98.315 Y91.196 E.0113
G1 X98.315 Y97.556 E.19942
G1 X98.569 Y97.811 E.0113
G1 X102.566 Y97.811 E.1253
G1 X102.566 Y101.022 E.10069
G1 X97.951 Y101.022 E.14467
G1 X97.951 Y103.329 E.07234
G1 X95.644 Y103.329 E.07234
G1 X95.644 Y105.636 E.07234
G1 X93.337 Y105.636 E.07234
G1 X93.337 Y107.943 E.07234
G1 X91.03 Y107.943 E.07234
G1 X91.03 Y119.479 E.36168
G1 X88.723 Y119.479 E.07234
G1 X88.723 Y121.786 E.07234
G1 X68.994 Y121.786 E.6186
G1 X68.994 Y119.479 E.07234
G1 X66.687 Y119.479 E.07234
G1 X66.687 Y102.057 E.54626
G1 X68.994 Y102.057 E.07234
G1 X68.994 Y97.442 E.14467
G1 X71.301 Y97.442 E.07234
G1 X71.301 Y95.135 E.07234
G1 X73.608 Y95.135 E.07234
G1 X73.608 Y92.828 E.07234
G1 X78.222 Y92.828 E.14467
G1 X78.222 Y90.521 E.07234
G1 X82.836 Y90.521 E.14467
G1 X82.836 Y88.214 E.07234
G1 X102.566 Y88.214 E.6186
G1 X102.566 Y90.884 E.08372
;WIPE_START
M73 P1 R47
M73 Q1 S48
G1 F8640
G1 X102.566 Y88.214 E-.61654
G1 X101.944 Y88.214 E-.14346
;WIPE_END
G1 E-.04 F2100
G1 Z.8 F10800
G1 X101.956 Y100.853
G1 Z.2
G1 E.8 F2100
G1 F1200
G1 X101.956 Y98.15 E.08473
G1 X101.537 Y98.15 E.01314
G1 X101.537 Y100.683 E.07941
G1 X101.118 Y100.683 E.01314
G1 X101.118 Y98.15 E.07941
G1 X100.699 Y98.15 E.01314
G1 X100.699 Y100.683 E.07941
G1 X100.28 Y100.683 E.01314
G1 X100.28 Y98.15 E.07941
G1 X99.861 Y98.15 E.01314
G1 X99.861 Y100.683 E.07941
G1 X99.442 Y100.683 E.01314
G1 X99.442 Y98.15 E.07941
G1 X99.023 Y98.15 E.01314
G1 X99.023 Y100.683 E.07941
G1 X98.604 Y100.683 E.01314
G1 X98.604 Y98.15 E.07941
G1 X98.429 Y98.15 E.00551
G1 X98.185 Y97.907 E.01079
G1 X98.185 Y100.683 E.08704
G1 X97.766 Y100.683 E.01314
G1 X97.766 Y88.553 E.38031
G1 X98.185 Y88.553 E.01314
M73 Q1 S47
G1 X98.185 Y90.845 E.07184
G1 X98.429 Y90.601 E.01079
G1 X98.604 Y90.601 E.00551
G1 X98.604 Y88.553 E.06421
G1 X99.023 Y88.553 E.01314
G1 X99.023 Y90.601 E.06421
G1 X99.442 Y90.601 E.01314
G1 X99.442 Y88.553 E.06421
G1 X99.861 Y88.553 E.01314
G1 X99.861 Y90.601 E.06421
G1 X100.28 Y90.601 E.01314
G1 X100.28 Y88.553 E.06421
G1 X100.699 Y88.553 E.01314
G1 X100.699 Y90.601 E.06421
G1 X101.118 Y90.601 E.01314
G1 X101.118 Y88.553 E.06421
G1 X101.537 Y88.553 E.01314
G1 X101.537 Y90.601 E.06421
G1 X101.956 Y90.601 E.01314
G1 X101.956 Y88.384 E.06953
;WIPE_START
G1 F8640
G1 X101.956 Y90.601 E-.51206
G1 X101.537 Y90.601 E-.09674
G1 X101.537 Y89.947 E-.1512
;WIPE_END
G1 E-.04 F2100
G1 Z.8 F10800
G1 X97.348 Y103.16
G1 Z.2
G1 E.8 F2100
G1 F1200
G1 X97.348 Y88.553 E.45797
G1 X96.929 Y88.553 E.01314
G1 X96.929 Y102.99 E.45265
G1 X96.51 Y102.99 E.01314
G1 X96.51 Y88.553 E.45265
G1 X96.091 Y88.553 E.01314
G1 X96.091 Y102.99 E.45265
G1 X95.672 Y102.99 E.01314
G1 X95.672 Y88.553 E.45265
G1 X95.253 Y88.553 E.01314
G1 X95.253 Y105.297 E.52498
G1 X94.834 Y105.297 E.01314
G1 X94.834 Y88.553 E.52498
G1 X94.415 Y88.553 E.01314
G1 X94.415 Y105.297 E.52498
G1 X93.996 Y105.297 E.01314
G1 X93.996 Y88.553 E.52498
G1 X93.577 Y88.553 E.01314
G1 X93.577 Y105.297 E.52498
G1 X93.158 Y105.297 E.01314
G1 X93.158 Y88.553 E.52498
G1 X92.739 Y88.553 E.01314
G1 X92.739 Y107.604 E.59732
G1 X92.32 Y107.604 E.01314
G1 X92.32 Y88.553 E.59732
G1 X91.901 Y88.553 E.01314
G1 X91.901 Y107.604 E.59732
G1 X91.482 Y107.604 E.01314
G1 X91.482 Y88.553 E.59732
G1 X91.063 Y88.553 E.01314
G1 X91.063 Y107.604 E.59732
G1 X90.691 Y107.604 E.01167
G1 X90.691 Y119.139 E.36168
G1 X90.644 Y119.139 E.00147
G1 X90.644 Y88.553 E.959
G1 X90.225 Y88.553 E.01314
G1 X90.225 Y119.139 E.959
G1 X89.806 Y119.139 E.01314
G1 X89.806 Y88.553 E.959
G1 X89.387 Y88.553 E.01314
G1 X89.387 Y119.139 E.959
G1 X88.968 Y119.139 E.01314
G1 X88.968 Y88.553 E.959
G1 X88.549 Y88.553 E.01314
G1 X88.549 Y119.139 E.959
G1 X88.384 Y119.139 E.00518
M73 P2 R47
M73 Q2 S47
G1 X88.384 Y121.447 E.07234
G1 X88.13 Y121.447 E.00795
G1 X88.13 Y88.553 E1.03134
G1 X87.711 Y88.553 E.01314
G1 X87.711 Y121.447 E1.03134
G1 X87.292 Y121.447 E.01314
G1 X87.292 Y88.553 E1.03134
G1 X86.873 Y88.553 E.01314
M73 P2 R46
G1 X86.873 Y121.447 E1.03134
G1 X86.454 Y121.447 E.01314
G1 X86.454 Y88.553 E1.03134
G1 X86.035 Y88.553 E.01314
G1 X86.035 Y121.447 E1.03134
G1 X85.616 Y121.447 E.01314
G1 X85.616 Y88.553 E1.03134
G1 X85.197 Y88.553 E.01314
G1 X85.197 Y121.447 E1.03134
G1 X84.778 Y121.447 E.01314
G1 X84.778 Y88.553 E1.03134
G1 X84.359 Y88.553 E.01314
G1 X84.359 Y121.447 E1.03134
G1 X83.94 Y121.447 E.01314
G1 X83.94 Y88.553 E1.03134
G1 X83.521 Y88.553 E.01314
G1 X83.521 Y121.447 E1.03134
G1 X83.102 Y121.447 E.01314
G1 X83.102 Y90.861 E.959
G1 X82.683 Y90.861 E.01314
G1 X82.683 Y121.447 E.959
G1 X82.264 Y121.447 E.01314
G1 X82.264 Y90.861 E.959
G1 X81.845 Y90.861 E.01314
G1 X81.845 Y121.447 E.959
G1 X81.426 Y121.447 E.01314
G1 X81.426 Y90.861 E.959
G1 X81.007 Y90.861 E.01314
G1 X81.007 Y121.447 E.959
G1 X80.588 Y121.447 E.01314
M73 P3 R46
M73 Q3 S47
G1 X80.588 Y90.861 E.959
G1 X80.169 Y90.861 E.01314
G1 X80.169 Y121.447 E.959
G1 X79.75 Y121.447 E.01314
G1 X79.75 Y90.861 E.959
G1 X79.332 Y90.861 E.01314
M73 Q3 S46
G1 X79.332 Y121.447 E.959
G1 X78.913 Y121.447 E.01314
G1 X78.913 Y90.861 E.959
G1 X78.561 Y90.861 E.01101
G1 X78.561 Y93.168 E.07234
G1 X78.494 Y93.168 E.00213
G1 X78.494 Y121.447 E.88667
G1 X78.075 Y121.447 E.01314
G1 X78.075 Y93.168 E.88667
G1 X77.656 Y93.168 E.01314
G1 X77.656 Y121.447 E.88667
G1 X77.237 Y121.447 E.01314
G1 X77.237 Y93.168 E.88667
G1 X76.818 Y93.168 E.01314
G1 X76.818 Y121.447 E.88667
G1 X76.399 Y121.447 E.01314
G1 X76.399 Y93.168 E.88667
G1 X75.98 Y93.168 E.01314
G1 X75.98 Y121.447 E.88667
G1 X75.561 Y121.447 E.01314
G1 X75.561 Y93.168 E.88667
G1 X75.142 Y93.168 E.01314
G1 X75.142 Y121.447 E.88667
G1 X74.723 Y121.447 E.01314
G1 X74.723 Y93.168 E.88667
G1 X74.304 Y93.168 E.01314
G1 X74.304 Y121.447 E.88667
G1 X73.885 Y121.447 E.01314
G1 X73.885 Y95.475 E.81433
G1 X73.466 Y95.475 E.01314
G1 X73.466 Y121.447 E.81433
G1 X73.047 Y121.447 E.01314
G1 X73.047 Y95.475 E.81433
G1 X72.628 Y95.475 E.01314
M73 P4 R46
G1 X72.628 Y121.447 E.81433
G1 X72.209 Y121.447 E.01314
M73 Q4 S46
G1 X72.209 Y95.475 E.81433
G1 X71.79 Y95.475 E.01314
G1 X71.79 Y121.447 E.81433
G1 X71.371 Y121.447 E.01314
G1 X71.371 Y97.782 E.74199
G1 X70.952 Y97.782 E.01314
G1 X70.952 Y121.447 E.74199
G1 X70.533 Y121.447 E.01314
G1 X70.533 Y97.782 E.74199
G1 X70.114 Y97.782 E.01314
M73 P4 R45
G1 X70.114 Y121.447 E.74199
G1 X69.695 Y121.447 E.01314
G1 X69.695 Y97.782 E.74199
G1 X69.333 Y97.782 E.01135
G1 X69.333 Y102.396 E.14467
G1 X69.276 Y102.396 E.00179
G1 X69.276 Y119.139 E.52498
G1 X68.857 Y119.139 E.01314
G1 X68.857 Y102.396 E.52498
G1 X68.438 Y102.396 E.01314
G1 X68.438 Y119.139 E.52498
G1 X68.019 Y119.139 E.01314
G1 X68.019 Y102.396 E.52498
G1 X67.6 Y102.396 E.01314
G1 X67.6 Y119.139 E.52498
G1 X67.181 Y119.139 E.01314
G1 X67.181 Y102.226 E.5303
;WIPE_START
G1 F8640
G1 X67.181 Y105.518 E-.76
;WIPE_END
G1 E-.04 F2100
G1 Z.8 F10800
G1 X131.215 Y99.381
G1 Z.2
G1 E.8 F2100
G1 F1200
G1 X131.232 Y99.772 E.01228
G1 X131.284 Y100.155 E.01213
G1 X131.368 Y100.533 E.01213
G1 X131.485 Y100.902 E.01213
G1 X131.634 Y101.259 E.01213
G1 X131.814 Y101.601 E.01213
G1 X132.022 Y101.927 E.01213
G1 X132.258 Y102.234 E.01213
G1 X132.52 Y102.518 E.01213
G1 X132.806 Y102.779 E.01213
G1 X133.114 Y103.014 E.01213
G1 X133.44 Y103.221 E.01213
G1 X133.784 Y103.399 E.01213
G1 X134.142 Y103.547 E.01213
G1 X134.493 Y103.657 E.01154
G1 X134.87 Y103.742 E.01213
G1 X135.254 Y103.793 E.01213
G1 X135.659 Y103.811 E.01273
G1 X136.027 Y103.795 E.01154
G1 X136.41 Y103.745 E.01213
G1 X136.807 Y103.657 E.01273
G1 X137.193 Y103.533 E.01272
G1 X137.533 Y103.391 E.01154
G1 X137.859 Y103.221 E.01154
G1 X138.201 Y103.003 E.01273
G1 X138.508 Y102.767 E.01213
G1 X138.779 Y102.518 E.01154
G1 X139.053 Y102.219 E.01273
G1 X139.288 Y101.912 E.01213
G1 X139.486 Y101.601 E.01154
G1 X139.665 Y101.259 E.01213
G1 X139.814 Y100.902 E.01213
G1 X139.936 Y100.514 E.01273
G1 X140.019 Y100.137 E.01213
G1 X140.069 Y99.753 E.01213
G1 X140.085 Y99.381 E.01168
G1 X140.085 Y97.811 E.04922
G1 X146.4 Y97.811 E.19802
G1 X146.4 Y101.022 E.10069
G1 X144.093 Y101.022 E.07234
G1 X144.093 Y105.636 E.14467
G1 X141.786 Y105.636 E.07234
G1 X141.786 Y107.943 E.07234
G1 X128.978 Y107.943 E.40159
G1 X128.978 Y105.636 E.07234
G1 X126.671 Y105.636 E.07234
G1 X126.671 Y101.022 E.14467
G1 X124.364 Y101.022 E.07234
G1 X124.364 Y97.811 E.10069
G1 X131.215 Y97.811 E.21481
G1 X131.215 Y99.324 E.04745
;WIPE_START
G1 F8640
G1 X131.215 Y97.811 E-.3494
G1 X129.436 Y97.811 E-.4106
;WIPE_END
G1 E-.04 F2100
G1 Z.8 F10800
G1 X145.949 Y100.853
G1 Z.2
G1 E.8 F2100
G1 F1200
G1 X145.949 Y98.15 E.08473
G1 X145.53 Y98.15 E.01314
G1 X145.53 Y100.683 E.07941
G1 X145.111 Y100.683 E.01314
G1 X145.111 Y98.15 E.07941
G1 X144.692 Y98.15 E.01314
G1 X144.692 Y100.683 E.07941
G1 X144.273 Y100.683 E.01314
G1 X144.273 Y98.15 E.07941
G1 X143.854 Y98.15 E.01314
G1 X143.854 Y100.683 E.07941
G1 X143.754 Y100.683 E.00315
G1 X143.754 Y105.297 E.14467
G1 X143.435 Y105.297 E.00999
G1 X143.435 Y98.15 E.22409
G1 X143.016 Y98.15 E.01314
G1 X143.016 Y105.297 E.22409
G1 X142.597 Y105.297 E.01314
G1 X142.597 Y98.15 E.22409
G1 X142.178 Y98.15 E.01314
G1 X142.178 Y105.297 E.22409
G1 X141.759 Y105.297 E.01314
G1 X141.759 Y98.15 E.22409
G1 X141.34 Y98.15 E.01314
G1 X141.34 Y107.604 E.29642
G1 X140.921 Y107.604 E.01314
G1 X140.921 Y98.15 E.29642
G1 X140.502 Y98.15 E.01314
G1 X140.502 Y107.604 E.29642
G1 X140.083 Y107.604 E.01314
G1 X140.083 Y101.138 E.20273
G1 X139.97 Y101.409 E.0092
G1 X139.664 Y101.953 E.01956
G1 X139.664 Y107.604 E.17719
G1 X139.245 Y107.604 E.01314
G1 X139.245 Y102.513 E.15962
G1 X138.826 Y102.935 E.01865
G1 X138.826 Y107.604 E.14638
G1 X138.407 Y107.604 E.01314
G1 X138.407 Y103.273 E.1358
G1 X137.988 Y103.537 E.01552
G1 X137.988 Y107.604 E.12753
G1 X137.569 Y107.604 E.01314
G1 X137.569 Y103.744 E.12102
G1 X137.15 Y103.905 E.01407
G1 X137.15 Y107.604 E.11599
G1 X136.731 Y107.604 E.01314
G1 X136.731 Y104.022 E.1123
G1 X136.312 Y104.1 E.01336
G1 X136.312 Y107.604 E.10986
G1 X135.893 Y107.604 E.01314
G1 X135.893 Y104.14 E.10861
G1 X135.474 Y104.143 E.01314
G1 X135.474 Y107.604 E.10851
G1 X135.055 Y107.604 E.01314
G1 X135.055 Y104.109 E.10958
G1 X134.636 Y104.038 E.01333
M73 P5 R45
G1 X134.636 Y107.604 E.11183
G1 X134.217 Y107.604 E.01314
G1 X134.217 Y103.926 E.11531
G1 X133.799 Y103.773 E.01399
G1 X133.799 Y107.604 E.12013
G1 X133.38 Y107.604 E.01314
M73 Q5 S46
G1 X133.38 Y103.572 E.12641
G1 X132.961 Y103.319 E.01535
G1 X132.961 Y107.604 E.13435
G1 X132.542 Y107.604 E.01314
G1 X132.542 Y102.998 E.14441
G1 X132.123 Y102.588 E.01839
G1 X132.123 Y107.604 E.15728
G1 X131.704 Y107.604 E.01314
G1 X131.704 Y102.061 E.17381
G1 X131.506 Y101.748 E.01158
G1 X131.285 Y101.304 E.01557
G1 X131.285 Y107.604 E.19754
G1 X130.866 Y107.604 E.01314
G1 X130.866 Y98.15 E.29642
G1 X130.447 Y98.15 E.01314
G1 X130.447 Y107.604 E.29642
G1 X130.028 Y107.604 E.01314
G1 X130.028 Y98.15 E.29642
G1 X129.609 Y98.15 E.01314
G1 X129.609 Y107.604 E.29642
G1 X129.317 Y107.604 E.00914
G1 X129.317 Y105.297 E.07234
G1 X129.19 Y105.297 E.00399
G1 X129.19 Y98.15 E.22409
G1 X128.771 Y98.15 E.01314
G1 X128.771 Y105.297 E.22409
G1 X128.352 Y105.297 E.01314
G1 X128.352 Y98.15 E.22409
G1 X127.933 Y98.15 E.01314
G1 X127.933 Y105.297 E.22409
G1 X127.514 Y105.297 E.01314
G1 X127.514 Y98.15 E.22409
G1 X127.095 Y98.15 E.01314
G1 X127.095 Y105.297 E.22409
G1 X127.01 Y105.297 E.00266
G1 X127.01 Y100.683 E.14467
M73 Q5 S45
G1 X126.676 Y100.683 E.01048
G1 X126.676 Y98.15 E.07941
G1 X126.257 Y98.15 E.01314
G1 X126.257 Y100.683 E.07941
G1 X125.838 Y100.683 E.01314
G1 X125.838 Y98.15 E.07941
G1 X125.419 Y98.15 E.01314
G1 X125.419 Y100.683 E.07941
G1 X125 Y100.683 E.01314
G1 X125 Y97.98 E.08473
;WIPE_START
G1 F8640
G1 X125 Y100.683 E-.62399
G1 X125.419 Y100.683 E-.09674
G1 X125.419 Y100.513 E-.03927
;WIPE_END
G1 E-.04 F2100
G1 Z.8 F10800
G1 X135.725 Y98.519
G1 Z.2
G1 E.8 F2100
G1 F1200
G1 X135.872 Y98.545 E.0047
G1 X136.08 Y98.631 E.00704
G1 X136.202 Y98.717 E.0047
G1 X136.308 Y98.823 E.0047
G1 X136.394 Y98.946 E.0047
G1 X136.48 Y99.153 E.00704
G1 X136.506 Y99.301 E.0047
G1 X136.506 Y99.451 E.0047
G1 X136.458 Y99.67 E.00704
G1 X136.394 Y99.806 E.0047
G1 X136.308 Y99.929 E.0047
G1 X136.202 Y100.035 E.0047
G1 X136.08 Y100.121 E.0047
G1 X135.872 Y100.206 E.00704
G1 X135.725 Y100.232 E.0047
G1 X135.575 Y100.232 E.0047
G1 X135.355 Y100.184 E.00704
G1 X135.22 Y100.121 E.0047
G1 X135.097 Y100.035 E.0047
G1 X134.991 Y99.929 E.0047
G1 X134.87 Y99.739 E.00704
G1 X134.819 Y99.598 E.0047
G1 X134.793 Y99.451 E.0047
G1 X134.793 Y99.301 E.0047
G1 X134.819 Y99.153 E.0047
G1 X134.905 Y98.946 E.00704
G1 X134.991 Y98.823 E.0047
G1 X135.097 Y98.717 E.0047
G1 X135.22 Y98.631 E.0047
G1 X135.355 Y98.568 E.0047
G1 X135.5 Y98.529 E.0047
G1 X135.668 Y98.517 E.00528
G1 X135.893 Y100.021 F10800
G1 F1200
G1 X135.893 Y98.917 E.03463
G1 X135.74 Y98.863 E.00509
G1 X135.604 Y98.857 E.00426
G1 X135.474 Y98.886 E.00417
G1 X135.474 Y100.043 E.03628
;WIPE_START
G1 F8640
G1 X135.474 Y98.886 E-.26719
G1 X135.604 Y98.857 E-.0307
G1 X135.74 Y98.863 E-.03136
G1 X135.893 Y98.917 E-.0375
G1 X135.893 Y100.021 E-.25501
;WIPE_END
G1 E-.17823 F2100
G1 Z.8 F10800
G1 X146.4 Y90.941
G1 Z.2
G1 E.8 F2100
G1 F1200
G1 X124.364 Y90.941 E.69094
G1 X124.364 Y88.214 E.08549
G1 X146.4 Y88.214 E.69094
G1 X146.4 Y90.884 E.08372
G1 X145.949 Y90.771 F10800
G1 F1200
G1 X145.949 Y88.553 E.06953
G1 X145.53 Y88.553 E.01314
G1 X145.53 Y90.601 E.06421
G1 X145.111 Y90.601 E.01314
G1 X145.111 Y88.553 E.06421
G1 X144.692 Y88.553 E.01314
G1 X144.692 Y90.601 E.06421
G1 X144.273 Y90.601 E.01314
G1 X144.273 Y88.553 E.06421
G1 X143.854 Y88.553 E.01314
G1 X143.854 Y90.601 E.06421
G1 X143.435 Y90.601 E.01314
G1 X143.435 Y88.553 E.06421
G1 X143.016 Y88.553 E.01314
G1 X143.016 Y90.601 E.06421
G1 X142.597 Y90.601 E.01314
G1 X142.597 Y88.553 E.06421
G1 X142.178 Y88.553 E.01314
G1 X142.178 Y90.601 E.06421
G1 X141.759 Y90.601 E.01314
G1 X141.759 Y88.553 E.06421
