; generated by PrusaSlicer 2.4.1+win64 on 2022-04-23 at 21:08:23 UTC

; 

; external perimeters extrusion width = 0.45mm
; perimeters extrusion width = 0.45mm
; infill extrusion width = 0.45mm
; solid infill extrusion width = 0.45mm
; top infill extrusion width = 0.40mm
; support material extrusion width = 0.35mm
; first layer extrusion width = 0.42mm

M73 P0 R76
M73 Q0 S76
M107
;TYPE:Custom
M862.3 P "MK3S" ; printer model check
M862.1 P0.4 ; nozzle diameter check
M115 U3.9.1 ; tell printer latest fw version
G90 ; use absolute coordinates
M83 ; extruder relative mode
M104 S215 ; set extruder temp
M140 S60 ; set bed temp
M190 S60 ; wait for bed temp
M109 S215 ; wait for extruder temp
G28 W ; home all without mesh bed level
G80 ; mesh bed leveling
G1 Y-3.0 F1000.0 ; go outside print area
G92 E0.0
G1 X60.0 E9.0 F1000.0 ; intro line
G1 X100.0 E12.5 F1000.0 ; intro line
G92 E0.0
M221 S95

; Don't change E values below. Excessive value can damage the printer.
M907 E430 ; set extruder motor current
G21 ; set units to millimeters
G90 ; use absolute coordinates
M83 ; use relative distances for extrusion
M900 K0.05 ; Filament gcode LA 1.5
M900 K30 ; Filament gcode LA 1.0
M107
;LAYER_CHANGE
;Z:0.2
;HEIGHT:0.2
;BEFORE_LAYER_CHANGE
G92 E0.0
;0.2


G1 E-.8 F2100
G1 Z.6 F10800
;AFTER_LAYER_CHANGE
;0.2
G1 X74.234 Y86.533
G1 Z.2
G1 E.8 F2100
M204 S1000
;TYPE:Skirt/Brim
;WIDTH:0.42
G1 F1200
G1 X74.852 Y86.088 E.02388
G1 X79.466 Y83.781 E.16175
G1 X80.529 Y83.53 E.03425
G1 X146.75 Y83.556 E2.0763
G1 X170.1 Y87.027 E.74016
M73 P0 R75
G1 X171.684 Y87.996 E.05825
G1 X181.684 Y101.996 E.53944
G1 X182.127 Y103.378 E.04549
G1 X182.127 Y109.378 E.18813
G1 X181.735 Y110.685 E.04278
G1 X180.129 Y111.724 E.05999
G1 X89.102 Y126.44 E2.89114
G1 X68.994 Y126.47 E.6305
G1 X67.313 Y125.774 E.05704
G1 X65.006 Y123.467 E.1023
G1 X64.31 Y121.786 E.05704
G1 X64.31 Y99.749 E.69094
G1 X64.561 Y98.686 E.03425
G1 X66.868 Y94.072 E.16175
G1 X67.313 Y93.454 E.02388
G1 X74.192 Y86.576 E.30502
;WIPE_START
G1 F8640
G1 X74.852 Y86.088 E-.18953
G1 X77.062 Y84.983 E-.57047
;WIPE_END
G1 E-.04 F2100
G1 Z.8 F10800
G1 X97.951 Y88.943
G1 Z.2
G1 E.8 F2100
;TYPE:Support material
G1 F1200
G1 X92.82 Y88.943 E.1609
G1 X92.565 Y89.198 E.0113
G1 X92.565 Y96.408 E.22608
G1 X91.03 Y96.408 E.04812
G1 X91.03 Y98.715 E.07234
G1 X86.416 Y98.715 E.14467
G1 X86.416 Y102.057 E.10477
G1 X88.723 Y102.057 E.07234
G1 X88.723 Y104.364 E.07234
G1 X91.03 Y104.364 E.07234
G1 X91.03 Y106.671 E.07234
G1 X92.565 Y106.671 E.04812
G1 X92.565 Y107.558 E.02782
G1 X92.82 Y107.813 E.0113
G1 X107.546 Y107.813 E.46172
G1 X107.643 Y107.79 E.00315
G1 X111.794 Y105.735 E.14522
G1 X111.794 Y112.558 E.21393
G1 X107.18 Y112.558 E.14467
G1 X107.18 Y114.865 E.07234
G1 X102.566 Y114.865 E.14467
G1 X102.566 Y117.172 E.07234
G1 X97.951 Y117.172 E.14467
G1 X97.951 Y119.479 E.07234
G1 X93.337 Y119.479 E.14467
G1 X93.337 Y121.786 E.07234
G1 X88.723 Y121.786 E.14467
G1 X88.723 Y124.093 E.07234
G1 X68.994 Y124.093 E.6186
G1 X68.994 Y121.786 E.07234
G1 X66.687 Y121.786 E.07234
G1 X66.687 Y99.749 E.69094
G1 X68.994 Y99.749 E.07234
G1 X68.994 Y95.135 E.14467
G1 X71.301 Y95.135 E.07234
G1 X71.301 Y92.828 E.07234
G1 X73.608 Y92.828 E.07234
G1 X73.608 Y90.521 E.07234
G1 X75.915 Y90.521 E.07234
G1 X75.915 Y88.214 E.07234
G1 X80.529 Y88.214 E.14467
G1 X80.529 Y85.907 E.07234
G1 X97.951 Y85.907 E.54626
G1 X97.951 Y88.886 E.09341
;WIPE_START
G1 F8640
G1 X97.951 Y85.907 E-.68793
G1 X97.639 Y85.907 E-.07207
;WIPE_END
G1 E-.04 F2100
G1 Z.8 F10800
G1 X111.174 Y112.388
G1 Z.2
G1 E.8 F2100
G1 F1200
G1 X111.174 Y106.42 E.18711
G1 X110.755 Y106.628 E.01466
G1 X110.755 Y112.218 E.17528
G1 X110.336 Y112.218 E.01314
G1 X110.336 Y106.835 E.16878
G1 X109.917 Y107.043 E.01466
G1 X109.917 Y112.218 E.16227
G1 X109.498 Y112.218 E.01314
G1 X109.498 Y107.25 E.15576
G1 X109.079 Y107.458 E.01466
G1 X109.079 Y112.218 E.14926
G1 X108.66 Y112.218 E.01314
G1 X108.66 Y107.665 E.14275
G1 X108.241 Y107.873 E.01466
G1 X108.241 Y112.218 E.13625
G1 X107.822 Y112.218 E.01314
G1 X107.822 Y108.08 E.12974
G1 X107.585 Y108.152 E.00777
G1 X107.403 Y108.152 E.0057
G1 X107.403 Y112.218 E.12749
G1 X106.984 Y112.218 E.01314
G1 X106.984 Y108.152 E.12749
G1 X106.565 Y108.152 E.01314
G1 X106.565 Y114.525 E.19982
G1 X106.146 Y114.525 E.01314
G1 X106.146 Y108.152 E.19982
G1 X105.727 Y108.152 E.01314
G1 X105.727 Y114.525 E.19982
G1 X105.308 Y114.525 E.01314
G1 X105.308 Y108.152 E.19982
G1 X104.889 Y108.152 E.01314
G1 X104.889 Y114.525 E.19982
G1 X104.47 Y114.525 E.01314
G1 X104.47 Y108.152 E.19982
G1 X104.051 Y108.152 E.01314
G1 X104.051 Y114.525 E.19982
G1 X103.632 Y114.525 E.01314
G1 X103.632 Y108.152 E.19982
G1 X103.213 Y108.152 E.01314
G1 X103.213 Y114.525 E.19982
G1 X102.794 Y114.525 E.01314
M73 Q0 S75
G1 X102.794 Y108.152 E.19982
G1 X102.375 Y108.152 E.01314
G1 X102.375 Y114.525 E.19982
G1 X102.226 Y114.525 E.00467
G1 X102.226 Y116.832 E.07234
G1 X101.956 Y116.832 E.00846
G1 X101.956 Y108.152 E.27216
G1 X101.537 Y108.152 E.01314
G1 X101.537 Y116.832 E.27216
G1 X101.118 Y116.832 E.01314
G1 X101.118 Y108.152 E.27216
G1 X100.699 Y108.152 E.01314
G1 X100.699 Y116.832 E.27216
G1 X100.28 Y116.832 E.01314
G1 X100.28 Y108.152 E.27216
G1 X99.861 Y108.152 E.01314
G1 X99.861 Y116.832 E.27216
G1 X99.442 Y116.832 E.01314
G1 X99.442 Y108.152 E.27216
G1 X99.023 Y108.152 E.01314
G1 X99.023 Y116.832 E.27216
G1 X98.604 Y116.832 E.01314
G1 X98.604 Y108.152 E.27216
G1 X98.185 Y108.152 E.01314
G1 X98.185 Y116.832 E.27216
G1 X97.766 Y116.832 E.01314
G1 X97.766 Y108.152 E.27216
G1 X97.348 Y108.152 E.01314
G1 X97.348 Y119.139 E.3445
G1 X96.929 Y119.139 E.01314
G1 X96.929 Y108.152 E.3445
G1 X96.51 Y108.152 E.01314
M73 P1 R75
M73 Q1 S75
G1 X96.51 Y119.139 E.3445
G1 X96.091 Y119.139 E.01314
G1 X96.091 Y108.152 E.3445
G1 X95.672 Y108.152 E.01314
G1 X95.672 Y119.139 E.3445
G1 X95.253 Y119.139 E.01314
G1 X95.253 Y108.152 E.3445
G1 X94.834 Y108.152 E.01314
G1 X94.834 Y119.139 E.3445
G1 X94.415 Y119.139 E.01314
G1 X94.415 Y108.152 E.3445
G1 X93.996 Y108.152 E.01314
G1 X93.996 Y119.139 E.3445
G1 X93.577 Y119.139 E.01314
G1 X93.577 Y108.152 E.3445
G1 X93.158 Y108.152 E.01314
G1 X93.158 Y119.139 E.3445
G1 X92.998 Y119.139 E.00501
G1 X92.998 Y121.447 E.07234
G1 X92.739 Y121.447 E.00812
G1 X92.739 Y108.152 E.41683
G1 X92.679 Y108.152 E.00187
G1 X92.32 Y107.793 E.01594
G1 X92.32 Y121.447 E.4281
G1 X91.901 Y121.447 E.01314
G1 X91.901 Y107.01 E.45265
G1 X91.482 Y107.01 E.01314
G1 X91.482 Y121.447 E.45265
G1 X91.063 Y121.447 E.01314
G1 X91.063 Y107.01 E.45265
G1 X90.691 Y107.01 E.01167
G1 X90.691 Y104.703 E.07234
G1 X90.644 Y104.703 E.00147
G1 X90.644 Y121.447 E.52498
G1 X90.225 Y121.447 E.01314
G1 X90.225 Y104.703 E.52498
G1 X89.806 Y104.703 E.01314
G1 X89.806 Y121.447 E.52498
G1 X89.387 Y121.447 E.01314
G1 X89.387 Y104.703 E.52498
G1 X88.968 Y104.703 E.01314
G1 X88.968 Y121.447 E.52498
G1 X88.549 Y121.447 E.01314
G1 X88.549 Y104.703 E.52498
G1 X88.384 Y104.703 E.00518
G1 X88.384 Y102.396 E.07234
G1 X88.13 Y102.396 E.00795
G1 X88.13 Y123.754 E.66966
G1 X87.711 Y123.754 E.01314
G1 X87.711 Y102.396 E.66966
G1 X87.292 Y102.396 E.01314
G1 X87.292 Y123.754 E.66966
G1 X86.873 Y123.754 E.01314
G1 X86.873 Y102.396 E.66966
G1 X86.454 Y102.396 E.01314
G1 X86.454 Y123.754 E.66966
G1 X86.035 Y123.754 E.01314
G1 X86.035 Y86.246 E1.17601
G1 X86.454 Y86.246 E.01314
G1 X86.454 Y98.376 E.38031
G1 X86.873 Y98.376 E.01314
G1 X86.873 Y86.246 E.38031
G1 X87.292 Y86.246 E.01314
M73 P1 R74
G1 X87.292 Y98.376 E.38031
G1 X87.711 Y98.376 E.01314
G1 X87.711 Y86.246 E.38031
G1 X88.13 Y86.246 E.01314
G1 X88.13 Y98.376 E.38031
G1 X88.549 Y98.376 E.01314
G1 X88.549 Y86.246 E.38031
G1 X88.968 Y86.246 E.01314
G1 X88.968 Y98.376 E.38031
G1 X89.387 Y98.376 E.01314
G1 X89.387 Y86.246 E.38031
G1 X89.806 Y86.246 E.01314
G1 X89.806 Y98.376 E.38031
G1 X90.225 Y98.376 E.01314
G1 X90.225 Y86.246 E.38031
G1 X90.644 Y86.246 E.01314
G1 X90.644 Y98.376 E.38031
G1 X90.691 Y98.376 E.00147
G1 X90.691 Y96.069 E.07234
G1 X91.063 Y96.069 E.01167
G1 X91.063 Y86.246 E.30797
G1 X91.482 Y86.246 E.01314
G1 X91.482 Y96.069 E.30797
G1 X91.901 Y96.069 E.01314
G1 X91.901 Y86.246 E.30797
G1 X92.32 Y86.246 E.01314
G1 X92.32 Y88.963 E.08518
G1 X92.679 Y88.604 E.01594
G1 X92.739 Y88.604 E.00187
G1 X92.739 Y86.246 E.07391
G1 X93.158 Y86.246 E.01314
G1 X93.158 Y88.604 E.07391
G1 X93.577 Y88.604 E.01314
G1 X93.577 Y86.246 E.07391
G1 X93.996 Y86.246 E.01314
G1 X93.996 Y88.604 E.07391
G1 X94.415 Y88.604 E.01314
G1 X94.415 Y86.246 E.07391
G1 X94.834 Y86.246 E.01314
G1 X94.834 Y88.604 E.07391
G1 X95.253 Y88.604 E.01314
G1 X95.253 Y86.246 E.07391
G1 X95.672 Y86.246 E.01314
G1 X95.672 Y88.604 E.07391
G1 X96.091 Y88.604 E.01314
G1 X96.091 Y86.246 E.07391
G1 X96.51 Y86.246 E.01314
G1 X96.51 Y88.604 E.07391
G1 X96.929 Y88.604 E.01314
G1 X96.929 Y86.246 E.07391
G1 X97.348 Y86.246 E.01314
G1 X97.348 Y88.773 E.07923
;WIPE_START
G1 F8640
G1 X97.348 Y86.246 E-.58345
G1 X96.929 Y86.246 E-.09674
G1 X96.929 Y86.592 E-.07981
;WIPE_END
G1 E-.04 F2100
G1 Z.8 F10800
G1 X85.616 Y123.923
G1 Z.2
G1 E.8 F2100
G1 F1200
G1 X85.616 Y86.246 E1.18133
G1 X85.197 Y86.246 E.01314
G1 X85.197 Y123.754 E1.17601
G1 X84.778 Y123.754 E.01314
G1 X84.778 Y86.246 E1.17601
G1 X84.359 Y86.246 E.01314
G1 X84.359 Y123.754 E1.17601
G1 X83.94 Y123.754 E.01314
G1 X83.94 Y86.246 E1.17601
G1 X83.521 Y86.246 E.01314
G1 X83.521 Y123.754 E1.17601
G1 X83.102 Y123.754 E.01314
G1 X83.102 Y86.246 E1.17601
G1 X82.683 Y86.246 E.01314
M73 P2 R74
M73 Q2 S75
G1 X82.683 Y123.754 E1.17601
G1 X82.264 Y123.754 E.01314
G1 X82.264 Y86.246 E1.17601
G1 X81.845 Y86.246 E.01314
G1 X81.845 Y123.754 E1.17601
G1 X81.426 Y123.754 E.01314
G1 X81.426 Y86.246 E1.17601
M73 Q2 S74
G1 X81.007 Y86.246 E.01314
G1 X81.007 Y123.754 E1.17601
G1 X80.588 Y123.754 E.01314
G1 X80.588 Y88.553 E1.10368
G1 X80.169 Y88.553 E.01314
G1 X80.169 Y123.754 E1.10368
G1 X79.75 Y123.754 E.01314
G1 X79.75 Y88.553 E1.10368
G1 X79.332 Y88.553 E.01314
G1 X79.332 Y123.754 E1.10368
G1 X78.913 Y123.754 E.01314
G1 X78.913 Y88.553 E1.10368
G1 X78.494 Y88.553 E.01314
G1 X78.494 Y123.754 E1.10368
G1 X78.075 Y123.754 E.01314
G1 X78.075 Y88.553 E1.10368
G1 X77.656 Y88.553 E.01314
G1 X77.656 Y123.754 E1.10368
G1 X77.237 Y123.754 E.01314
G1 X77.237 Y88.553 E1.10368
G1 X76.818 Y88.553 E.01314
G1 X76.818 Y123.754 E1.10368
G1 X76.399 Y123.754 E.01314
G1 X76.399 Y88.553 E1.10368
G1 X76.254 Y88.553 E.00453
G1 X76.254 Y90.861 E.07234
G1 X75.98 Y90.861 E.00861
G1 X75.98 Y123.754 E1.03134
G1 X75.561 Y123.754 E.01314
G1 X75.561 Y90.861 E1.03134
G1 X75.142 Y90.861 E.01314
G1 X75.142 Y123.754 E1.03134
G1 X74.723 Y123.754 E.01314
G1 X74.723 Y90.861 E1.03134
G1 X74.304 Y90.861 E.01314
G1 X74.304 Y123.754 E1.03134
M73 P2 R73
G1 X73.885 Y123.754 E.01314
G1 X73.885 Y93.168 E.959
G1 X73.466 Y93.168 E.01314
G1 X73.466 Y123.754 E.959
G1 X73.047 Y123.754 E.01314
G1 X73.047 Y93.168 E.959
G1 X72.628 Y93.168 E.01314
G1 X72.628 Y123.754 E.959
G1 X72.209 Y123.754 E.01314
G1 X72.209 Y93.168 E.959
G1 X71.79 Y93.168 E.01314
M73 P3 R73
M73 Q3 S74
G1 X71.79 Y123.754 E.959
G1 X71.371 Y123.754 E.01314
G1 X71.371 Y95.475 E.88667
G1 X70.952 Y95.475 E.01314
G1 X70.952 Y123.754 E.88667
G1 X70.533 Y123.754 E.01314
G1 X70.533 Y95.475 E.88667
G1 X70.114 Y95.475 E.01314
G1 X70.114 Y123.754 E.88667
G1 X69.695 Y123.754 E.01314
G1 X69.695 Y95.475 E.88667
G1 X69.333 Y95.475 E.01135
G1 X69.333 Y100.089 E.14467
G1 X69.276 Y100.089 E.00179
G1 X69.276 Y121.447 E.66966
G1 X68.857 Y121.447 E.01314
G1 X68.857 Y100.089 E.66966
G1 X68.438 Y100.089 E.01314
G1 X68.438 Y121.447 E.66966
G1 X68.019 Y121.447 E.01314
G1 X68.019 Y100.089 E.66966
G1 X67.6 Y100.089 E.01314
G1 X67.6 Y121.447 E.66966
G1 X67.181 Y121.447 E.01314
G1 X67.181 Y99.919 E.67498
;WIPE_START
G1 F8640
G1 X67.181 Y103.211 E-.76
;WIPE_END
G1 E-.04 F2100
G1 Z.8 F10800
G1 X131.215 Y101.383
G1 Z.2
G1 E.8 F2100
G1 F1200
G1 X131.233 Y101.774 E.01228
G1 X131.284 Y102.157 E.01213
G1 X131.369 Y102.535 E.01213
G1 X131.486 Y102.904 E.01213
G1 X131.635 Y103.261 E.01213
G1 X131.814 Y103.604 E.01213
G1 X132.023 Y103.929 E.01213
G1 X132.259 Y104.236 E.01213
G1 X132.521 Y104.521 E.01213
G1 X132.807 Y104.781 E.01213
G1 X133.098 Y105.005 E.01153
G1 X133.424 Y105.214 E.01213
G1 X133.767 Y105.393 E.01213
G1 X134.124 Y105.542 E.01213
G1 X134.493 Y105.659 E.01213
G1 X134.871 Y105.744 E.01213
G1 X135.254 Y105.795 E.01213
G1 X135.66 Y105.813 E.01273
G1 X136.046 Y105.795 E.01213
G1 X136.411 Y105.747 E.01154
G1 X136.789 Y105.664 E.01213
G1 X137.176 Y105.542 E.01273
G1 X137.516 Y105.401 E.01154
G1 X137.859 Y105.223 E.01213
G1 X138.202 Y105.005 E.01273
G1 X138.493 Y104.781 E.01154
G1 X138.779 Y104.521 E.01213
G1 X139.054 Y104.221 E.01273
G1 X139.288 Y103.914 E.01213
G1 X139.486 Y103.604 E.01154
G1 X139.665 Y103.261 E.01213
G1 X139.814 Y102.904 E.01213
G1 X139.936 Y102.517 E.01273
G1 X140.019 Y102.139 E.01213
G1 X140.069 Y101.755 E.01213
G1 X140.085 Y101.383 E.01168
G1 X140.085 Y99.813 E.04922
G1 X146.4 Y99.813 E.19801
G1 X146.4 Y103.329 E.11025
G1 X144.093 Y103.329 E.07234
G1 X144.093 Y107.943 E.14467
G1 X141.786 Y107.943 E.07234
G1 X141.786 Y110.251 E.07234
G1 X128.978 Y110.251 E.40159
G1 X128.978 Y107.943 E.07234
G1 X126.671 Y107.943 E.07234
G1 X126.671 Y103.329 E.14467
G1 X124.364 Y103.329 E.07234
G1 X124.364 Y99.813 E.11025
G1 X131.215 Y99.813 E.21482
M73 Q3 S73
G1 X131.215 Y101.326 E.04745
;WIPE_START
G1 F8640
G1 X131.215 Y99.813 E-.3494
G1 X129.437 Y99.813 E-.4106
;WIPE_END
G1 E-.04 F2100
G1 Z.8 F10800
G1 X145.949 Y103.16
G1 Z.2
G1 E.8 F2100
G1 F1200
G1 X145.949 Y100.152 E.09429
G1 X145.53 Y100.152 E.01314
G1 X145.53 Y102.99 E.08897
G1 X145.111 Y102.99 E.01314
G1 X145.111 Y100.152 E.08897
G1 X144.692 Y100.152 E.01314
G1 X144.692 Y102.99 E.08897
G1 X144.273 Y102.99 E.01314
G1 X144.273 Y100.152 E.08897
G1 X143.854 Y100.152 E.01314
G1 X143.854 Y102.99 E.08897
G1 X143.754 Y102.99 E.00315
G1 X143.754 Y107.604 E.14467
G1 X143.435 Y107.604 E.00999
G1 X143.435 Y100.152 E.23365
G1 X143.016 Y100.152 E.01314
G1 X143.016 Y107.604 E.23365
G1 X142.597 Y107.604 E.01314
G1 X142.597 Y100.152 E.23365
G1 X142.178 Y100.152 E.01314
G1 X142.178 Y107.604 E.23365
G1 X141.759 Y107.604 E.01314
G1 X141.759 Y100.152 E.23365
G1 X141.34 Y100.152 E.01314
G1 X141.34 Y109.911 E.30598
G1 X140.921 Y109.911 E.01314
G1 X140.921 Y100.152 E.30598
G1 X140.502 Y100.152 E.01314
G1 X140.502 Y109.911 E.30598
G1 X140.083 Y109.911 E.01314
G1 X140.083 Y103.141 E.21226
G1 X139.97 Y103.411 E.00917
G1 X139.664 Y103.956 E.01959
G1 X139.664 Y109.911 E.18673
G1 X139.245 Y109.911 E.01314
G1 X139.245 Y104.516 E.16917
G1 X138.826 Y104.938 E.01865
G1 X138.826 Y109.911 E.15593
G1 X138.407 Y109.911 E.01314
G1 X138.407 Y105.275 E.14535
G1 X137.988 Y105.539 E.01552
G1 X137.988 Y109.911 E.13709
G1 X137.569 Y109.911 E.01314
G1 X137.569 Y105.746 E.13058
G1 X137.15 Y105.907 E.01407
G1 X137.15 Y109.911 E.12555
G1 X136.731 Y109.911 E.01314
G1 X136.731 Y106.025 E.12186
G1 X136.312 Y106.102 E.01336
G1 X136.312 Y109.911 E.11942
G1 X135.893 Y109.911 E.01314
G1 X135.893 Y106.142 E.11817
G1 X135.474 Y106.145 E.01314
G1 X135.474 Y109.911 E.11808
G1 X135.055 Y109.911 E.01314
G1 X135.055 Y106.111 E.11914
G1 X134.636 Y106.04 E.01333
G1 X134.636 Y109.911 E.12139
G1 X134.217 Y109.911 E.01314
G1 X134.217 Y105.928 E.12488
G1 X133.799 Y105.775 E.01399
G1 X133.799 Y109.911 E.1297
G1 X133.38 Y109.911 E.01314
G1 X133.38 Y105.574 E.13598
G1 X132.961 Y105.321 E.01535
G1 X132.961 Y109.911 E.14392
G1 X132.542 Y109.911 E.01314
G1 X132.542 Y105 E.15398
G1 X132.123 Y104.59 E.01839
G1 X132.123 Y109.911 E.16685
G1 X131.704 Y109.911 E.01314
G1 X131.704 Y104.062 E.18339
G1 X131.507 Y103.75 E.01156
G1 X131.285 Y103.305 E.0156
G1 X131.285 Y109.911 E.20713
G1 X130.866 Y109.911 E.01314
G1 X130.866 Y100.152 E.30598
G1 X130.447 Y100.152 E.01314
G1 X130.447 Y109.911 E.30598
G1 X130.028 Y109.911 E.01314
G1 X130.028 Y100.152 E.30598
G1 X129.609 Y100.152 E.01314
G1 X129.609 Y109.911 E.30598
G1 X129.317 Y109.911 E.00914
G1 X129.317 Y107.604 E.07234
G1 X129.19 Y107.604 E.00399
G1 X129.19 Y100.152 E.23365
G1 X128.771 Y100.152 E.01314
G1 X128.771 Y107.604 E.23365
