; generated by PrusaSlicer 2.4.1+win64 on 2022-04-11 at 01:47:31 UTC

; 

; external perimeters extrusion width = 0.45mm
; perimeters extrusion width = 0.45mm
; infill extrusion width = 0.45mm
; solid infill extrusion width = 0.45mm
; top infill extrusion width = 0.40mm
; first layer extrusion width = 0.42mm

; external perimeters extrusion width = 0.45mm
; perimeters extrusion width = 0.45mm
; infill extrusion width = 0.45mm
; solid infill extrusion width = 0.45mm
; top infill extrusion width = 0.40mm
; first layer extrusion width = 0.42mm

; external perimeters extrusion width = 0.45mm
; perimeters extrusion width = 0.45mm
; infill extrusion width = 0.45mm
; solid infill extrusion width = 0.45mm
; top infill extrusion width = 0.40mm
; first layer extrusion width = 0.42mm

; external perimeters extrusion width = 0.45mm
; perimeters extrusion width = 0.45mm
; infill extrusion width = 0.45mm
; solid infill extrusion width = 0.45mm
; top infill extrusion width = 0.40mm
; first layer extrusion width = 0.42mm

; external perimeters extrusion width = 0.45mm
; perimeters extrusion width = 0.45mm
; infill extrusion width = 0.45mm
; solid infill extrusion width = 0.45mm
; top infill extrusion width = 0.40mm
; first layer extrusion width = 0.42mm

; external perimeters extrusion width = 0.45mm
; perimeters extrusion width = 0.45mm
; infill extrusion width = 0.45mm
; solid infill extrusion width = 0.45mm
; top infill extrusion width = 0.40mm
; first layer extrusion width = 0.42mm

; external perimeters extrusion width = 0.45mm
; perimeters extrusion width = 0.45mm
; infill extrusion width = 0.45mm
; solid infill extrusion width = 0.45mm
; top infill extrusion width = 0.40mm
; first layer extrusion width = 0.42mm

; external perimeters extrusion width = 0.45mm
; perimeters extrusion width = 0.45mm
; infill extrusion width = 0.45mm
; solid infill extrusion width = 0.45mm
; top infill extrusion width = 0.40mm
; first layer extrusion width = 0.42mm

; external perimeters extrusion width = 0.45mm
; perimeters extrusion width = 0.45mm
; infill extrusion width = 0.45mm
; solid infill extrusion width = 0.45mm
; top infill extrusion width = 0.40mm
; first layer extrusion width = 0.42mm

M73 P0 R49
M73 Q0 S50
M107
;TYPE:Custom
M862.3 P "MK3S" ; printer model check
M862.1 P0.4 ; nozzle diameter check
M115 U3.9.1 ; tell printer latest fw version
G90 ; use absolute coordinates
M83 ; extruder relative mode
M104 S215 ; set extruder temp
M140 S60 ; set bed temp
M190 S60 ; wait for bed temp
M109 S215 ; wait for extruder temp
G28 W ; home all without mesh bed level
G80 ; mesh bed leveling
G1 Y-3.0 F1000.0 ; go outside print area
G92 E0.0
G1 X60.0 E9.0 F1000.0 ; intro line
G1 X100.0 E12.5 F1000.0 ; intro line
G92 E0.0
M221 S95

; Don't change E values below. Excessive value can damage the printer.
M907 E430 ; set extruder motor current
G21 ; set units to millimeters
G90 ; use absolute coordinates
M83 ; use relative distances for extrusion
M900 K0.05 ; Filament gcode LA 1.5
M900 K30 ; Filament gcode LA 1.0
M107
;LAYER_CHANGE
;Z:0.2
;HEIGHT:0.2
;BEFORE_LAYER_CHANGE
G92 E0.0
;0.2


G1 E-.8 F2100
G1 Z.6 F10800
;AFTER_LAYER_CHANGE
;0.2
G1 X110.107 Y100.379
G1 Z.2
G1 E.8 F2100
M204 S1000
;TYPE:Skirt/Brim
;WIDTH:0.42
G1 F1200
G1 X110.856 Y99.767 E.03032
G1 X117.927 Y94.843 E.27017
G1 X119.698 Y93.818 E.06413
G1 X121.711 Y93.07 E.06735
G1 X123.823 Y92.681 E.06734
G1 X125.103 Y92.625 E.04017
G1 X126.251 Y92.69 E.03603
G1 X128.09 Y93.017 E.05856
G1 X129.118 Y93.33 E.0337
G1 X130.302 Y93.818 E.04017
M73 Q0 S49
G1 X132.073 Y94.843 E.06413
G1 X139.491 Y100.028 E.28378
G1 X164.914 Y123.449 E1.08382
G1 X165.676 Y125.064 E.05599
G1 X167.684 Y160.953 E1.12704
G1 X167.687 Y167.385 E.2017
G1 X167.296 Y168.693 E.04278
G1 X166.25 Y169.569 E.04278
G1 X165.31 Y169.763 E.03008
G1 X145.31 Y169.763 E.62709
G1 X116.895 Y168.618 E.89165
G1 X115.605 Y168.174 E.04278
G1 X114.633 Y166.544 E.0595
G1 X113.099 Y154.523 E.37994
G1 X108.166 Y105.74 E1.53737
G1 X108.126 Y104.833 E.02848
G1 X108.186 Y104.118 E.02247
G1 X108.425 Y103.064 E.03391
G1 X108.833 Y102.079 E.03342
G1 X109.399 Y101.175 E.03343
G1 X110.068 Y100.424 E.03155
;WIPE_START
G1 F8640
G1 X110.856 Y99.767 E-.23696
G1 X112.715 Y98.472 E-.52304
;WIPE_END
G1 E-.04 F2100
G1 Z.8 F10800
G1 X156.646 Y126.886
G1 Z.2
G1 E.8 F2100
;TYPE:Perimeter
G1 F1200
G1 X157.023 Y126.541 E.01602
G1 X157.368 Y126.342 E.0125
G1 X157.731 Y126.209 E.01213
G1 X158.135 Y126.14 E.01286
G1 X158.675 Y126.165 E.01693
G1 X159.059 Y126.268 E.01247
G1 X159.408 Y126.431 E.01209
G1 X159.724 Y126.652 E.01209
G1 X159.997 Y126.925 E.01209
G1 X160.218 Y127.24 E.01209
G1 X160.386 Y127.602 E.01249
G1 X160.506 Y128.141 E.01731
G1 X160.506 Y128.541 E.01254
G1 X160.433 Y128.944 E.01286
G1 X160.225 Y129.442 E.01692
G1 X159.997 Y129.768 E.01247
G1 X159.715 Y130.05 E.01249
G1 X159.249 Y130.347 E.01731
G1 X158.875 Y130.483 E.0125
G1 X158.495 Y130.55 E.01209
G1 X158.097 Y130.55 E.0125
G1 X157.558 Y130.43 E.01731
G1 X157.197 Y130.262 E.01249
G1 X156.87 Y130.033 E.0125
G1 X156.497 Y129.626 E.01731
G1 X156.298 Y129.281 E.01249
G1 X156.166 Y128.919 E.01209
G1 X156.099 Y128.539 E.01209
G1 X156.099 Y128.141 E.01247
G1 X156.215 Y127.614 E.01692
G1 X156.386 Y127.242 E.01286
G1 X156.605 Y126.929 E.01195
G1 X156.901 Y127.164 F10800
;TYPE:External perimeter
G1 F1200
G1 X157.247 Y126.847 E.01472
G1 X157.528 Y126.685 E.01017
G1 X157.828 Y126.575 E.01003
G1 X158.159 Y126.519 E.01051
G1 X158.617 Y126.54 E.01437
G1 X158.93 Y126.624 E.01016
G1 X159.219 Y126.759 E.01002
G1 X159.481 Y126.942 E.01002
G1 X159.707 Y127.168 E.01002
G1 X159.89 Y127.43 E.01002
G1 X160.027 Y127.723 E.01017
G1 X160.129 Y128.182 E.01472
G1 X160.129 Y128.507 E.01018
G1 X160.069 Y128.837 E.01052
G1 X159.893 Y129.259 E.01436
G1 X159.707 Y129.525 E.01016
G1 X159.478 Y129.754 E.01017
G1 X159.082 Y130.006 E.01472
G1 X158.777 Y130.117 E.01017
G1 X158.462 Y130.173 E.01002
G1 X158.138 Y130.173 E.01017
G1 X157.68 Y130.071 E.01472
G1 X157.386 Y129.934 E.01017
G1 X157.12 Y129.748 E.01017
G1 X156.803 Y129.402 E.01472
G1 X156.641 Y129.121 E.01017
G1 X156.532 Y128.821 E.01002
G1 X156.476 Y128.506 E.01002
G1 X156.476 Y128.182 E.01016
G1 X156.574 Y127.735 E.01436
G1 X156.714 Y127.43 E.01052
G1 X156.866 Y127.213 E.0083
G1 X156.774 Y126.785 F10800
;WIPE_START
G1 F8640
G1 X157.247 Y126.847 E-.12199
G1 X157.528 Y126.685 E-.07489
G1 X157.828 Y126.575 E-.07388
G1 X158.159 Y126.519 E-.07742
G1 X158.617 Y126.54 E-.10579
G1 X158.93 Y126.624 E-.0748
G1 X159.219 Y126.759 E-.0738
G1 X159.481 Y126.942 E-.07379
G1 X159.707 Y127.168 E-.07378
G1 X159.731 Y127.203 E-.00985
;WIPE_END
G1 E-.04 F2100
G1 Z.8 F10800
G1 X150.497 Y128.1
G1 Z.2
G1 E.8 F2100
;TYPE:Perimeter
G1 F1200
G1 X150.506 Y128.552 E.01417
G1 X150.386 Y129.091 E.01731
G1 X150.218 Y129.452 E.0125
G1 X149.997 Y129.768 E.01209
G1 X149.715 Y130.05 E.01249
G1 X149.249 Y130.347 E.01731
G1 X148.875 Y130.483 E.01249
G1 X148.495 Y130.55 E.01209
G1 X148.11 Y130.55 E.01209
G1 X147.729 Y130.483 E.01214
G1 X147.344 Y130.34 E.01286
G1 X146.879 Y130.043 E.01731
G1 X146.505 Y129.637 E.0173
G1 X146.298 Y129.283 E.01286
G1 X146.166 Y128.919 E.01214
G1 X146.099 Y128.538 E.01213
G1 X146.101 Y128.129 E.01283
G1 X146.215 Y127.614 E.01654
G1 X146.386 Y127.242 E.01284
G1 X146.615 Y126.914 E.01254
G1 X147.023 Y126.541 E.01731
G1 X147.368 Y126.342 E.0125
G1 X147.731 Y126.209 E.01213
G1 X148.135 Y126.14 E.01286
G1 X148.675 Y126.165 E.01693
G1 X149.059 Y126.268 E.01248
G1 X149.408 Y126.431 E.01209
G1 X149.724 Y126.652 E.01209
G1 X149.997 Y126.925 E.01209
G1 X150.218 Y127.24 E.01209
G1 X150.386 Y127.602 E.0125
G1 X150.484 Y128.042 E.01414
G1 X150.129 Y128.182 F10800
;TYPE:External perimeter
G1 F1200
G1 X150.129 Y128.511 E.01031
G1 X150.027 Y128.969 E.01472
G1 X149.89 Y129.263 E.01017
G1 X149.707 Y129.525 E.01002
G1 X149.478 Y129.754 E.01016
G1 X149.082 Y130.006 E.01472
G1 X148.777 Y130.117 E.01017
G1 X148.462 Y130.173 E.01002
G1 X148.143 Y130.173 E.01002
G1 X147.827 Y130.117 E.01004
G1 X147.513 Y130.001 E.01052
G1 X147.123 Y129.751 E.0145
G1 X146.81 Y129.411 E.01449
G1 X146.641 Y129.122 E.01052
G1 X146.532 Y128.821 E.01004
G1 X146.476 Y128.506 E.01004
G1 X146.478 Y128.171 E.0105
G1 X146.574 Y127.735 E.01401
G1 X146.714 Y127.43 E.01051
G1 X146.901 Y127.164 E.01018
G1 X147.247 Y126.847 E.01472
G1 X147.528 Y126.685 E.01017
G1 X147.828 Y126.575 E.01003
G1 X148.159 Y126.519 E.01051
G1 X148.617 Y126.54 E.01437
G1 X148.93 Y126.624 E.01016
G1 X149.219 Y126.759 E.01002
G1 X149.481 Y126.942 E.01002
G1 X149.707 Y127.168 E.01002
G1 X149.89 Y127.43 E.01002
G1 X150.027 Y127.723 E.01017
G1 X150.116 Y128.123 E.01284
G1 X150.429 Y128.316 F10800
;WIPE_START
G1 F8640
G1 X150.129 Y128.511 E-.0895
G1 X150.027 Y128.969 E-.10842
G1 X149.89 Y129.263 E-.07487
G1 X149.707 Y129.525 E-.07379
G1 X149.478 Y129.754 E-.07486
G1 X149.082 Y130.006 E-.10843
G1 X148.777 Y130.117 E-.07486
G1 X148.462 Y130.173 E-.07377
G1 X148.143 Y130.173 E-.07381
G1 X148.11 Y130.167 E-.00769
;WIPE_END
G1 E-.04 F2100
G1 Z.8 F10800
G1 X144.09 Y125.983
G1 Z.2
G1 E.8 F2100
;TYPE:Perimeter
G1 F1200
G1 X162.515 Y125.983 E.57773
G1 X162.515 Y130.709 E.14818
G1 X144.09 Y130.709 E.57773
G1 X144.09 Y126.043 E.14629
G1 X143.712 Y125.606 F10800
;TYPE:External perimeter
G1 F1200
G1 X162.892 Y125.606 E.60138
G1 X162.892 Y131.086 E.17182
G1 X143.712 Y131.086 E.60138
G1 X143.712 Y125.666 E.16994
G1 X144.111 Y125.643 F10800
;WIPE_START
G1 F8640
G1 X147.004 Y125.656 E-.76
;WIPE_END
G1 E-.04 F2100
G1 Z.8 F10800
G1 X146.647 Y126.731
G1 Z.2
G1 E.8 F2100
;TYPE:Solid infill
;WIDTH:0.433209
G1 F1200
G1 X146.182 Y126.266 E.02134
G1 X145.63 Y126.266 E.01791
G1 X146.274 Y126.909 E.02951
G1 X146.14 Y127.1 E.00756
G1 X146.068 Y127.256 E.00556
G1 X145.078 Y126.266 E.04542
G1 X144.527 Y126.266 E.01791
G1 X145.916 Y127.656 E.06376
G1 X145.818 Y128.11 E.01507
G1 X144.372 Y126.664 E.06635
G1 X144.372 Y127.216 E.01791
G1 X145.837 Y128.68 E.06721
G1 X145.892 Y128.992 E.01028
G1 X146.041 Y129.403 E.01419
G1 X146.088 Y129.484 E.00304
G1 X144.372 Y127.768 E.07876
G1 X144.372 Y128.32 E.01791
G1 X146.479 Y130.426 E.09668
G1 X145.927 Y130.426 E.01791
M73 Q1 S49
G1 X144.372 Y128.872 E.07135
G1 X144.372 Y129.424 E.01791
G1 X145.375 Y130.426 E.04602
G1 X144.823 Y130.426 E.01791
M73 P1 R49
G1 X144.203 Y129.806 E.02848
;WIPE_START
G1 F8640
G1 X144.823 Y130.426 E-.20261
G1 X145.375 Y130.426 E-.12745
G1 X144.372 Y129.424 E-.32744
G1 X144.372 Y128.98 E-.1025
;WIPE_END
G1 E-.04 F2100
G1 Z.8 F10800
G1 X146.888 Y130.299
G1 Z.2
G1 E.8 F2100
;TYPE:Gap fill
;WIDTH:0.123376
G1 F1200
G1 X147.02 Y130.41 E.00116
;WIDTH:0.153432
G1 X147.153 Y130.521 E.00159
;WIPE_START
G1 F8640
G1 X147.02 Y130.41 E-.0399
;WIPE_END
G1 E-.7601 F2100
G1 Z.8 F10800
G1 X149.432 Y130.521
G1 Z.2
G1 E.8 F2100
;WIDTH:0.138608
G1 F1200
G1 X149.673 Y130.327 E.00246
;WIPE_START
G1 F8640
G1 X149.432 Y130.521 E-.07149
;WIPE_END
G1 E-.72851 F2100
G1 Z.8 F10800
G1 X149.789 Y126.293
G1 Z.2
G1 E.8 F2100
;WIDTH:0.147271
G1 F1200
G1 X149.39 Y126.186 E.00359
;WIPE_START
G1 F8640
G1 X149.789 Y126.293 E-.09544
;WIPE_END
G1 E-.70456 F2100
G1 Z.8 F10800
G1 X147.215 Y126.191
G1 Z.2
G1 E.8 F2100
;WIDTH:0.110094
G1 F1200
G1 X147.159 Y126.206 E.00032
;WIDTH:0.110094
G1 X147.077 Y126.266 E.00057
;WIPE_START
G1 F8640
G1 X147.159 Y126.206 E-.0236
;WIPE_END
G1 E-.7764 F2100
G1 Z.8 F10800
G1 X156.649 Y126.73
G1 Z.2
G1 E.8 F2100
;TYPE:Solid infill
;WIDTH:0.431567
G1 F1200
G1 X156.186 Y126.266 E.02118
G1 X155.636 Y126.266 E.01776
G1 X156.276 Y126.906 E.02923
G1 X156.14 Y127.1 E.00767
G1 X156.071 Y127.25 E.00534
G1 X155.087 Y126.266 E.04498
G1 X154.537 Y126.266 E.01776
G1 X155.918 Y127.647 E.06311
G1 X155.819 Y128.098 E.01491
G1 X153.987 Y126.266 E.08371
G1 X153.438 Y126.266 E.01776
G1 X155.833 Y128.662 E.10949
G1 X155.892 Y128.992 E.01084
G1 X156.064 Y129.443 E.01559
G1 X152.888 Y126.266 E.14517
G1 X152.338 Y126.266 E.01776
G1 X156.499 Y130.426 E.19013
G1 X155.949 Y130.426 E.01776
G1 X151.789 Y126.266 E.19013
G1 X151.239 Y126.266 E.01776
G1 X155.399 Y130.426 E.19013
G1 X154.85 Y130.426 E.01776
G1 X150.69 Y126.266 E.19013
G1 X150.14 Y126.266 E.01776
G1 X154.3 Y130.426 E.19013
G1 X153.751 Y130.426 E.01776
G1 X150.5 Y127.176 E.14856
G1 X150.656 Y127.51 E.01192
G1 X150.762 Y127.987 E.01579
G1 X153.201 Y130.426 E.11148
G1 X152.651 Y130.426 E.01776
G1 X150.789 Y128.564 E.08512
G1 X150.692 Y129.017 E.01498
G1 X152.102 Y130.426 E.0644
G1 X151.552 Y130.426 E.01776
G1 X150.545 Y129.42 E.04601
G1 X150.464 Y129.594 E.00622
G1 X150.343 Y129.767 E.00681
G1 X151.002 Y130.426 E.03014
G1 X150.453 Y130.426 E.01776
G1 X149.976 Y129.949 E.02181
;WIPE_START
G1 F8640
G1 X150.453 Y130.426 E-.15581
G1 X151.002 Y130.426 E-.12691
G1 X150.343 Y129.767 E-.21536
G1 X150.464 Y129.594 E-.04868
G1 X150.545 Y129.42 E-.04448
G1 X151.062 Y129.936 E-.16876
;WIPE_END
G1 E-.04 F2100
G1 Z.8 F10800
G1 X156.816 Y130.4
G1 Z.2
G1 E.8 F2100
;TYPE:Gap fill
;WIDTH:0.147261
G1 F1200
G1 X157.215 Y130.507 E.00359
;WIPE_START
G1 F8640
G1 X156.816 Y130.4 E-.09543
;WIPE_END
G1 E-.70457 F2100
G1 Z.8 F10800
G1 X159.432 Y130.521
G1 Z.2
G1 E.8 F2100
;WIDTH:0.138587
G1 F1200
G1 X159.673 Y130.327 E.00246
;WIPE_START
G1 F8640
G1 X159.432 Y130.521 E-.07147
;WIPE_END
G1 E-.72853 F2100
G1 Z.8 F10800
G1 X159.789 Y126.293
G1 Z.2
G1 E.8 F2100
;WIDTH:0.147273
G1 F1200
G1 X159.39 Y126.186 E.00359
;WIPE_START
G1 F8640
G1 X159.789 Y126.293 E-.09544
;WIPE_END
G1 E-.70456 F2100
G1 Z.8 F10800
G1 X157.215 Y126.191
G1 Z.2
G1 E.8 F2100
;WIDTH:0.110096
G1 F1200
G1 X157.159 Y126.206 E.00032
;WIDTH:0.110094
G1 X157.077 Y126.266 E.00057
;WIPE_START
G1 F8640
G1 X157.159 Y126.206 E-.0236
;WIPE_END
G1 E-.7764 F2100
G1 Z.8 F10800
G1 X162.402 Y126.883
G1 Z.2
G1 E.8 F2100
;TYPE:Solid infill
;WIDTH:0.43137
G1 F1200
G1 X161.786 Y126.266 E.02817
G1 X161.236 Y126.266 E.01774
G1 X162.233 Y127.263 E.04551
G1 X162.233 Y127.812 E.01774
G1 X160.687 Y126.266 E.07061
G1 X160.138 Y126.266 E.01774
G1 X162.233 Y128.361 E.0957
G1 X162.233 Y128.911 E.01774
G1 X160.502 Y127.18 E.07906
G1 X160.656 Y127.51 E.01177
G1 X160.762 Y127.989 E.01586
G1 X162.233 Y129.46 E.06717
G1 X162.233 Y130.009 E.01774
G1 X160.789 Y128.565 E.06595
G1 X160.704 Y129.03 E.01524
G1 X162.1 Y130.426 E.06381
G1 X161.551 Y130.426 E.01774
G1 X160.542 Y129.417 E.0461
G1 X160.474 Y129.579 E.00567
G1 X160.343 Y129.767 E.00741
G1 X161.002 Y130.426 E.03011
G1 X160.452 Y130.426 E.01774
G1 X159.975 Y129.95 E.02179
;WIPE_START
G1 F8640
G1 X160.452 Y130.426 E-.15574
G1 X161.002 Y130.426 E-.12685
G1 X160.343 Y129.767 E-.21522
G1 X160.474 Y129.579 E-.053
G1 X160.542 Y129.417 E-.04055
G1 X161.058 Y129.934 E-.16865
;WIPE_END
G1 E-.04 F2100
G1 Z.8 F10800
G1 X158.731 Y138.575
G1 Z.2
G1 E.8 F2100
;TYPE:Perimeter
;WIDTH:0.42
G1 F1200
G1 X159.076 Y138.668 E.01119
G1 X159.425 Y138.831 E.01209
G1 X159.741 Y139.052 E.01209
G1 X160.014 Y139.324 E.01209
G1 X160.235 Y139.64 E.01209
G1 X160.403 Y140.001 E.01249
G1 X160.523 Y140.541 E.01731
G1 X160.523 Y140.94 E.01254
G1 X160.449 Y141.344 E.01286
G1 X160.242 Y141.842 E.01692
G1 X160.014 Y142.168 E.01247
G1 X159.732 Y142.45 E.01249
G1 X159.266 Y142.746 E.01731
G1 X158.892 Y142.883 E.0125
G1 X158.512 Y142.95 E.01209
G1 X158.113 Y142.95 E.0125
G1 X157.574 Y142.83 E.01731
G1 X157.213 Y142.662 E.01249
G1 X156.887 Y142.433 E.0125
G1 X156.514 Y142.026 E.01731
G1 X156.314 Y141.681 E.01249
G1 X156.183 Y141.319 E.01209
G1 X156.116 Y140.939 E.01209
G1 X156.116 Y140.541 E.01247
G1 X156.231 Y140.014 E.01692
G1 X156.403 Y139.641 E.01286
G1 X156.632 Y139.314 E.01254
G1 X157.039 Y138.941 E.01731
G1 X157.384 Y138.742 E.0125
G1 X157.748 Y138.609 E.01213
G1 X158.152 Y138.54 E.01286
G1 X158.672 Y138.564 E.01633
G1 X158.633 Y138.94 F10800
;TYPE:External perimeter
G1 F1200
G1 X158.946 Y139.023 E.01016
G1 X159.236 Y139.158 E.01002
G1 X159.498 Y139.342 E.01002
G1 X159.724 Y139.568 E.01002
G1 X159.907 Y139.83 E.01002
G1 X160.044 Y140.123 E.01017
G1 X160.146 Y140.582 E.01472
G1 X160.146 Y140.907 E.01018
G1 X160.086 Y141.237 E.01052
G1 X159.909 Y141.659 E.01436
G1 X159.724 Y141.925 E.01016
G1 X159.494 Y142.154 E.01017
G1 X159.098 Y142.406 E.01472
G1 X158.794 Y142.517 E.01017
