; generated by PrusaSlicer 2.4.1+win64 on 2022-04-21 at 02:14:02 UTC

; 

; external perimeters extrusion width = 0.45mm
; perimeters extrusion width = 0.45mm
; infill extrusion width = 0.45mm
; solid infill extrusion width = 0.45mm
; top infill extrusion width = 0.40mm
; first layer extrusion width = 0.42mm

M73 P0 R51
M73 Q0 S51
M107
;TYPE:Custom
M862.3 P "MK3S" ; printer model check
M862.1 P0.4 ; nozzle diameter check
M115 U3.9.1 ; tell printer latest fw version
G90 ; use absolute coordinates
M83 ; extruder relative mode
M104 S215 ; set extruder temp
M140 S60 ; set bed temp
M190 S60 ; wait for bed temp
M109 S215 ; wait for extruder temp
G28 W ; home all without mesh bed level
G80 ; mesh bed leveling
G1 Y-3.0 F1000.0 ; go outside print area
G92 E0.0
G1 X60.0 E9.0 F1000.0 ; intro line
M73 P0 R50
G1 X100.0 E12.5 F1000.0 ; intro line
G92 E0.0
M221 S95

; Don't change E values below. Excessive value can damage the printer.
M907 E430 ; set extruder motor current
G21 ; set units to millimeters
G90 ; use absolute coordinates
M83 ; use relative distances for extrusion
M900 K0.05 ; Filament gcode LA 1.5
M900 K30 ; Filament gcode LA 1.0
M107
;LAYER_CHANGE
;Z:0.2
;HEIGHT:0.2
;BEFORE_LAYER_CHANGE
G92 E0.0
;0.2


G1 E-.8 F2100
G1 Z.6 F10800
;AFTER_LAYER_CHANGE
;0.2
G1 X95.834 Y81.627
G1 Z.2
G1 E.8 F2100
M204 S1000
;TYPE:Skirt/Brim
;WIDTH:0.42
G1 F1200
G1 X97.541 Y79.643 E.08207
G1 X99.513 Y77.662 E.08764
G1 X101.627 Y75.834 E.08764
G1 X104.019 Y74.069 E.09321
G1 X106.235 Y72.676 E.08207
G1 X108.472 Y71.487 E.07943
G1 X111.262 Y70.241 E.09582
G1 X113.898 Y69.311 E.08764
G1 X116.77 Y68.542 E.09321
G1 X119.517 Y68.029 E.08764
G1 X122.118 Y67.736 E.08207
M73 Q0 S50
G1 X125.089 Y67.625 E.09321
G1 X127.704 Y67.722 E.08207
G1 X130.483 Y68.029 E.08764
G1 X133.23 Y68.542 E.08764
G1 X136.102 Y69.311 E.09321
G1 X138.738 Y70.241 E.08764
G1 X141.137 Y71.287 E.08207
G1 X142.917 Y72.221 E.06302
G1 X145.981 Y74.069 E.11221
G1 X148.373 Y75.834 E.09321
G1 X150.357 Y77.541 E.08207
G1 X152.338 Y79.513 E.08764
G1 X154.277 Y81.766 E.09321
G1 X155.931 Y84.019 E.08764
G1 X157.324 Y86.235 E.08207
G1 X158.636 Y88.703 E.08764
G1 X159.824 Y91.428 E.09321
G1 X160.741 Y94.068 E.08764
G1 X161.419 Y96.597 E.08207
G1 X161.945 Y99.342 E.08764
G1 X162.278 Y102.296 E.0932
G1 X162.375 Y105.089 E.08764
G1 X162.235 Y108.142 E.09582
G1 X161.945 Y110.658 E.07943
G1 X161.458 Y113.23 E.08207
G1 X160.741 Y115.932 E.08764
G1 X159.759 Y118.738 E.09321
G1 X158.636 Y121.297 E.08764
G1 X157.412 Y123.611 E.08207
G1 X155.831 Y126.128 E.09321
G1 X154.166 Y128.373 E.08764
G1 X152.338 Y130.487 E.08764
G1 X150.487 Y132.338 E.08207
G1 X148.234 Y134.277 E.09321
G1 X145.981 Y135.931 E.08764
G1 X143.611 Y137.412 E.08764
G1 X141.137 Y138.713 E.08764
G1 X138.738 Y139.759 E.08207
G1 X135.932 Y140.741 E.09321
G1 X132.973 Y141.507 E.09582
G1 X130.483 Y141.971 E.07943
G1 X127.882 Y142.264 E.08207
G1 X124.911 Y142.375 E.09321
G1 X122.118 Y142.264 E.08764
G1 X119.517 Y141.971 E.08207
G1 X116.77 Y141.458 E.08764
G1 X113.898 Y140.689 E.09321
G1 X111.262 Y139.759 E.08764
G1 X108.703 Y138.636 E.08764
G1 X106.389 Y137.412 E.08207
G1 X103.872 Y135.831 E.09321
G1 X101.627 Y134.166 E.08764
G1 X99.643 Y132.459 E.08207
G1 X97.662 Y130.487 E.08764
G1 X95.834 Y128.373 E.08764
G1 X94.069 Y125.981 E.09321
G1 X92.676 Y123.765 E.08207
G1 X91.487 Y121.528 E.07943
G1 X90.241 Y118.737 E.09582
G1 X89.259 Y115.932 E.09321
G1 X88.542 Y113.23 E.08764
G1 X88.055 Y110.658 E.08207
G1 X87.736 Y107.882 E.08764
G1 X87.625 Y104.911 E.09321
G1 X87.722 Y102.296 E.08207
G1 X88.029 Y99.517 E.08764
G1 X88.542 Y96.77 E.08764
G1 X89.311 Y93.898 E.09321
G1 X90.176 Y91.428 E.08207
G1 X90.973 Y89.583 E.06302
G1 X92.588 Y86.389 E.11221
G1 X94.169 Y83.872 E.09321
G1 X95.798 Y81.676 E.08575
;WIPE_START
G1 F8640
G1 X97.541 Y79.643 E-.61818
G1 X97.975 Y79.208 E-.14182
;WIPE_END
G1 E-.04 F2100
G1 Z.8 F10800
G1 X120.586 Y102.03
G1 Z.2
G1 E.8 F2100
;TYPE:Perimeter
G1 F1200
G1 X121.131 Y101.392 E.0263
G1 X121.459 Y101.07 E.01442
G1 X121.813 Y100.777 E.01442
G1 X122.192 Y100.517 E.01442
G1 X122.592 Y100.29 E.01442
G1 X123.01 Y100.098 E.01442
G1 X123.443 Y99.944 E.01442
G1 X123.888 Y99.828 E.01442
G1 X124.342 Y99.751 E.01442
G1 X124.782 Y99.715 E.01387
G1 X125.258 Y99.716 E.01491
G1 X125.718 Y99.759 E.01447
G1 X126.17 Y99.841 E.01442
G1 X126.614 Y99.962 E.01442
G1 X127.045 Y100.121 E.01442
G1 X127.461 Y100.317 E.01442
G1 X127.859 Y100.549 E.01442
G1 X128.234 Y100.814 E.01442
G1 X128.586 Y101.11 E.01442
G1 X128.91 Y101.436 E.01442
G1 X129.205 Y101.789 E.01442
G1 X129.468 Y102.167 E.01442
G1 X129.697 Y102.565 E.01442
G1 X129.89 Y102.982 E.01442
G1 X130.047 Y103.415 E.01442
G1 X130.166 Y103.859 E.01442
G1 X130.245 Y104.312 E.01442
G1 X130.285 Y104.77 E.01442
G1 X130.285 Y105.23 E.01442
G1 X130.245 Y105.688 E.01442
G1 X130.166 Y106.141 E.01442
G1 X130.047 Y106.585 E.01442
G1 X129.89 Y107.018 E.01442
G1 X129.697 Y107.435 E.01442
G1 X129.476 Y107.818 E.01387
G1 X129.206 Y108.209 E.01491
G1 X128.91 Y108.564 E.01447
G1 X128.586 Y108.89 E.01442
G1 X128.234 Y109.186 E.01442
G1 X127.857 Y109.452 E.01447
G1 X127.445 Y109.69 E.01491
G1 X127.045 Y109.879 E.01387
G1 X126.614 Y110.038 E.01442
G1 X126.17 Y110.159 E.01442
G1 X125.718 Y110.241 E.01442
G1 X125.26 Y110.284 E.01442
G1 X124.8 Y110.286 E.01442
G1 X124.342 Y110.249 E.01442
G1 X123.888 Y110.172 E.01442
G1 X123.443 Y110.056 E.01442
G1 X123.01 Y109.902 E.01442
G1 X122.592 Y109.71 E.01442
G1 X122.192 Y109.483 E.01442
G1 X121.813 Y109.223 E.01442
G1 X121.459 Y108.93 E.01442
G1 X121.131 Y108.608 E.01442
G1 X120.586 Y107.97 E.0263
G1 X120.586 Y102.09 E.18435
G1 X120.963 Y102.169 F10800
G1 F1200
G1 X121.407 Y101.65 E.02142
G1 X121.711 Y101.35 E.01339
G1 X122.041 Y101.079 E.01339
G1 X122.392 Y100.836 E.01339
G1 X122.764 Y100.626 E.01339
G1 X123.152 Y100.448 E.01339
G1 X123.554 Y100.305 E.01339
G1 X123.968 Y100.197 E.01339
G1 X124.389 Y100.125 E.01339
G1 X124.797 Y100.092 E.01286
G1 X125.24 Y100.093 E.01389
G1 X125.666 Y100.133 E.01342
G1 X126.087 Y100.209 E.01339
G1 X126.499 Y100.321 E.01339
G1 X126.899 Y100.469 E.01339
G1 X127.286 Y100.651 E.01339
G1 X127.655 Y100.866 E.01339
G1 X128.004 Y101.112 E.01339
G1 X128.33 Y101.388 E.01339
G1 X128.631 Y101.691 E.01339
G1 X128.905 Y102.018 E.01339
G1 X129.149 Y102.369 E.01339
G1 X129.362 Y102.739 E.01339
G1 X129.541 Y103.126 E.01339
G1 X129.687 Y103.528 E.01339
G1 X129.797 Y103.94 E.01339
G1 X129.871 Y104.361 E.01339
G1 X129.908 Y104.786 E.01339
G1 X129.908 Y105.214 E.01339
G1 X129.871 Y105.639 E.01339
G1 X129.797 Y106.06 E.01339
G1 X129.687 Y106.472 E.01339
G1 X129.542 Y106.874 E.01339
G1 X129.362 Y107.261 E.01339
G1 X129.157 Y107.617 E.01286
G1 X128.905 Y107.981 E.01389
G1 X128.631 Y108.309 E.01342
G1 X128.33 Y108.612 E.01339
G1 X128.004 Y108.888 E.01339
G1 X127.654 Y109.134 E.01342
G1 X127.27 Y109.356 E.01389
G1 X126.899 Y109.531 E.01286
G1 X126.499 Y109.679 E.01339
G1 X126.087 Y109.791 E.01339
G1 X125.666 Y109.867 E.01339
G1 X125.241 Y109.907 E.01339
G1 X124.814 Y109.909 E.01339
G1 X124.389 Y109.875 E.01339
G1 X123.968 Y109.803 E.01339
G1 X123.554 Y109.695 E.01339
G1 X123.152 Y109.552 E.01339
G1 X122.764 Y109.374 E.01339
G1 X122.392 Y109.164 E.01339
G1 X122.041 Y108.921 E.01339
G1 X121.711 Y108.65 E.01339
G1 X121.407 Y108.35 E.01339
G1 X120.963 Y107.831 E.02142
G1 X120.963 Y102.229 E.17563
G1 X121.34 Y102.308 F10800
;TYPE:External perimeter
G1 F1200
G1 X121.683 Y101.907 E.01655
G1 X121.964 Y101.631 E.01236
G1 X122.268 Y101.38 E.01236
G1 X122.593 Y101.156 E.01236
G1 X122.936 Y100.962 E.01236
G1 X123.294 Y100.798 E.01236
G1 X123.665 Y100.665 E.01236
G1 X124.047 Y100.566 E.01236
G1 X124.436 Y100.5 E.01236
G1 X124.812 Y100.469 E.01185
G1 X125.222 Y100.47 E.01286
G1 X125.615 Y100.507 E.01237
G1 X126.003 Y100.577 E.01236
G1 X126.383 Y100.681 E.01236
G1 X126.753 Y100.817 E.01236
G1 X127.11 Y100.985 E.01236
G1 X127.451 Y101.184 E.01236
G1 X127.773 Y101.411 E.01236
G1 X128.074 Y101.665 E.01236
G1 X128.352 Y101.945 E.01236
G1 X128.605 Y102.248 E.01236
G1 X128.83 Y102.571 E.01236
G1 X129.027 Y102.913 E.01236
G1 X129.193 Y103.27 E.01236
G1 X129.327 Y103.641 E.01236
G1 X129.429 Y104.022 E.01236
G1 X129.497 Y104.41 E.01236
G1 X129.531 Y104.803 E.01236
G1 X129.531 Y105.197 E.01236
G1 X129.497 Y105.59 E.01236
G1 X129.429 Y105.978 E.01236
G1 X129.327 Y106.359 E.01236
G1 X129.193 Y106.73 E.01236
G1 X129.027 Y107.087 E.01236
G1 X128.838 Y107.415 E.01185
G1 X128.605 Y107.752 E.01286
G1 X128.352 Y108.055 E.01237
G1 X128.074 Y108.335 E.01236
G1 X127.773 Y108.589 E.01236
G1 X127.45 Y108.816 E.01237
G1 X127.095 Y109.022 E.01286
G1 X126.753 Y109.183 E.01185
G1 X126.383 Y109.319 E.01236
G1 X126.003 Y109.423 E.01236
G1 X125.615 Y109.493 E.01236
G1 X125.223 Y109.53 E.01236
G1 X124.828 Y109.532 E.01236
G1 X124.436 Y109.5 E.01236
G1 X124.047 Y109.434 E.01236
G1 X123.665 Y109.335 E.01236
G1 X123.294 Y109.202 E.01236
G1 X122.936 Y109.038 E.01236
G1 X122.593 Y108.844 E.01236
G1 X122.268 Y108.62 E.01236
G1 X121.964 Y108.369 E.01236
G1 X121.683 Y108.093 E.01236
G1 X121.34 Y107.692 E.01654
G1 X121.34 Y102.368 E.1669
G1 X121.116 Y101.977 F10800
;WIPE_START
G1 F8640
G1 X121.683 Y101.907 E-.13268
G1 X121.964 Y101.631 E-.09103
G1 X122.268 Y101.38 E-.09103
G1 X122.593 Y101.156 E-.09103
G1 X122.936 Y100.962 E-.09103
G1 X123.294 Y100.798 E-.09103
G1 X123.665 Y100.665 E-.09103
G1 X124.005 Y100.577 E-.08113
;WIPE_END
G1 E-.04 F2100
G1 Z.8 F10800
G1 X117.276 Y97.723
G1 Z.2
G1 E.8 F2100
;TYPE:Perimeter
G1 F1200
G1 X116.835 Y98.06 E.01741
G1 X116.348 Y98.341 E.01766
G1 X115.901 Y98.535 E.01527
G1 X115.454 Y98.668 E.01461
G1 X115.151 Y98.735 E.00975
G1 X114.675 Y98.789 E.01501
G1 X114.112 Y98.789 E.01765
G1 X113.615 Y98.733 E.01567
G1 X112.885 Y98.537 E.0237
G1 X112.189 Y98.212 E.0241
G1 X111.559 Y97.771 E.0241
G1 X111.025 Y97.237 E.0237
G1 X110.727 Y96.835 E.01567
G1 X110.446 Y96.348 E.01766
G1 X110.255 Y95.909 E.01501
G1 X110.161 Y95.612 E.00975
G1 X110.053 Y95.159 E.01461
G1 X109.997 Y94.675 E.01527
G1 X109.997 Y94.112 E.01766
G1 X110.054 Y93.615 E.01567
G1 X110.25 Y92.885 E.0237
G1 X110.575 Y92.189 E.0241
G1 X111.016 Y91.559 E.0241
G1 X111.55 Y91.025 E.0237
G1 X111.952 Y90.727 E.01567
G1 X112.439 Y90.446 E.01766
G1 X112.886 Y90.252 E.01527
G1 X113.333 Y90.119 E.01461
G1 X113.636 Y90.052 E.00975
G1 X114.112 Y89.997 E.01501
G1 X114.675 Y89.997 E.01765
G1 X115.172 Y90.054 E.01567
G1 X115.902 Y90.25 E.0237
G1 X116.598 Y90.575 E.0241
G1 X117.228 Y91.015 E.0241
G1 X117.762 Y91.55 E.0237
G1 X118.06 Y91.952 E.01567
G1 X118.341 Y92.439 E.01766
G1 X118.535 Y92.886 E.01527
G1 X118.668 Y93.333 E.01461
G1 X118.735 Y93.636 E.00975
G1 X118.789 Y94.112 E.01501
G1 X118.789 Y94.675 E.01765
G1 X118.733 Y95.172 E.01567
G1 X118.537 Y95.902 E.0237
G1 X118.212 Y96.598 E.0241
G1 X117.771 Y97.228 E.0241
G1 X117.319 Y97.68 E.02006
G1 X117.01 Y97.456 F10800
G1 F1200
G1 X116.628 Y97.744 E.01499
G1 X116.178 Y98.004 E.01631
G1 X115.772 Y98.18 E.01388
G1 X115.088 Y98.363 E.02218
G1 X114.653 Y98.412 E.01372
G1 X114.133 Y98.412 E.01631
G1 X113.686 Y98.361 E.01412
G1 X113.015 Y98.181 E.02179
G1 X112.378 Y97.884 E.02203
G1 X111.802 Y97.481 E.02203
G1 X111.311 Y96.99 E.02179
G1 X111.043 Y96.628 E.01412
G1 X110.783 Y96.178 E.01631
G1 X110.609 Y95.776 E.01372
G1 X110.425 Y95.093 E.02218
G1 X110.375 Y94.653 E.01388
G1 X110.375 Y94.133 E.01631
G1 X110.426 Y93.686 E.01412
G1 X110.605 Y93.015 E.02179
G1 X110.902 Y92.378 E.02203
G1 X111.305 Y91.802 E.02203
G1 X111.797 Y91.311 E.02179
G1 X112.159 Y91.043 E.01412
G1 X112.609 Y90.783 E.01631
G1 X113.015 Y90.607 E.01388
G1 X113.699 Y90.424 E.02218
G1 X114.133 Y90.375 E.01372
G1 X114.653 Y90.375 E.01631
G1 X115.101 Y90.426 E.01412
G1 X115.772 Y90.605 E.02179
G1 X116.409 Y90.902 E.02203
G1 X116.984 Y91.305 E.02203
G1 X117.476 Y91.797 E.02179
G1 X117.744 Y92.159 E.01412
G1 X118.004 Y92.609 E.01631
G1 X118.18 Y93.015 E.01388
G1 X118.363 Y93.699 E.02218
G1 X118.412 Y94.133 E.01372
G1 X118.412 Y94.653 E.01631
G1 X118.361 Y95.101 E.01412
G1 X118.181 Y95.772 E.02179
G1 X117.884 Y96.409 E.02203
G1 X117.481 Y96.984 E.02203
G1 X117.052 Y97.414 E.01903
G1 X116.743 Y97.189 F10800
;TYPE:External perimeter
G1 F1200
G1 X116.421 Y97.428 E.01257
G1 X116.008 Y97.667 E.01496
G1 X115.642 Y97.825 E.01248
G1 X115.026 Y97.99 E.02002
G1 X114.632 Y98.035 E.01243
G1 X114.155 Y98.035 E.01496
G1 X113.756 Y97.99 E.01257
G1 X113.144 Y97.826 E.01987
G1 X112.567 Y97.557 E.01996
G1 X112.046 Y97.191 E.01996
G1 X111.597 Y96.743 E.01988
G1 X111.359 Y96.421 E.01257
G1 X111.12 Y96.008 E.01496
G1 X110.962 Y95.644 E.01243
G1 X110.797 Y95.028 E.02002
G1 X110.752 Y94.632 E.01248
G1 X110.752 Y94.155 E.01496
G1 X110.797 Y93.756 E.01257
G1 X110.961 Y93.144 E.01987
G1 X111.23 Y92.567 E.01996
G1 X111.595 Y92.046 E.01996
G1 X112.044 Y91.597 E.01987
G1 X112.366 Y91.359 E.01257
G1 X112.779 Y91.12 E.01496
G1 X113.144 Y90.962 E.01248
G1 X113.761 Y90.797 E.02002
G1 X114.155 Y90.752 E.01243
G1 X114.632 Y90.752 E.01496
G1 X115.03 Y90.797 E.01257
G1 X115.643 Y90.961 E.01987
G1 X116.22 Y91.23 E.01996
G1 X116.741 Y91.595 E.01996
G1 X117.189 Y92.044 E.01987
G1 X117.428 Y92.366 E.01257
G1 X117.667 Y92.779 E.01496
G1 X117.825 Y93.144 E.01248
G1 X117.99 Y93.761 E.02002
G1 X118.035 Y94.155 E.01243
G1 X118.035 Y94.632 E.01496
G1 X117.99 Y95.03 E.01257
G1 X117.826 Y95.643 E.01987
G1 X117.557 Y96.22 E.01996
G1 X117.191 Y96.741 E.01996
G1 X116.786 Y97.147 E.01799
G1 X116.82 Y97.582 F10800
;WIPE_START
G1 F8640
G1 X116.421 Y97.428 E-.1063
G1 X116.008 Y97.667 E-.1102
G1 X115.642 Y97.825 E-.09193
G1 X115.026 Y97.99 E-.1474
G1 X114.632 Y98.035 E-.09153
G1 X114.155 Y98.035 E-.11018
G1 X113.756 Y97.99 E-.09258
G1 X113.715 Y97.979 E-.00989
;WIPE_END
G1 E-.04 F2100
G1 Z.8 F10800
G1 X115.116 Y111.261
G1 Z.2
G1 E.8 F2100
;TYPE:Perimeter
G1 F1200
G1 X115.902 Y111.463 E.02543
G1 X116.598 Y111.788 E.0241
G1 X117.228 Y112.229 E.0241
G1 X117.762 Y112.763 E.0237
G1 X118.06 Y113.165 E.01567
G1 X118.341 Y113.652 E.01766
G1 X118.535 Y114.099 E.01527
G1 X118.668 Y114.546 E.01461
G1 X118.735 Y114.849 E.00975
G1 X118.789 Y115.325 E.01501
G1 X118.789 Y115.888 E.01765
G1 X118.733 Y116.385 E.01567
G1 X118.537 Y117.115 E.0237
G1 X118.212 Y117.811 E.0241
G1 X117.771 Y118.441 E.0241
G1 X117.237 Y118.975 E.0237
G1 X116.835 Y119.273 E.01567
G1 X116.348 Y119.554 E.01766
G1 X115.908 Y119.745 E.01501
G1 X115.612 Y119.839 E.00975
G1 X115.159 Y119.947 E.01461
G1 X114.675 Y120.003 E.01527
G1 X114.112 Y120.003 E.01765
G1 X113.615 Y119.946 E.01567
G1 X112.885 Y119.75 E.0237
G1 X112.189 Y119.425 E.0241
G1 X111.559 Y118.984 E.0241
G1 X111.025 Y118.45 E.0237
G1 X110.727 Y118.048 E.01567
G1 X110.446 Y117.561 E.01766
G1 X110.255 Y117.122 E.01501
G1 X110.161 Y116.825 E.00975
G1 X110.053 Y116.372 E.01461
G1 X109.997 Y115.888 E.01527
G1 X109.997 Y115.325 E.01766
G1 X110.054 Y114.828 E.01567
G1 X110.25 Y114.098 E.0237
G1 X110.575 Y113.402 E.0241
G1 X111.016 Y112.772 E.0241
G1 X111.55 Y112.238 E.0237
G1 X111.952 Y111.94 E.01567
G1 X112.439 Y111.659 E.01766
G1 X112.886 Y111.465 E.01527
M73 Q1 S50
G1 X113.333 Y111.332 E.01461
G1 X113.636 Y111.265 E.00975
G1 X114.112 Y111.211 E.01501
G1 X114.675 Y111.211 E.01765
G1 X115.056 Y111.254 E.01204
G1 X115.073 Y111.636 F10800
G1 F1200
G1 X115.772 Y111.819 E.02265
G1 X116.409 Y112.116 E.02203
G1 X116.984 Y112.519 E.02203
M73 P1 R50
G1 X117.476 Y113.01 E.02179
G1 X117.744 Y113.372 E.01412
G1 X118.004 Y113.822 E.01631
G1 X118.18 Y114.228 E.01388
G1 X118.363 Y114.912 E.02218
G1 X118.412 Y115.347 E.01372
G1 X118.412 Y115.867 E.01631
G1 X118.361 Y116.314 E.01412
G1 X118.181 Y116.985 E.02179
G1 X117.884 Y117.622 E.02203
G1 X117.481 Y118.198 E.02203
G1 X116.99 Y118.689 E.02179
G1 X116.628 Y118.957 E.01412
G1 X116.178 Y119.217 E.01631
G1 X115.776 Y119.391 E.01372
G1 X115.093 Y119.575 E.02218
G1 X114.653 Y119.625 E.01388
G1 X114.133 Y119.625 E.01631
G1 X113.686 Y119.574 E.01412
G1 X113.015 Y119.395 E.02179
G1 X112.378 Y119.098 E.02203
G1 X111.802 Y118.695 E.02203
G1 X111.311 Y118.203 E.02179
G1 X111.043 Y117.841 E.01412
G1 X110.783 Y117.391 E.01631
G1 X110.609 Y116.99 E.01372
G1 X110.425 Y116.306 E.02218
G1 X110.375 Y115.867 E.01388
G1 X110.375 Y115.347 E.01631
