; generated by PrusaSlicer 2.4.1+win64 on 2022-03-16 at 02:51:57 UTC

; 

; external perimeters extrusion width = 0.45mm
; perimeters extrusion width = 0.45mm
; infill extrusion width = 0.45mm
; solid infill extrusion width = 0.45mm
; top infill extrusion width = 0.40mm
; first layer extrusion width = 0.42mm

M73 P0 R10
M73 Q0 S10
M107
;TYPE:Custom
M862.3 P "MK3S" ; printer model check
M862.1 P0.4 ; nozzle diameter check
M115 U3.9.1 ; tell printer latest fw version
G90 ; use absolute coordinates
M83 ; extruder relative mode
M104 S215 ; set extruder temp
M140 S60 ; set bed temp
M190 S60 ; wait for bed temp
M109 S215 ; wait for extruder temp
G28 W ; home all without mesh bed level
G80 ; mesh bed leveling
G1 Y-3.0 F1000.0 ; go outside print area
G92 E0.0
G1 X60.0 E9.0 F1000.0 ; intro line
G1 X100.0 E12.5 F1000.0 ; intro line
G92 E0.0
M221 S95

; Don't change E values below. Excessive value can damage the printer.
M907 E430 ; set extruder motor current
G21 ; set units to millimeters
G90 ; use absolute coordinates
M83 ; use relative distances for extrusion
M900 K0.05 ; Filament gcode LA 1.5
M900 K30 ; Filament gcode LA 1.0
M107
;LAYER_CHANGE
;Z:0.2
;HEIGHT:0.2
;BEFORE_LAYER_CHANGE
G92 E0.0
;0.2


G1 E-.8 F2100
G1 Z.6 F10800
;AFTER_LAYER_CHANGE
;0.2
G1 X109.226 Y74.342
M73 P1 R10
G1 Z.2
M73 Q1 S10
G1 E.8 F2100
M204 S1000
;TYPE:Skirt/Brim
;WIDTH:0.42
G1 F1200
G1 X124.872 Y57.081 E.73046
G1 X126.221 Y56.011 E.05397
G1 X127.925 Y55.111 E.06045
G1 X128.736 Y54.82 E.02701
G1 X130.213 Y54.484 E.04749
G1 X132.139 Y54.388 E.06045
G1 X133.844 Y54.621 E.05397
G1 X135.484 Y55.146 E.05397
G1 X137.007 Y55.948 E.05397
G1 X138.368 Y57.003 E.05397
G1 X139.525 Y58.277 E.05397
G1 X140.443 Y59.733 E.05397
G1 X141.094 Y61.327 E.05397
G1 X141.43 Y62.804 E.04749
G1 X141.529 Y63.844 E.03275
G1 X142.333 Y114.242 E1.58042
G1 X142.191 Y117.96 E.11664
G1 X141.864 Y121.401 E.1084
G1 X141.327 Y124.953 E.11262
G1 X140.589 Y128.468 E.11262
G1 X139.614 Y132.064 E.11684
M73 Q2 S10
G1 X138.476 Y135.471 E.11262
M73 P2 R10
G1 X137.2 Y138.684 E.1084
G1 X135.692 Y141.944 E.11262
G1 X133.934 Y145.229 E.11684
G1 X132.06 Y148.293 E.11262
G1 X130.015 Y151.246 E.11262
G1 X127.782 Y154.106 E.11375
G1 X127.098 Y154.744 E.02933
G1 X126.104 Y155.303 E.03577
G1 X124.999 Y155.587 E.03577
G1 X124.031 Y155.596 E.03035
G1 X122.759 Y155.269 E.04118
G1 X122.086 Y154.911 E.02389
G1 X121.486 Y154.441 E.02389
G1 X121.084 Y154.012 E.01844
G1 X120.656 Y153.382 E.02389
G1 X120.192 Y152.153 E.04119
G1 X107.744 Y79.965 E2.2968
G1 X107.675 Y78.498 E.04607
G1 X107.809 Y77.427 E.03383
G1 X108.171 Y76.194 E.04031
G1 X108.526 Y75.421 E.02667
G1 X109.193 Y74.392 E.03843
;WIPE_START
G1 F8640
G1 X111.403 Y71.953 E-.76
;WIPE_END
G1 E-.04 F2100
G1 Z.8 F10800
G1 X121.685 Y72.16
G1 Z.2
M73 Q3 S10
G1 E.8 F2100
;TYPE:Perimeter
M73 P3 R10
G1 F1200
G1 X121.647 Y71.549 E.0192
G1 X121.717 Y70.977 E.01806
G1 X121.885 Y70.426 E.01806
G1 X122.147 Y69.913 E.01806
G1 X122.486 Y69.463 E.01765
G1 X122.706 Y69.24 E.00984
G1 X123.149 Y68.893 E.01765
G1 X123.658 Y68.623 E.01806
G1 X124.193 Y68.449 E.01765
G1 X124.501 Y68.392 E.00981
G1 X125.03 Y68.362 E.01662
G1 X125.634 Y68.431 E.01904
G1 X126.187 Y68.601 E.01813
G1 X126.7 Y68.862 E.01806
G1 X127.149 Y69.201 E.01765
G1 X127.373 Y69.421 E.00984
G1 X127.721 Y69.866 E.01773
G1 X128.002 Y70.405 E.01904
G1 X128.164 Y70.909 E.01662
G1 X128.221 Y71.217 E.00981
G1 X128.251 Y71.779 E.01765
G1 X128.181 Y72.351 E.01806
G1 X128.012 Y72.902 E.01806
G1 X127.751 Y73.415 E.01806
G1 X127.412 Y73.865 E.01765
G1 X127.192 Y74.088 E.00984
G1 X126.748 Y74.435 E.01765
G1 X126.24 Y74.705 E.01806
G1 X125.692 Y74.883 E.01806
G1 X125.135 Y74.962 E.01765
G1 X124.821 Y74.965 E.00984
G1 X124.262 Y74.896 E.01765
G1 X123.723 Y74.731 E.01765
G1 X123.438 Y74.601 E.00984
G1 X122.96 Y74.303 E.01765
G1 X122.532 Y73.917 E.01806
G1 X122.186 Y73.474 E.01765
G1 X122.027 Y73.204 E.00981
G1 X121.818 Y72.717 E.01662
G1 X121.699 Y72.218 E.01608
G1 X122.052 Y72.072 F10800
;TYPE:External perimeter
G1 F1200
G1 X122.025 Y71.562 E.01602
G1 X122.087 Y71.056 E.01599
G1 X122.236 Y70.568 E.01599
G1 X122.468 Y70.114 E.01599
G1 X122.772 Y69.71 E.01585
G1 X122.957 Y69.522 E.00829
G1 X123.355 Y69.21 E.01584
G1 X123.806 Y68.971 E.01599
G1 X124.286 Y68.815 E.01584
G1 X124.546 Y68.767 E.00828
G1 X125.019 Y68.74 E.01486
G1 X125.556 Y68.802 E.01695
G1 X126.045 Y68.951 E.01602
G1 X126.499 Y69.183 E.01599
G1 X126.903 Y69.487 E.01584
G1 X127.091 Y69.672 E.00829
G1 X127.403 Y70.071 E.01587
G1 X127.653 Y70.551 E.01695
G1 X127.798 Y71.002 E.01486
G1 X127.846 Y71.261 E.00828
G1 X127.873 Y71.766 E.01585
G1 X127.81 Y72.272 E.01599
G1 X127.661 Y72.76 E.01599
G1 X127.43 Y73.214 E.01599
G1 X127.126 Y73.618 E.01584
G1 X126.94 Y73.807 E.00829
G1 X126.542 Y74.118 E.01584
G1 X126.092 Y74.357 E.01599
G1 X125.607 Y74.515 E.01599
G1 X125.107 Y74.585 E.01584
G1 X124.842 Y74.587 E.00829
G1 X124.341 Y74.526 E.01585
G1 X123.857 Y74.378 E.01584
G1 X123.617 Y74.268 E.00829
G1 X123.188 Y74.001 E.01584
G1 X122.809 Y73.659 E.01599
G1 X122.498 Y73.261 E.01584
G1 X122.364 Y73.034 E.00828
G1 X122.178 Y72.598 E.01486
G1 X122.066 Y72.13 E.01507
G1 X121.681 Y71.922 F10800
;WIPE_START
G1 F8640
G1 X122.025 Y71.562 E-.13159
G1 X122.087 Y71.056 E-.11775
G1 X122.236 Y70.568 E-.11775
G1 X122.468 Y70.114 E-.11775
G1 X122.772 Y69.71 E-.11669
G1 X122.957 Y69.522 E-.06104
G1 X123.29 Y69.262 E-.09742
;WIPE_END
G1 E-.04 F2100
G1 Z.8 F10800
G1 X127.836 Y78.477
G1 Z.2
G1 E.8 F2100
;TYPE:Perimeter
G1 F1200
G1 X130.071 Y81.85 E.12687
G1 X131.791 Y84.797 E.107
G1 X133.343 Y87.836 E.107
G1 X134.719 Y90.959 E.107
G1 X135.917 Y94.154 E.107
G1 X136.931 Y97.413 E.107
G1 X137.76 Y100.723 E.107
G1 X138.4 Y104.075 E.107
G1 X138.849 Y107.458 E.107
G1 X139.105 Y110.861 E.107
G1 X139.169 Y114.273 E.107
G1 X139.039 Y117.683 E.107
G1 X138.716 Y121.08 E.107
G1 X138.202 Y124.454 E.107
G1 X137.497 Y127.793 E.107
G1 X136.605 Y131.086 E.107
G1 X135.527 Y134.324 E.107
G1 X134.268 Y137.496 E.107
G1 X132.831 Y140.591 E.107
G1 X131.221 Y143.6 E.107
G1 X129.444 Y146.513 E.107
G1 X127.504 Y149.32 E.10697
M73 Q4 S10
G1 X125.33 Y152.096 E.11055
M73 P4 R10
G1 X125.099 Y152.28 E.00927
G1 X124.897 Y152.376 E.00701
G1 X124.603 Y152.447 E.0095
G1 X124.379 Y152.449 E.00701
G1 X124.082 Y152.39 E.0095
G1 X123.867 Y152.292 E.00741
G1 X123.626 Y152.108 E.0095
G1 X123.489 Y151.948 E.00661
G1 X123.343 Y151.682 E.0095
G1 X123.283 Y151.466 E.00701
G1 X123.261 Y151.244 E.00701
G1 X123.3 Y150.943 E.0095
G1 X123.428 Y150.624 E.0108
G1 X124.929 Y147.757 E.10146
G1 X126.27 Y144.78 E.10236
G1 X127.436 Y141.731 E.10236
G1 X128.421 Y138.618 E.10236
G1 X129.222 Y135.453 E.10236
G1 X129.836 Y132.247 E.10236
G1 X130.262 Y129.01 E.10236
G1 X130.498 Y125.754 E.10236
G1 X130.543 Y122.49 E.10236
G1 X130.398 Y119.228 E.10236
G1 X130.061 Y115.981 E.10236
G1 X129.535 Y112.759 E.10236
G1 X128.822 Y109.573 E.10236
G1 X127.923 Y106.435 E.10236
G1 X126.843 Y103.354 E.10236
G1 X125.584 Y100.342 E.10236
G1 X124.151 Y97.408 E.10236
G1 X122.549 Y94.564 E.10236
G1 X121.293 Y92.611 E.07281
G1 X120.783 Y91.818 E.02956
G1 X118.86 Y89.18 E.10236
G1 X116.785 Y86.659 E.10236
G1 X114.567 Y84.264 E.10235
G1 X111.949 Y81.741 E.11401
G1 X111.714 Y81.464 E.0114
G1 X111.501 Y81.164 E.01152
G1 X111.315 Y80.847 E.01152
G1 X111.158 Y80.515 E.01152
G1 X111.031 Y80.17 E.01152
G1 X110.933 Y79.816 E.01152
G1 X110.867 Y79.454 E.01152
G1 X110.833 Y79.088 E.01152
G1 X110.831 Y78.721 E.01152
G1 X110.861 Y78.355 E.01152
G1 X110.923 Y77.992 E.01152
G1 X111.016 Y77.637 E.01152
G1 X111.139 Y77.291 E.01152
G1 X111.293 Y76.957 E.01152
G1 X111.475 Y76.638 E.01152
G1 X111.684 Y76.335 E.01152
G1 X111.929 Y76.039 E.01206
G1 X126.675 Y59.759 E.68872
G1 X127.098 Y59.33 E.0189
M73 P4 R9
G1 X127.545 Y58.951 E.01836
G1 X128.022 Y58.612 E.01836
G1 X128.528 Y58.316 E.01836
G1 X129.008 Y58.089 E.01665
G1 X129.608 Y57.862 E.02013
G1 X130.171 Y57.708 E.01829
G1 X130.747 Y57.603 E.01836
G1 X131.33 Y57.548 E.01836
G1 X131.916 Y57.545 E.01836
G1 X132.445 Y57.588 E.01665
G1 X133.078 Y57.691 E.02013
G1 X133.643 Y57.839 E.01829
G1 X134.194 Y58.036 E.01836
G1 X134.726 Y58.28 E.01836
G1 X135.235 Y58.57 E.01836
G1 X135.717 Y58.903 E.01836
G1 X136.168 Y59.277 E.01836
G1 X136.584 Y59.689 E.01836
M73 Q5 S10
G1 X136.963 Y60.135 E.01836
G1 X137.302 Y60.613 E.01836
G1 X137.597 Y61.118 E.01836
G1 X137.848 Y61.647 E.01836
M73 P5 R9
G1 X138.051 Y62.197 E.01836
G1 X138.206 Y62.761 E.01836
G1 X138.311 Y63.337 E.01836
G1 X138.366 Y63.92 E.01836
G1 X138.369 Y64.506 E.01836
G1 X138.322 Y65.09 E.01836
G1 X138.223 Y65.667 E.01836
G1 X138.075 Y66.233 E.01836
G1 X137.878 Y66.785 E.01836
G1 X137.633 Y67.317 E.01836
G1 X137.344 Y67.826 E.01836
G1 X137.011 Y68.307 E.01836
G1 X136.626 Y68.771 E.0189
G1 X127.876 Y78.432 E.40868
G1 X128.312 Y78.513 F10800
;TYPE:External perimeter
G1 F1200
G1 X130.391 Y81.65 E.11802
G1 X132.122 Y84.616 E.10767
G1 X133.683 Y87.674 E.10767
G1 X135.068 Y90.817 E.10767
G1 X136.273 Y94.032 E.10767
G1 X137.294 Y97.311 E.10767
M73 Q5 S9
G1 X138.128 Y100.642 E.10767
G1 X138.772 Y104.015 E.10767
G1 X139.224 Y107.419 E.10767
G1 X139.482 Y110.843 E.10767
G1 X139.546 Y114.276 E.10767
G1 X139.415 Y117.708 E.10767
G1 X139.091 Y121.126 E.10767
G1 X138.573 Y124.521 E.10767
G1 X137.864 Y127.881 E.10767
G1 X136.966 Y131.195 E.10767
G1 X135.881 Y134.453 E.10767
G1 X134.614 Y137.645 E.10767
G1 X133.168 Y140.76 E.10767
G1 X131.549 Y143.787 E.10767
G1 X129.76 Y146.719 E.10767
G1 X127.808 Y149.544 E.10766
G1 X125.604 Y152.358 E.11209
G1 X125.284 Y152.61 E.01277
G1 X125.03 Y152.731 E.00882
G1 X124.631 Y152.824 E.01285
G1 X124.35 Y152.827 E.00882
G1 X123.949 Y152.743 E.01285
G1 X123.688 Y152.625 E.00896
G1 X123.361 Y152.378 E.01285
G1 X123.181 Y152.168 E.00867
G1 X122.987 Y151.807 E.01285
G1 X122.911 Y151.536 E.00882
G1 X122.887 Y151.127 E.01285
G1 X122.933 Y150.85 E.00882
G1 X123.026 Y150.584 E.00882
G1 X123.093 Y150.451 E.00467
G1 X124.589 Y147.592 E.1012
G1 X125.922 Y144.635 E.10167
G1 X127.079 Y141.606 E.10167
G1 X128.058 Y138.515 E.10167
G1 X128.853 Y135.371 E.10167
G1 X129.464 Y132.187 E.10167
G1 X129.887 Y128.972 E.10167
M73 Q6 S9
G1 X130.121 Y125.738 E.10167
M73 P6 R9
G1 X130.166 Y122.496 E.10167
G1 X130.021 Y119.256 E.10167
G1 X129.687 Y116.031 E.10167
G1 X129.165 Y112.831 E.10167
G1 X128.456 Y109.666 E.10167
G1 X127.564 Y106.549 E.10167
G1 X126.491 Y103.489 E.10167
G1 X125.24 Y100.497 E.10167
G1 X123.817 Y97.584 E.10167
G1 X122.226 Y94.759 E.10167
G1 X120.976 Y92.815 E.07246
G1 X120.472 Y92.031 E.02921
G1 X118.561 Y89.411 E.10167
G1 X116.501 Y86.907 E.10167
G1 X114.298 Y84.528 E.10166
G1 X111.674 Y81.999 E.11427
G1 X111.415 Y81.695 E.01251
G1 X111.184 Y81.369 E.01255
G1 X110.982 Y81.023 E.01255
G1 X110.81 Y80.661 E.01255
G1 X110.671 Y80.286 E.01255
G1 X110.565 Y79.899 E.01255
G1 X110.494 Y79.506 E.01255
G1 X110.456 Y79.107 E.01255
G1 X110.454 Y78.707 E.01255
G1 X110.487 Y78.307 E.01255
G1 X110.554 Y77.913 E.01255
G1 X110.655 Y77.525 E.01255
G1 X110.79 Y77.148 E.01255
G1 X110.957 Y76.785 E.01255
G1 X111.155 Y76.437 E.01255
G1 X111.383 Y76.107 E.01255
G1 X111.644 Y75.792 E.01284
G1 X126.401 Y59.499 E.68923
G1 X126.842 Y59.053 E.01967
G1 X127.313 Y58.653 E.01939
G1 X127.818 Y58.295 E.01939
G1 X128.352 Y57.983 E.01939
G1 X128.86 Y57.742 E.01764
G1 X129.491 Y57.503 E.02116
G1 X130.087 Y57.34 E.01937
G1 X130.696 Y57.229 E.01939
G1 X131.311 Y57.171 E.01939
G1 X131.93 Y57.168 E.01939
G1 X132.491 Y57.213 E.01764
G1 X133.157 Y57.322 E.02116
G1 X133.754 Y57.478 E.01937
G1 X134.337 Y57.687 E.01939
G1 X134.899 Y57.945 E.01939
G1 X135.436 Y58.251 E.01939
G1 X135.945 Y58.603 E.01939
G1 X136.421 Y58.997 E.01939
G1 X136.861 Y59.432 E.01939
G1 X137.261 Y59.904 E.01939
G1 X137.619 Y60.408 E.01939
G1 X137.931 Y60.942 E.01939
G1 X138.196 Y61.501 E.01939
G1 X138.411 Y62.081 E.01939
G1 X138.574 Y62.677 E.01939
G1 X138.685 Y63.286 E.01939
G1 X138.743 Y63.902 E.01939
G1 X138.746 Y64.52 E.01939
G1 X138.696 Y65.137 E.01939
G1 X138.592 Y65.746 E.01939
G1 X138.436 Y66.345 E.01939
G1 X138.227 Y66.927 E.01939
G1 X137.969 Y67.489 E.01939
G1 X137.663 Y68.027 E.01939
G1 X137.311 Y68.535 E.01939
G1 X136.911 Y69.018 E.01967
G1 X128.352 Y78.468 E.39976
G1 X127.998 Y78.761 F10800
;WIPE_START
G1 F8640
G1 X130.128 Y81.24 E-.76
;WIPE_END
G1 E-.04 F2100
G1 Z.8 F10800
G1 X135.143 Y58.648
G1 Z.2
M73 P7 R9
M73 Q7 S9
G1 E.8 F2100
;TYPE:Solid infill
;WIDTH:0.420198
G1 F1200
G1 X136.377 Y59.882 E.05476
G1 X136.74 Y60.309 E.01755
G1 X137.064 Y60.766 E.01759
G1 X137.347 Y61.25 E.0176
G1 X137.469 Y61.507 E.00891
G1 X134.406 Y58.445 E.13587
G1 X134.088 Y58.298 E.011
G1 X133.53 Y58.102 E.01855
G1 X137.809 Y62.381 E.18984
G1 X137.93 Y62.824 E.01443
G1 X137.977 Y63.083 E.00825
G1 X132.832 Y57.938 E.22828
G1 X132.214 Y57.853 E.01958
G1 X138.061 Y63.7 E.25942
G1 X138.085 Y64.258 E.0175
G1 X131.656 Y57.829 E.2852
G1 X131.143 Y57.85 E.01611
G1 X138.064 Y64.77 E.30702
G1 X138.008 Y65.247 E.01508
G1 X130.665 Y57.905 E.32575
G1 X130.215 Y57.989 E.01435
G1 X137.923 Y65.696 E.34195
G1 X137.812 Y66.119 E.01371
G1 X129.797 Y58.103 E.35562
G1 X129.402 Y58.242 E.01312
G1 X137.674 Y66.514 E.36699
G1 X137.518 Y66.892 E.01281
G1 X129.022 Y58.396 E.37692
G1 X128.66 Y58.567 E.01257
G1 X137.345 Y67.252 E.38532
G1 X137.151 Y67.592 E.01227
M73 P8 R9
M73 Q8 S9
G1 X128.323 Y58.764 E.39166
G1 X128 Y58.975 E.01209
G1 X136.939 Y67.914 E.39657
G1 X136.714 Y68.222 E.01198
G1 X127.69 Y59.198 E.40033
G1 X127.402 Y59.443 E.01187
G1 X136.472 Y68.514 E.4024
G1 X136.221 Y68.797 E.01186
G1 X127.127 Y59.703 E.40345
G1 X126.863 Y59.972 E.01184
G1 X135.968 Y69.077 E.40393
G1 X135.714 Y69.356 E.01185
G1 X126.609 Y60.252 E.40393
G1 X126.356 Y60.532 E.01185
G1 X135.461 Y69.636 E.40393
G1 X135.207 Y69.916 E.01185
G1 X126.102 Y60.812 E.40393
G1 X125.849 Y61.092 E.01185
G1 X134.953 Y70.196 E.40393
M73 Q9 S9
G1 X134.7 Y70.476 E.01185
M73 P9 R9
G1 X125.595 Y61.372 E.40393
G1 X125.342 Y61.652 E.01185
G1 X134.446 Y70.756 E.40393
G1 X134.193 Y71.036 E.01185
G1 X125.088 Y61.932 E.40393
G1 X124.834 Y62.212 E.01185
G1 X133.939 Y71.316 E.40393
G1 X133.686 Y71.596 E.01185
G1 X124.581 Y62.492 E.40393
G1 X124.327 Y62.772 E.01185
G1 X133.432 Y71.876 E.40393
G1 X133.178 Y72.156 E.01185
G1 X124.074 Y63.052 E.40393
G1 X123.82 Y63.332 E.01185
G1 X132.925 Y72.436 E.40393
G1 X132.671 Y72.716 E.01185
G1 X123.567 Y63.612 E.40393
G1 X123.313 Y63.892 E.01185
M73 P10 R9
M73 Q10 S9
G1 X132.418 Y72.996 E.40393
G1 X132.164 Y73.276 E.01185
G1 X123.059 Y64.171 E.40393
G1 X122.806 Y64.451 E.01185
G1 X131.911 Y73.556 E.40393
G1 X131.657 Y73.836 E.01185
G1 X128.334 Y70.513 E.14742
G1 X128.264 Y70.295 E.00718
G1 X127.96 Y69.713 E.02062
G1 X127.585 Y69.232 E.01913
G1 X127.334 Y68.986 E.01101
G1 X126.85 Y68.621 E.01902
G1 X126.293 Y68.337 E.01962
G1 X126.099 Y68.278 E.00637
G1 X122.552 Y64.731 E.15734
G1 X122.299 Y65.011 E.01185
G1 X125.408 Y68.121 E.13795
G1 X125.039 Y68.079 E.01167
G1 X124.843 Y68.089 E.00614
G1 X122.045 Y65.291 E.12413
G1 X121.792 Y65.571 E.01185
G1 X124.352 Y68.132 E.11358
G1 X124.124 Y68.174 E.00728
G1 X123.925 Y68.238 E.00655
G1 X121.538 Y65.851 E.1059
G1 X121.284 Y66.131 E.01185
G1 X123.526 Y68.373 E.09943
G1 X123.177 Y68.558 E.01238
G1 X121.031 Y66.411 E.09523
G1 X120.777 Y66.691 E.01185
G1 X122.852 Y68.766 E.09205
G1 X122.553 Y69 E.01192
G1 X120.524 Y66.971 E.09002
G1 X120.27 Y67.251 E.01185
G1 X122.284 Y69.265 E.08935
G1 X122.053 Y69.568 E.01194
G1 X120.017 Y67.531 E.09035
G1 X119.763 Y67.811 E.01185
G1 X121.841 Y69.89 E.09221
G1 X121.661 Y70.243 E.01244
G1 X119.509 Y68.091 E.09547
G1 X119.256 Y68.371 E.01185
G1 X121.524 Y70.64 E.10064
G1 X121.439 Y70.918 E.00913
G1 X121.421 Y71.07 E.00479
G1 X119.002 Y68.651 E.10729
G1 X118.749 Y68.931 E.01185
G1 X121.363 Y71.546 E.116
G1 X121.393 Y72.109 E.01769
G1 X118.495 Y69.211 E.12856
G1 X118.241 Y69.491 E.01185
G1 X121.866 Y73.115 E.1608
;WIPE_START
G1 F8640
M73 P11 R9
M73 Q11 S9
G1 X119.539 Y70.788 E-.76
;WIPE_END
G1 E-.04 F2100
G1 Z.8 F10800
G1 X128.298 Y71.011
G1 Z.2
G1 E.8 F2100
G1 F1200
G1 X131.403 Y74.116 E.13776
G1 X131.15 Y74.396 E.01185
G1 X128.534 Y71.78 E.11604
G1 X128.477 Y72.257 E.01506
G1 X130.896 Y74.676 E.10732
