; generated by PrusaSlicer 2.4.1+win64 on 2022-03-23 at 00:54:50 UTC

; 

; external perimeters extrusion width = 0.45mm
; perimeters extrusion width = 0.45mm
; infill extrusion width = 0.45mm
; solid infill extrusion width = 0.45mm
; top infill extrusion width = 0.40mm
; first layer extrusion width = 0.42mm

M73 P0 R14
M73 Q0 S14
M107
;TYPE:Custom
M862.3 P "MK3S" ; printer model check
M862.1 P0.4 ; nozzle diameter check
M115 U3.9.1 ; tell printer latest fw version
G90 ; use absolute coordinates
M83 ; extruder relative mode
M104 S215 ; set extruder temp
M140 S60 ; set bed temp
M190 S60 ; wait for bed temp
M109 S215 ; wait for extruder temp
G28 W ; home all without mesh bed level
G80 ; mesh bed leveling
G1 Y-3.0 F1000.0 ; go outside print area
G92 E0.0
G1 X60.0 E9.0 F1000.0 ; intro line
G1 X100.0 E12.5 F1000.0 ; intro line
G92 E0.0
M221 S95

; Don't change E values below. Excessive value can damage the printer.
M907 E430 ; set extruder motor current
G21 ; set units to millimeters
G90 ; use absolute coordinates
M83 ; use relative distances for extrusion
M900 K0.05 ; Filament gcode LA 1.5
M900 K30 ; Filament gcode LA 1.0
M107
;LAYER_CHANGE
;Z:0.2
;HEIGHT:0.2
;BEFORE_LAYER_CHANGE
G92 E0.0
;0.2


G1 E-.8 F2100
G1 Z.6 F10800
;AFTER_LAYER_CHANGE
;0.2
G1 X87.707 Y62.235
G1 Z.2
G1 E.8 F2100
M204 S1000
;TYPE:Skirt/Brim
;WIDTH:0.42
G1 F1200
G1 X88.42 Y61.372 E.0351
G1 X89.025 Y60.806 E.02598
G1 X89.945 Y60.142 E.03557
G1 X90.973 Y59.615 E.03621
G1 X91.896 Y59.295 E.03065
G1 X92.954 Y59.082 E.03383
G1 X93.945 Y59.021 E.03113
G1 X95.195 Y59.126 E.03934
G1 X96.454 Y59.449 E.04074
G1 X97.616 Y59.969 E.03991
G1 X98.704 Y60.697 E.04106
G1 X160.312 Y113.345 E2.54092
G1 X161.043 Y114.037 E.03158
M73 P1 R13
M73 Q1 S14
G1 X161.548 Y114.646 E.02481
G1 X162.156 Y115.619 E.03596
G1 X162.484 Y116.336 E.02472
G1 X162.808 Y117.381 E.03432
M73 Q1 S13
G1 X162.961 Y118.327 E.03003
G1 X163.691 Y141.529 E.72786
G1 X163.591 Y142.569 E.03274
G1 X163.279 Y143.95 E.04441
G1 X162.539 Y145.751 E.06106
G1 X162.111 Y146.476 E.0264
G1 X161.215 Y147.655 E.04641
G1 X159.837 Y148.939 E.05907
G1 X158.42 Y149.846 E.05274
G1 X156.87 Y150.499 E.05274
G1 X155.231 Y150.879 E.05274
G1 X153.754 Y150.98 E.04641
G1 X152.079 Y150.824 E.05274
G1 X150.455 Y150.387 E.05274
G1 X148.929 Y149.681 E.05274
G1 X148.05 Y149.116 E.03274
G1 X107.275 Y113.276 E1.70215
G1 X105.027 Y111.158 E.09682
M73 Q2 S13
G1 X102.588 Y108.596 E.11092
M73 P2 R13
G1 X100.294 Y105.902 E.11094
G1 X98.252 Y103.219 E.10574
G1 X96.175 Y100.149 E.11621
G1 X94.089 Y96.592 E.12927
G1 X92.72 Y93.969 E.09278
G1 X91.283 Y90.805 E.10895
G1 X89.997 Y87.5 E.11119
G1 X88.878 Y84.063 E.11336
G1 X87.93 Y80.451 E.11707
G1 X87.212 Y76.886 E.11404
G1 X86.692 Y73.208 E.11647
G1 X86.42 Y70.062 E.099
G1 X86.317 Y66.184 E.12162
G1 X86.543 Y64.746 E.04567
G1 X87.134 Y63.183 E.05238
G1 X87.676 Y62.286 E.03286
;WIPE_START
G1 F8640
G1 X88.42 Y61.372 E-.27216
G1 X89.025 Y60.806 E-.19129
G1 X89.945 Y60.142 E-.26197
G1 X90.078 Y60.073 E-.03457
;WIPE_END
G1 E-.04 F2100
G1 Z.8 F10800
G1 X151.065 Y128.885
G1 Z.2
G1 E.8 F2100
;TYPE:Perimeter
G1 F1200
G1 X151.516 Y128.471 E.0192
G1 X152.005 Y128.166 E.01806
G1 X152.527 Y127.955 E.01765
G1 X152.83 Y127.876 E.00981
G1 X153.356 Y127.81 E.01662
G1 X153.962 Y127.837 E.01904
G1 X154.513 Y127.964 E.01773
G1 X154.807 Y128.074 E.00984
G1 X155.304 Y128.338 E.01765
G1 X155.758 Y128.693 E.01806
G1 X156.144 Y129.121 E.01806
G1 X156.449 Y129.609 E.01806
G1 X156.664 Y130.143 E.01806
G1 X156.782 Y130.694 E.01765
G1 X156.806 Y131.007 E.00984
G1 X156.777 Y131.572 E.01773
G1 X156.635 Y132.162 E.01904
G1 X156.427 Y132.65 E.01662
G1 X156.268 Y132.919 E.00981
G1 X155.929 Y133.353 E.01725
G1 X155.706 Y133.572 E.00981
G1 X155.284 Y133.892 E.01662
G1 X154.745 Y134.172 E.01904
G1 X154.192 Y134.341 E.01813
G1 X153.62 Y134.412 E.01806
G1 X153.045 Y134.381 E.01806
G1 X152.481 Y134.251 E.01813
G1 X151.924 Y134.01 E.01904
G1 X151.481 Y133.72 E.01662
G1 X151.243 Y133.516 E.00981
G1 X150.875 Y133.108 E.01725
G1 X150.697 Y132.849 E.00984
G1 X150.441 Y132.347 E.01765
G1 X150.273 Y131.796 E.01806
G1 X150.203 Y131.225 E.01806
G1 X150.233 Y130.65 E.01806
G1 X150.359 Y130.101 E.01765
G1 X150.469 Y129.808 E.00981
G1 X150.716 Y129.339 E.01662
G1 X151.029 Y128.933 E.01608
G1 X151.364 Y129.115 F10800
;TYPE:External perimeter
G1 F1200
G1 X151.744 Y128.773 E.01602
G1 X152.177 Y128.503 E.01599
G1 X152.645 Y128.313 E.01584
G1 X152.901 Y128.247 E.00828
G1 X153.371 Y128.188 E.01486
G1 X153.911 Y128.212 E.01695
G1 X154.404 Y128.326 E.01587
G1 X154.652 Y128.419 E.00829
G1 X155.098 Y128.656 E.01585
G1 X155.5 Y128.97 E.01599
G1 X155.841 Y129.349 E.01599
G1 X156.111 Y129.781 E.01599
G1 X156.302 Y130.254 E.01599
G1 X156.408 Y130.748 E.01584
G1 X156.428 Y131.012 E.00829
G1 X156.402 Y131.518 E.01587
G1 X156.276 Y132.043 E.01695
G1 X156.09 Y132.479 E.01486
G1 X155.956 Y132.707 E.00828
G1 X155.647 Y133.101 E.0157
G1 X155.459 Y133.286 E.00828
G1 X155.081 Y133.573 E.01486
G1 X154.601 Y133.822 E.01695
G1 X154.113 Y133.971 E.01602
G1 X153.607 Y134.033 E.01599
G1 X153.098 Y134.007 E.01599
G1 X152.6 Y133.892 E.01602
G1 X152.104 Y133.677 E.01695
G1 X151.707 Y133.417 E.01486
G1 X151.506 Y133.246 E.00828
G1 X151.171 Y132.874 E.0157
G1 X151.022 Y132.656 E.00829
G1 X150.792 Y132.205 E.01584
G1 X150.643 Y131.718 E.01599
G1 X150.581 Y131.212 E.01599
G1 X150.608 Y130.702 E.01599
G1 X150.721 Y130.21 E.01585
G1 X150.814 Y129.963 E.00828
G1 X151.035 Y129.544 E.01486
G1 X151.328 Y129.162 E.01507
G1 X151.248 Y128.732 F10800
;WIPE_START
G1 F8640
G1 X151.744 Y128.773 E-.1316
G1 X152.177 Y128.503 E-.11775
G1 X152.645 Y128.313 E-.11669
G1 X152.901 Y128.247 E-.06097
G1 X153.371 Y128.188 E-.10942
G1 X153.911 Y128.212 E-.12485
G1 X154.328 Y128.308 E-.09873
;WIPE_END
G1 E-.04 F2100
G1 Z.8 F10800
G1 X145.205 Y131.635
G1 Z.2
G1 E.8 F2100
;TYPE:Perimeter
G1 F1200
G1 X144.583 Y130.634 E.03693
G1 X143.889 Y129.702 E.03644
G1 X143.121 Y128.83 E.03644
G1 X142.282 Y128.024 E.03644
G1 X141.381 Y127.291 E.03644
G1 X140.421 Y126.635 E.03644
G1 X139.411 Y126.061 E.03644
G1 X138.356 Y125.572 E.03644
G1 X137.262 Y125.171 E.03654
G1 X132.924 Y124.025 E.14066
G1 X129.755 Y123.01 E.10434
G1 X126.363 Y121.699 E.11405
G1 X123.609 Y120.463 E.09465
G1 X120.65 Y118.939 E.10434
G1 X117.751 Y117.235 E.10544
G1 X117.465 Y117.051 E.01068
G1 X114.959 Y115.378 E.09446
G1 X112.27 Y113.365 E.10532
G1 X109.698 Y111.205 E.10531
M73 Q3 S13
G1 X107.25 Y108.905 E.10532
G1 X104.932 Y106.47 E.10541
M73 P3 R13
G1 X102.756 Y103.913 E.10527
G1 X100.724 Y101.236 E.10538
G1 X98.844 Y98.45 E.1054
G1 X97.122 Y95.561 E.10543
G1 X95.563 Y92.581 E.10547
G1 X94.173 Y89.516 E.10552
G1 X92.955 Y86.377 E.10558
G1 X91.914 Y83.172 E.10564
G1 X91.053 Y79.911 E.10574
G1 X90.375 Y76.604 E.10585
G1 X89.884 Y73.259 E.10601
G1 X89.585 Y69.972 E.10349
G1 X89.467 Y66.694 E.10286
G1 X89.491 Y66.203 E.01539
G1 X89.524 Y65.934 E.0085
G1 X89.6 Y65.565 E.01181
G1 X89.706 Y65.205 E.01178
G1 X89.841 Y64.858 E.01167
G1 X90.059 Y64.425 E.01522
G1 X90.258 Y64.109 E.01169
G1 X90.484 Y63.809 E.01178
G1 X90.735 Y63.529 E.01178
G1 X91.008 Y63.272 E.01177
G1 X91.302 Y63.038 E.01178
G1 X91.614 Y62.83 E.01176
G1 X91.943 Y62.65 E.01175
G1 X92.285 Y62.497 E.01174
G1 X92.638 Y62.374 E.01174
G1 X93.001 Y62.281 E.01174
G1 X93.365 Y62.22 E.01156
G1 X93.936 Y62.186 E.01795
G1 X94.558 Y62.228 E.01952
G1 X94.926 Y62.296 E.01175
G1 X95.284 Y62.395 E.01165
G1 X95.747 Y62.571 E.01552
G1 X96.081 Y62.736 E.01169
G1 X96.299 Y62.866 E.00796
G1 X96.706 Y63.153 E.01561
G1 X96.987 Y63.395 E.01162
G1 X97.249 Y63.664 E.01179
G1 X97.488 Y63.954 E.01178
G1 X97.7 Y64.26 E.01166
G1 X97.937 Y64.687 E.0153
G1 X98.047 Y64.928 E.00834
G1 X98.177 Y65.282 E.01181
G1 X98.296 Y65.728 E.01445
G1 X98.83 Y69.136 E.10817
G1 X99.48 Y72.178 E.09753
G1 X99.672 Y72.945 E.0248
G1 X100.362 Y75.402 E.08003
G1 X100.581 Y76.096 E.02279
G1 X101.433 Y78.56 E.08176
G1 X101.675 Y79.19 E.02115
G1 X102.691 Y81.648 E.0834
G1 X104.125 Y84.644 E.10416
G1 X105.731 Y87.544 E.10392
G1 X106.023 Y88.023 E.0176
G1 X107.512 Y90.35 E.0866
G1 X109.45 Y93.037 E.10388
G1 X111.544 Y95.603 E.10385
G1 X113.782 Y98.036 E.10366
G1 X116.166 Y100.338 E.1039
G1 X118.677 Y102.489 E.10369
G1 X121.309 Y104.486 E.10357
G1 X121.661 Y104.728 E.01339
G1 X124.059 Y106.327 E.09037
G1 X126.909 Y107.999 E.10361
G1 X129.851 Y109.498 E.10353
G1 X130.216 Y109.662 E.01253
G1 X132.881 Y110.823 E.09114
G1 X135.98 Y111.964 E.10356
G1 X139.14 Y112.92 E.10352
G1 X139.513 Y113.011 E.01202
G1 X142.354 Y113.688 E.09159
G1 X145.606 Y114.263 E.10354
G1 X148.886 Y114.646 E.10354
G1 X152.182 Y114.833 E.10352
G1 X155.854 Y114.83 E.11512
G1 X156.214 Y114.866 E.01133
G1 X156.572 Y114.933 E.01145
G1 X156.924 Y115.031 E.01145
G1 X157.266 Y115.159 E.01145
G1 X157.595 Y115.316 E.01142
G1 X157.936 Y115.518 E.01245
G1 X158.231 Y115.731 E.01141
G1 X158.508 Y115.97 E.01145
G1 X158.762 Y116.231 E.01145
G1 X158.994 Y116.514 E.01145
G1 X159.199 Y116.815 E.01145
G1 X159.378 Y117.133 E.01142
G1 X159.539 Y117.496 E.01246
G1 X159.65 Y117.811 E.01048
G1 X159.741 Y118.165 E.01146
G1 X159.801 Y118.527 E.01149
G1 X159.829 Y118.893 E.01152
G1 X160.534 Y140.873 E.68951
G1 X160.527 Y141.462 E.01847
M73 P4 R13
M73 Q4 S13
G1 X160.472 Y142.031 E.01794
G1 X160.369 Y142.594 E.01794
G1 X160.233 Y143.095 E.01627
G1 X160.021 Y143.685 E.01967
G1 X159.779 Y144.202 E.01788
G1 X159.494 Y144.698 E.01794
G1 X159.198 Y145.124 E.01627
G1 X158.8 Y145.609 E.01967
G1 X158.4 Y146.015 E.01788
G1 X157.965 Y146.387 E.01794
G1 X157.5 Y146.721 E.01794
G1 X157.009 Y147.013 E.01794
G1 X156.494 Y147.263 E.01794
G1 X155.96 Y147.468 E.01794
G1 X155.41 Y147.627 E.01794
G1 X154.849 Y147.738 E.01794
G1 X154.28 Y147.801 E.01794
G1 X153.708 Y147.816 E.01794
G1 X153.137 Y147.781 E.01794
G1 X152.571 Y147.698 E.01794
G1 X152.014 Y147.568 E.01794
G1 X151.47 Y147.39 E.01794
G1 X150.943 Y147.167 E.01794
G1 X150.437 Y146.899 E.01794
G1 X149.956 Y146.59 E.01794
G1 X149.503 Y146.24 E.01794
G1 X149.081 Y145.853 E.01794
G1 X148.694 Y145.432 E.01794
G1 X148.344 Y144.98 E.01794
G1 X148.034 Y144.499 E.01794
G1 X147.766 Y143.993 E.01794
G1 X147.542 Y143.467 E.01794
G1 X147.363 Y142.923 E.01794
G1 X147.232 Y142.366 E.01794
G1 X147.149 Y141.8 E.01794
G1 X147.112 Y141.207 E.01863
G1 X147.018 Y138.259 E.09248
G1 X146.949 Y137.12 E.03577
G1 X146.784 Y135.97 E.03644
G1 X146.524 Y134.837 E.03644
G1 X146.171 Y133.729 E.03644
G1 X145.728 Y132.655 E.03644
G1 X145.232 Y131.688 E.03407
G1 X144.869 Y131.807 F10800
;TYPE:External perimeter
G1 F1200
G1 X144.271 Y130.847 E.03546
G1 X143.596 Y129.939 E.03546
G1 X142.848 Y129.091 E.03546
G1 X142.032 Y128.307 E.03546
G1 X141.155 Y127.594 E.03546
G1 X140.221 Y126.955 E.03546
G1 X139.238 Y126.396 E.03546
G1 X138.212 Y125.92 E.03546
G1 X137.149 Y125.531 E.0355
G1 X132.819 Y124.388 E.14042
G1 X129.63 Y123.366 E.10499
G1 X126.217 Y122.047 E.11471
G1 X123.445 Y120.803 E.09528
G1 X120.468 Y119.269 E.10499
G1 X117.553 Y117.557 E.106
G1 X117.258 Y117.366 E.01102
G1 X114.741 Y115.686 E.09488
G1 X112.036 Y113.66 E.10597
G1 X109.447 Y111.487 E.10597
G1 X106.984 Y109.173 E.10598
G1 X104.652 Y106.724 E.10602
G1 X102.462 Y104.15 E.10598
G1 X100.417 Y101.456 E.10604
G1 X98.526 Y98.652 E.10606
G1 X96.793 Y95.745 E.10609
G1 X95.224 Y92.746 E.10613
G1 X93.825 Y89.662 E.10618
G1 X92.6 Y86.503 E.10624
G1 X91.552 Y83.279 E.10631
G1 X90.686 Y79.997 E.1064
G1 X90.004 Y76.669 E.10652
G1 X89.509 Y73.304 E.10667
G1 X89.208 Y69.996 E.10414
G1 X89.09 Y66.691 E.10368
G1 X89.115 Y66.171 E.01632
G1 X89.151 Y65.873 E.00941
G1 X89.234 Y65.474 E.01279
G1 X89.349 Y65.083 E.01277
G1 X89.496 Y64.705 E.01273
G1 X89.731 Y64.239 E.01634
G1 X89.947 Y63.895 E.01276
G1 X90.193 Y63.569 E.01278
G1 X90.465 Y63.266 E.01277
G1 X90.761 Y62.987 E.01276
G1 X91.08 Y62.733 E.01278
G1 X91.418 Y62.508 E.01276
G1 X91.775 Y62.312 E.01275
G1 X92.146 Y62.146 E.01274
G1 X92.529 Y62.013 E.01274
G1 X92.923 Y61.912 E.01273
G1 X93.322 Y61.845 E.01269
G1 X93.928 Y61.808 E.01905
G1 X94.206 Y61.814 E.00871
G1 X94.611 Y61.854 E.01275
G1 X95.011 Y61.928 E.01275
G1 X95.402 Y62.036 E.01271
G1 X95.898 Y62.225 E.01666
G1 X96.262 Y62.405 E.01272
G1 X96.505 Y62.55 E.00887
G1 X96.939 Y62.855 E.01665
G1 X97.245 Y63.12 E.01271
G1 X97.53 Y63.412 E.01278
G1 X97.789 Y63.726 E.01278
G1 X98.021 Y64.061 E.01274
G1 X98.274 Y64.516 E.01635
G1 X98.396 Y64.785 E.00926
G1 X98.537 Y65.168 E.01281
G1 X98.665 Y65.65 E.01561
G1 X99.201 Y69.067 E.10846
G1 X99.848 Y72.092 E.097
G1 X100.037 Y72.848 E.02443
G1 X100.724 Y75.295 E.07967
G1 X100.939 Y75.977 E.02244
G1 X101.787 Y78.431 E.0814
G1 X102.025 Y79.05 E.0208
G1 X103.035 Y81.494 E.08292
G1 X104.46 Y84.472 E.10349
G1 X106.057 Y87.354 E.10333
G1 X106.343 Y87.823 E.01723
G1 X107.824 Y90.138 E.08614
G1 X109.749 Y92.807 E.1032
M73 Q5 S13
G1 X111.829 Y95.356 E.10315
M73 P5 R13
G1 X114.054 Y97.774 E.10304
G1 X116.42 Y100.058 E.1031
G1 X118.914 Y102.196 E.103
G1 X121.53 Y104.18 E.10294
G1 X121.872 Y104.415 E.01303
G1 X124.259 Y106.007 E.08996
G1 X127.09 Y107.668 E.10292
G1 X130.014 Y109.158 E.10288
G1 X130.368 Y109.317 E.01218
G1 X133.021 Y110.473 E.09074
G1 X136.1 Y111.607 E.10287
G1 X139.24 Y112.556 E.10285
G1 X139.601 Y112.644 E.01167
G1 X142.431 Y113.318 E.09121
G1 X145.661 Y113.89 E.10284
G1 X148.919 Y114.27 E.10284
G1 X152.193 Y114.456 E.10283
G1 X155.872 Y114.453 E.11536
G1 X156.267 Y114.492 E.01243
G1 X156.658 Y114.565 E.01247
G1 X157.041 Y114.672 E.01247
G1 X157.414 Y114.811 E.01247
G1 X157.772 Y114.982 E.01246
G1 X158.143 Y115.202 E.01351
G1 X158.465 Y115.435 E.01246
G1 X158.766 Y115.695 E.01247
G1 X159.044 Y115.98 E.01247
G1 X159.296 Y116.288 E.01247
G1 X159.52 Y116.617 E.01247
G1 X159.715 Y116.964 E.01248
G1 X159.89 Y117.357 E.01349
G1 X160.011 Y117.702 E.01148
G1 X160.11 Y118.088 E.01248
G1 X160.176 Y118.481 E.01252
G1 X160.206 Y118.873 E.01231
G1 X160.911 Y140.869 E.69003
G1 X160.904 Y141.482 E.01922
G1 X160.846 Y142.084 E.01895
G1 X160.737 Y142.678 E.01895
G1 X160.593 Y143.208 E.01724
G1 X160.37 Y143.829 E.02068
G1 X160.114 Y144.376 E.01893
G1 X159.813 Y144.9 E.01895
G1 X159.499 Y145.351 E.01723
G1 X159.081 Y145.861 E.02068
G1 X158.658 Y146.291 E.01893
G1 X158.198 Y146.684 E.01895
G1 X157.707 Y147.036 E.01895
G1 X157.188 Y147.346 E.01895
G1 X156.644 Y147.609 E.01895
G1 X156.08 Y147.826 E.01895
G1 X155.499 Y147.993 E.01895
G1 X154.906 Y148.111 E.01895
G1 X154.306 Y148.178 E.01895
G1 X153.701 Y148.193 E.01895
G1 X153.098 Y148.157 E.01895
G1 X152.5 Y148.069 E.01895
G1 X151.912 Y147.931 E.01895
G1 X151.337 Y147.743 E.01895
G1 X150.781 Y147.507 E.01895
G1 X150.247 Y147.225 E.01895
G1 X149.738 Y146.898 E.01895
G1 X149.26 Y146.529 E.01895
G1 X148.814 Y146.12 E.01895
G1 X148.405 Y145.676 E.01895
G1 X148.036 Y145.197 E.01895
G1 X147.708 Y144.69 E.01895
G1 X147.425 Y144.156 E.01895
G1 X147.189 Y143.599 E.01895
G1 X147 Y143.025 E.01895
G1 X146.861 Y142.437 E.01895
G1 X146.773 Y141.839 E.01895
G1 X146.735 Y141.224 E.01931
G1 X146.641 Y138.276 E.09249
G1 X146.574 Y137.158 E.03511
G1 X146.413 Y136.039 E.03546
G1 X146.16 Y134.936 E.03546
G1 X145.817 Y133.859 E.03546
G1 X145.385 Y132.813 E.03546
G1 X144.896 Y131.86 E.03358
G1 X145.072 Y131.462 F10800
;WIPE_START
G1 F8640
G1 X144.271 Y130.847 E-.27498
G1 X143.596 Y129.939 E-.26117
G1 X142.955 Y129.212 E-.22385
;WIPE_END
G1 E-.04 F2100
G1 Z.8 F10800
G1 X157.568 Y115.431
G1 Z.2
G1 E.8 F2100
;TYPE:Solid infill
;WIDTH:0.421714
G1 F1200
G1 X158.551 Y116.42 E.04391
G1 X158.767 Y116.683 E.01073
G1 X158.959 Y116.965 E.01073
G1 X159.125 Y117.26 E.01067
G1 X159.317 Y117.715 E.01557
G1 X156.94 Y115.338 E.10588
G1 X156.508 Y115.208 E.01419
G1 X156.22 Y115.154 E.00924
G1 X159.499 Y118.433 E.14605
G1 X159.551 Y119.021 E.01858
G1 X155.643 Y115.113 E.17406
G1 X155.108 Y115.114 E.01686
G1 X159.568 Y119.574 E.19869
G1 X159.586 Y120.128 E.01744
G1 X154.572 Y115.114 E.22333
G1 X154.037 Y115.114 E.01686
G1 X159.604 Y120.681 E.24796
G1 X159.622 Y121.235 E.01744
M73 P6 R13
M73 Q6 S13
G1 X153.502 Y115.115 E.27259
G1 X152.967 Y115.115 E.01686
G1 X159.639 Y121.788 E.29722
G1 X159.657 Y122.341 E.01744
G1 X152.431 Y115.116 E.32185
G1 X151.879 Y115.099 E.0174
G1 X159.675 Y122.895 E.34724
