; generated by PrusaSlicer 2.4.0+win64 on 2022-03-13 at 23:38:22 UTC

; 

; external perimeters extrusion width = 0.45mm
; perimeters extrusion width = 0.45mm
; infill extrusion width = 0.45mm
; solid infill extrusion width = 0.45mm
; top infill extrusion width = 0.40mm
; first layer extrusion width = 0.42mm

M73 P0 R43
M73 Q0 S43
M201 X1000 Y1000 Z200 E5000 ; sets maximum accelerations, mm/sec^2
M203 X200 Y200 Z12 E120 ; sets maximum feedrates, mm/sec
M204 P1250 R1250 T1250 ; sets acceleration (P, T) and retract acceleration (R), mm/sec^2
M205 X8.00 Y8.00 Z0.40 E4.50 ; sets the jerk limits, mm/sec
M205 S0 T0 ; sets the minimum extruding and travel feed rate, mm/sec
M107
;TYPE:Custom
M862.3 P "MK3S" ; printer model check
M862.1 P0.4 ; nozzle diameter check
M115 U3.9.1 ; tell printer latest fw version
G90 ; use absolute coordinates
M83 ; extruder relative mode
M104 S215 ; set extruder temp
M140 S60 ; set bed temp
M190 S60 ; wait for bed temp
M109 S215 ; wait for extruder temp
G28 W ; home all without mesh bed level
G80 ; mesh bed leveling
G1 Y-3.0 F1000.0 ; go outside print area
G92 E0.0
G1 X60.0 E9.0 F1000.0 ; intro line
G1 X100.0 E12.5 F1000.0 ; intro line
G92 E0.0
M221 S95

; Don't change E values below. Excessive value can damage the printer.
M907 E430 ; set extruder motor current
G21 ; set units to millimeters
G90 ; use absolute coordinates
M83 ; use relative distances for extrusion
M900 K0.05 ; Filament gcode LA 1.5
M900 K30 ; Filament gcode LA 1.0
M107
;LAYER_CHANGE
;Z:0.2
;HEIGHT:0.2
;BEFORE_LAYER_CHANGE
G92 E0.0
;0.2


M73 P0 R42
G1 E-.8 F2100
G1 Z.6 F10800
;AFTER_LAYER_CHANGE
;0.2
G1 X115.257 Y45.644
G1 Z.2
G1 E.8 F2100
M204 S1000
;TYPE:Skirt/Brim
;WIDTH:0.42
G1 F1200
G1 X115.421 Y45.231 E.01396
G1 X116.306 Y43.653 E.05671
G1 X117.597 Y42.107 E.06318
G1 X118.27 Y41.501 E.02838
G1 X119.58 Y40.579 E.05022
G1 X121.404 Y39.723 E.06318
G1 X123.155 Y39.269 E.05671
G1 X124.75 Y39.126 E.05022
G1 X125.655 Y39.154 E.02838
G1 X127.44 Y39.446 E.05671
G1 X129.146 Y40.044 E.0567
G1 X130.894 Y41.048 E.06318
G1 X132.27 Y42.221 E.05671
G1 X133.422 Y43.615 E.0567
G1 X134.314 Y45.189 E.05671
G1 X134.919 Y46.893 E.05671
G1 X135.219 Y48.676 E.05671
G1 X135.5 Y160.477 E3.50544
G1 X135.327 Y162.381 E.05995
G1 X134.916 Y163.929 E.05023
G1 X134.579 Y164.77 E.02838
G1 X133.576 Y166.517 E.06318
G1 X132.403 Y167.893 E.05671
G1 X131.73 Y168.499 E.02838
G1 X130.42 Y169.421 E.05022
G1 X128.791 Y170.205 E.05671
G1 X127.05 Y170.695 E.05671
G1 X125.043 Y170.875 E.06318
G1 X123.242 Y170.703 E.0567
G1 X122.36 Y170.5 E.02838
G1 X120.892 Y169.972 E.04891
G1 X119.276 Y169.071 E.05801
G1 X117.877 Y167.925 E.0567
G1 X116.698 Y166.554 E.05671
G1 X115.774 Y164.999 E.0567
G1 X115.081 Y163.107 E.06317
G1 X114.781 Y161.324 E.05671
G1 X114.5 Y49.523 E3.50544
G1 X114.673 Y47.619 E.05995
G1 X115.072 Y46.111 E.04891
G1 X115.235 Y45.7 E.01385
;WIPE_START
G1 F8640
G1 X115.421 Y45.231 E-.11665
G1 X116.306 Y43.653 E-.41761
G1 X116.932 Y42.903 E-.22573
;WIPE_END
G1 E-.04 F2100
G1 Z.8 F10800
G1 X124.659 Y101.027
G1 Z.2
G1 E.8 F2100
;TYPE:Perimeter
G1 F1200
G1 X124.991 Y101.012 E.01042
G1 X125.339 Y101.027 E.01091
G1 X125.684 Y101.071 E.01091
G1 X126.024 Y101.146 E.01091
G1 X126.356 Y101.25 E.01091
G1 X126.677 Y101.382 E.01091
G1 X126.986 Y101.542 E.01091
G1 X127.28 Y101.728 E.01091
G1 X127.557 Y101.939 E.01091
G1 X127.814 Y102.174 E.01091
G1 X128.049 Y102.43 E.01091
G1 X128.262 Y102.705 E.01091
G1 X128.449 Y102.998 E.01091
G1 X128.61 Y103.307 E.01091
G1 X128.744 Y103.628 E.01091
G1 X128.85 Y103.959 E.01091
G1 X128.926 Y104.299 E.01091
G1 X128.972 Y104.644 E.01091
G1 X128.988 Y104.991 E.01091
G1 X128.973 Y105.339 E.01091
G1 X128.929 Y105.684 E.01091
G1 X128.854 Y106.024 E.01091
G1 X128.75 Y106.356 E.01091
G1 X128.618 Y106.677 E.01091
G1 X128.458 Y106.986 E.01091
G1 X128.272 Y107.28 E.01091
G1 X128.061 Y107.557 E.01091
G1 X127.826 Y107.814 E.01091
G1 X127.57 Y108.049 E.01091
G1 X127.295 Y108.262 E.01091
G1 X127.002 Y108.449 E.01091
G1 X126.693 Y108.61 E.01091
G1 X126.372 Y108.744 E.01091
G1 X126.055 Y108.845 E.01042
G1 X125.702 Y108.926 E.01136
G1 X125.356 Y108.972 E.01095
G1 X125.009 Y108.988 E.01091
G1 X124.661 Y108.973 E.01091
G1 X124.332 Y108.931 E.01042
G1 X123.978 Y108.855 E.01135
G1 X123.644 Y108.75 E.01094
G1 X123.323 Y108.618 E.01091
G1 X123.014 Y108.458 E.01091
G1 X122.72 Y108.272 E.01091
G1 X122.443 Y108.061 E.01091
G1 X122.186 Y107.826 E.01091
G1 X121.951 Y107.57 E.01091
G1 X121.738 Y107.295 E.01091
G1 X121.551 Y107.002 E.01091
G1 X121.39 Y106.693 E.01091
G1 X121.256 Y106.372 E.01091
G1 X121.15 Y106.041 E.01091
G1 X121.074 Y105.701 E.01091
G1 X121.028 Y105.356 E.01091
G1 X121.012 Y105.009 E.01091
G1 X121.027 Y104.661 E.01091
G1 X121.071 Y104.316 E.01091
G1 X121.146 Y103.976 E.01091
G1 X121.25 Y103.644 E.01091
G1 X121.382 Y103.323 E.01091
G1 X121.542 Y103.014 E.01091
G1 X121.728 Y102.72 E.01091
G1 X121.939 Y102.443 E.01091
G1 X122.174 Y102.186 E.01091
G1 X122.43 Y101.951 E.01091
G1 X122.705 Y101.738 E.01091
G1 X122.998 Y101.551 E.01091
G1 X123.307 Y101.39 E.01091
G1 X123.628 Y101.256 E.01091
G1 X123.959 Y101.15 E.01091
G1 X124.3 Y101.074 E.01095
G1 X124.6 Y101.035 E.00947
G1 X124.366 Y101.446 F10800
;TYPE:External perimeter
G1 F1200
G1 X124.692 Y101.403 E.01032
G1 X124.992 Y101.39 E.00941
G1 X125.307 Y101.403 E.00987
G1 X125.619 Y101.443 E.00988
G1 X125.927 Y101.511 E.00988
G1 X126.227 Y101.605 E.00987
G1 X126.519 Y101.724 E.00988
G1 X126.798 Y101.869 E.00988
G1 X127.064 Y102.038 E.00988
G1 X127.315 Y102.229 E.00988
G1 X127.547 Y102.441 E.00988
G1 X127.761 Y102.673 E.00988
G1 X127.953 Y102.923 E.00988
G1 X128.123 Y103.188 E.00988
G1 X128.269 Y103.467 E.00988
G1 X128.39 Y103.758 E.00988
G1 X128.485 Y104.058 E.00988
G1 X128.554 Y104.365 E.00988
G1 X128.596 Y104.677 E.00988
G1 X128.61 Y104.992 E.00988
G1 X128.597 Y105.307 E.00988
G1 X128.557 Y105.619 E.00988
G1 X128.489 Y105.927 E.00988
G1 X128.395 Y106.227 E.00988
G1 X128.276 Y106.519 E.00988
G1 X128.131 Y106.798 E.00988
G1 X127.962 Y107.064 E.00988
G1 X127.771 Y107.315 E.00988
G1 X127.559 Y107.547 E.00987
G1 X127.327 Y107.761 E.00988
G1 X127.077 Y107.953 E.00988
G1 X126.812 Y108.123 E.00987
G1 X126.533 Y108.269 E.00988
G1 X126.242 Y108.39 E.00988
G1 X125.956 Y108.481 E.00941
G1 X125.635 Y108.554 E.01032
G1 X125.323 Y108.596 E.00989
G1 X125.008 Y108.61 E.00988
G1 X124.693 Y108.597 E.00987
G1 X124.396 Y108.559 E.00941
G1 X124.074 Y108.49 E.01032
G1 X123.773 Y108.395 E.00989
G1 X123.481 Y108.276 E.00988
G1 X123.202 Y108.131 E.00988
G1 X122.936 Y107.962 E.00988
G1 X122.685 Y107.771 E.00988
G1 X122.453 Y107.559 E.00988
G1 X122.239 Y107.327 E.00988
G1 X122.047 Y107.077 E.00988
G1 X121.877 Y106.812 E.00988
G1 X121.731 Y106.533 E.00988
G1 X121.61 Y106.242 E.00988
G1 X121.515 Y105.942 E.00988
G1 X121.446 Y105.635 E.00988
G1 X121.404 Y105.323 E.00987
G1 X121.39 Y105.008 E.00988
G1 X121.403 Y104.693 E.00988
G1 X121.443 Y104.381 E.00988
G1 X121.511 Y104.073 E.00988
G1 X121.605 Y103.773 E.00988
G1 X121.724 Y103.481 E.00988
G1 X121.869 Y103.202 E.00988
G1 X122.038 Y102.936 E.00988
G1 X122.229 Y102.685 E.00988
G1 X122.441 Y102.453 E.00988
G1 X122.673 Y102.239 E.00988
G1 X122.923 Y102.047 E.00988
G1 X123.188 Y101.877 E.00988
G1 X123.467 Y101.731 E.00988
G1 X123.758 Y101.61 E.00988
G1 X124.307 Y101.459 E.01787
G1 X124.474 Y101.135 F10800
;WIPE_START
G1 F8640
G1 X124.692 Y101.403 E-.08983
G1 X124.992 Y101.39 E-.06932
G1 X125.307 Y101.403 E-.07272
G1 X125.619 Y101.443 E-.07273
G1 X125.927 Y101.511 E-.07273
G1 X126.227 Y101.605 E-.07272
G1 X126.519 Y101.724 E-.07272
G1 X126.798 Y101.869 E-.07273
G1 X127.064 Y102.038 E-.07273
G1 X127.315 Y102.229 E-.07273
G1 X127.375 Y102.285 E-.01904
;WIPE_END
G1 E-.04 F2100
G1 Z.8 F10800
G1 X124.503 Y53.419
G1 Z.2
G1 E.8 F2100
;TYPE:Perimeter
G1 F1200
G1 X124.189 Y53.378 E.00991
G1 X123.565 Y53.213 E.02024
G1 X123.221 Y53.073 E.01163
G1 X122.915 Y52.915 E.01081
G1 X122.625 Y52.731 E.01077
G1 X122.352 Y52.522 E.01077
G1 X122.098 Y52.291 E.01077
G1 X121.866 Y52.038 E.01077
G1 X121.655 Y51.765 E.01081
G1 X121.457 Y51.452 E.01163
G1 X121.183 Y50.867 E.02024
G1 X121.075 Y50.528 E.01116
G1 X121 Y50.193 E.01077
G1 X120.955 Y49.852 E.01077
G1 X120.939 Y49.509 E.01077
G1 X120.953 Y49.166 E.01077
G1 X120.999 Y48.813 E.01116
G1 X121.164 Y48.188 E.02024
G1 X121.304 Y47.845 E.01163
G1 X121.462 Y47.539 E.01081
G1 X121.646 Y47.249 E.01077
G1 X121.855 Y46.976 E.01077
G1 X122.086 Y46.722 E.01077
G1 X122.339 Y46.489 E.01077
G1 X122.611 Y46.279 E.01077
G1 X122.9 Y46.094 E.01077
G1 X123.205 Y45.935 E.01077
G1 X123.522 Y45.803 E.01077
G1 X123.849 Y45.699 E.01077
G1 X124.185 Y45.623 E.01081
M73 P1 R42
M73 Q1 S43
G1 X124.553 Y45.576 E.01163
G1 X125.199 Y45.575 E.02024
G1 X125.552 Y45.621 E.01116
G1 X125.887 Y45.694 E.01077
G1 X126.215 Y45.797 E.01077
G1 X126.533 Y45.928 E.01077
G1 X126.838 Y46.086 E.01077
G1 X127.128 Y46.269 E.01077
G1 X127.401 Y46.478 E.01077
G1 X127.655 Y46.709 E.01077
G1 X127.888 Y46.962 E.01077
G1 X128.097 Y47.234 E.01077
G1 X128.283 Y47.524 E.01077
G1 X128.442 Y47.828 E.01077
G1 X128.574 Y48.145 E.01077
G1 X128.678 Y48.473 E.01077
G1 X128.753 Y48.808 E.01077
G1 X128.799 Y49.148 E.01077
G1 X128.815 Y49.491 E.01077
G1 X128.8 Y49.835 E.01077
G1 X128.756 Y50.175 E.01077
G1 X128.683 Y50.511 E.01077
G1 X128.58 Y50.839 E.01077
G1 X128.449 Y51.156 E.01077
G1 X128.291 Y51.461 E.01077
G1 X128.107 Y51.752 E.01077
G1 X127.899 Y52.025 E.01077
G1 X127.667 Y52.278 E.01077
G1 X127.415 Y52.511 E.01077
G1 X127.143 Y52.721 E.01077
G1 X126.853 Y52.906 E.01077
G1 X126.538 Y53.071 E.01116
G1 X125.932 Y53.294 E.02024
G1 X125.57 Y53.376 E.01163
G1 X125.229 Y53.422 E.01081
G1 X124.885 Y53.438 E.01077
G1 X124.562 Y53.425 E.01014
G1 X124.885 Y53.061 F10800
;TYPE:External perimeter
G1 F1200
G1 X124.574 Y53.048 E.00974
G1 X124.262 Y53.007 E.00988
G1 X123.685 Y52.855 E.01872
G1 X123.38 Y52.73 E.01033
G1 X123.103 Y52.587 E.00975
G1 X122.841 Y52.421 E.00974
G1 X122.594 Y52.233 E.00974
G1 X122.365 Y52.023 E.00974
G1 X122.154 Y51.795 E.00974
G1 X121.964 Y51.548 E.00975
G1 X121.788 Y51.27 E.01033
G1 X121.535 Y50.73 E.01872
G1 X121.44 Y50.429 E.00988
G1 X121.372 Y50.126 E.00974
G1 X121.331 Y49.818 E.00974
G1 X121.316 Y49.508 E.00974
G1 X121.329 Y49.198 E.00974
G1 X121.37 Y48.885 E.00988
G1 X121.522 Y48.308 E.01872
G1 X121.646 Y48.003 E.01033
G1 X121.789 Y47.727 E.00975
G1 X121.956 Y47.464 E.00974
G1 X122.144 Y47.218 E.00974
G1 X122.354 Y46.988 E.00974
G1 X122.582 Y46.778 E.00974
G1 X122.828 Y46.588 E.00974
G1 X123.09 Y46.421 E.00974
G1 X123.365 Y46.277 E.00974
G1 X123.652 Y46.157 E.00974
G1 X123.948 Y46.063 E.00974
G1 X124.251 Y45.995 E.00975
G1 X124.578 Y45.953 E.01033
G1 X125.175 Y45.952 E.01871
G1 X125.487 Y45.992 E.00988
G1 X125.791 Y46.059 E.00974
G1 X126.087 Y46.152 E.00974
G1 X126.374 Y46.27 E.00974
G1 X126.65 Y46.413 E.00974
G1 X126.912 Y46.579 E.00974
G1 X127.159 Y46.768 E.00974
G1 X127.389 Y46.977 E.00974
G1 X127.599 Y47.206 E.00974
G1 X127.789 Y47.452 E.00974
G1 X127.956 Y47.713 E.00974
G1 X128.1 Y47.988 E.00974
G1 X128.22 Y48.275 E.00974
G1 X128.314 Y48.571 E.00974
G1 X128.382 Y48.874 E.00974
G1 X128.423 Y49.182 E.00974
G1 X128.437 Y49.492 E.00974
G1 X128.424 Y49.803 E.00974
G1 X128.384 Y50.111 E.00974
G1 X128.318 Y50.414 E.00974
G1 X128.225 Y50.71 E.00974
G1 X128.107 Y50.998 E.00974
G1 X127.964 Y51.273 E.00974
G1 X127.798 Y51.536 E.00974
G1 X127.609 Y51.783 E.00974
G1 X127.4 Y52.012 E.00974
G1 X127.171 Y52.222 E.00974
G1 X126.925 Y52.412 E.00974
G1 X126.664 Y52.58 E.00974
G1 X126.385 Y52.726 E.00988
G1 X125.824 Y52.932 E.01871
G1 X125.503 Y53.005 E.01033
G1 X124.945 Y53.058 E.01759
G1 X124.734 Y53.332 F10800
;WIPE_START
G1 F8640
G1 X124.574 Y53.048 E-.08553
G1 X124.262 Y53.007 E-.07275
G1 X123.685 Y52.855 E-.13782
G1 X123.38 Y52.73 E-.07608
G1 X123.103 Y52.587 E-.07182
G1 X122.841 Y52.421 E-.07172
G1 X122.594 Y52.233 E-.07172
G1 X122.365 Y52.023 E-.07172
G1 X122.154 Y51.795 E-.07172
G1 X122.077 Y51.695 E-.02912
;WIPE_END
G1 E-.04 F2100
G1 Z.8 F10800
G1 X124.8 Y156.575
G1 Z.2
G1 E.8 F2100
;TYPE:Perimeter
G1 F1200
G1 X125.445 Y156.575 E.02024
G1 X125.798 Y156.62 E.01116
G1 X126.134 Y156.694 E.01077
G1 X126.462 Y156.797 E.01077
G1 X126.78 Y156.927 E.01077
G1 X127.085 Y157.085 E.01077
G1 X127.375 Y157.269 E.01077
G1 X127.648 Y157.478 E.01077
G1 X127.902 Y157.709 E.01077
G1 X128.134 Y157.962 E.01077
G1 X128.344 Y158.234 E.01077
G1 X128.529 Y158.523 E.01077
G1 X128.688 Y158.828 E.01077
G1 X128.821 Y159.145 E.01077
G1 X128.925 Y159.472 E.01077
G1 X129 Y159.807 E.01077
G1 X129.045 Y160.148 E.01077
G1 X129.061 Y160.491 E.01077
G1 X129.047 Y160.834 E.01077
G1 X129.003 Y161.175 E.01077
G1 X128.929 Y161.511 E.01077
G1 X128.827 Y161.838 E.01077
G1 X128.696 Y162.156 E.01077
G1 X128.538 Y162.461 E.01077
G1 X128.354 Y162.751 E.01077
G1 X128.145 Y163.024 E.01077
G1 X127.914 Y163.278 E.01077
G1 X127.661 Y163.511 E.01077
G1 X127.389 Y163.721 E.01077
G1 X127.1 Y163.906 E.01077
G1 X126.784 Y164.071 E.01116
G1 X126.178 Y164.294 E.02024
G1 X125.817 Y164.376 E.01163
G1 X125.475 Y164.422 E.01081
G1 X125.132 Y164.438 E.01077
G1 X124.776 Y164.423 E.01116
G1 X124.14 Y164.313 E.02024
G1 X123.786 Y164.204 E.01163
G1 X123.467 Y164.072 E.01081
G1 X123.162 Y163.914 E.01077
G1 X122.872 Y163.731 E.01077
G1 X122.599 Y163.522 E.01077
G1 X122.345 Y163.291 E.01077
G1 X122.112 Y163.038 E.01077
G1 X121.903 Y162.766 E.01077
G1 X121.717 Y162.476 E.01077
G1 X121.558 Y162.172 E.01077
G1 X121.426 Y161.855 E.01077
G1 X121.322 Y161.527 E.01077
G1 X121.247 Y161.192 E.01077
G1 X121.201 Y160.852 E.01077
G1 X121.185 Y160.509 E.01077
G1 X121.2 Y160.165 E.01077
G1 X121.245 Y159.812 E.01116
G1 X121.41 Y159.188 E.02024
G1 X121.55 Y158.845 E.01163
G1 X121.709 Y158.539 E.01081
G1 X121.893 Y158.248 E.01077
G1 X122.101 Y157.975 E.01077
G1 X122.333 Y157.721 E.01081
G1 X122.607 Y157.471 E.01163
G1 X123.136 Y157.1 E.02024
G1 X123.451 Y156.935 E.01116
G1 X123.768 Y156.803 E.01077
G1 X124.096 Y156.698 E.01077
G1 X124.432 Y156.623 E.01081
G1 X124.74 Y156.583 E.00975
G1 X124.824 Y156.952 F10800
;TYPE:External perimeter
G1 F1200
G1 X125.421 Y156.952 E.01871
G1 X125.734 Y156.992 E.00988
G1 X126.037 Y157.059 E.00974
G1 X126.334 Y157.151 E.00974
G1 X126.621 Y157.27 E.00974
G1 X126.897 Y157.413 E.00974
G1 X127.159 Y157.579 E.00974
G1 X127.406 Y157.767 E.00974
G1 X127.635 Y157.977 E.00974
G1 X127.846 Y158.205 E.00974
G1 X128.035 Y158.451 E.00974
G1 X128.203 Y158.713 E.00974
G1 X128.347 Y158.988 E.00974
G1 X128.466 Y159.275 E.00974
G1 X128.56 Y159.571 E.00974
G1 X128.628 Y159.874 E.00974
G1 X128.669 Y160.182 E.00974
G1 X128.684 Y160.492 E.00974
G1 X128.671 Y160.802 E.00974
G1 X128.631 Y161.11 E.00974
G1 X128.564 Y161.414 E.00974
G1 X128.472 Y161.71 E.00974
G1 X128.353 Y161.997 E.00974
G1 X128.211 Y162.273 E.00974
G1 X128.044 Y162.536 E.00974
G1 X127.856 Y162.782 E.00974
G1 X127.646 Y163.012 E.00974
G1 X127.418 Y163.222 E.00974
G1 X127.172 Y163.412 E.00974
G1 X126.91 Y163.579 E.00974
G1 X126.631 Y163.725 E.00988
G1 X126.071 Y163.931 E.01871
G1 X125.75 Y164.005 E.01033
G1 X125.441 Y164.046 E.00975
G1 X125.131 Y164.06 E.00974
G1 X124.816 Y164.047 E.00988
G1 X124.228 Y163.945 E.01872
G1 X123.913 Y163.848 E.01033
G1 X123.626 Y163.73 E.00975
G1 X123.35 Y163.587 E.00974
G1 X123.088 Y163.421 E.00974
G1 X122.841 Y163.232 E.00974
G1 X122.611 Y163.023 E.00974
G1 X122.401 Y162.794 E.00974
G1 X122.211 Y162.548 E.00974
G1 X122.044 Y162.287 E.00974
G1 X121.9 Y162.012 E.00974
G1 X121.78 Y161.725 E.00974
G1 X121.686 Y161.429 E.00974
G1 X121.618 Y161.126 E.00974
G1 X121.577 Y160.818 E.00974
G1 X121.563 Y160.508 E.00974
G1 X121.576 Y160.197 E.00974
G1 X121.616 Y159.885 E.00988
G1 X121.769 Y159.308 E.01872
G1 X121.893 Y159.003 E.01033
G1 X122.036 Y158.727 E.00975
G1 X122.202 Y158.464 E.00974
G1 X122.391 Y158.217 E.00974
G1 X122.6 Y157.988 E.00975
G1 X122.844 Y157.765 E.01033
G1 X123.332 Y157.423 E.01871
G1 X123.611 Y157.276 E.00988
G1 X123.898 Y157.157 E.00974
G1 X124.194 Y157.063 E.00974
G1 X124.498 Y156.995 E.00975
G1 X124.765 Y156.96 E.00845
G1 X125.004 Y156.595 F10800
;WIPE_START
G1 F8640
G1 X125.421 Y156.952 E-.15157
G1 X125.734 Y156.992 E-.07275
