; generated by PrusaSlicer 2.4.1+win64 on 2022-04-23 at 20:21:18 UTC

; 

; external perimeters extrusion width = 0.45mm
; perimeters extrusion width = 0.45mm
; infill extrusion width = 0.45mm
; solid infill extrusion width = 0.45mm
; top infill extrusion width = 0.40mm
; first layer extrusion width = 0.42mm

M73 P0 R19
M73 Q0 S19
M107
;TYPE:Custom
M862.3 P "MK3S" ; printer model check
M862.1 P0.4 ; nozzle diameter check
M115 U3.9.1 ; tell printer latest fw version
G90 ; use absolute coordinates
M83 ; extruder relative mode
M104 S215 ; set extruder temp
M140 S60 ; set bed temp
M190 S60 ; wait for bed temp
M109 S215 ; wait for extruder temp
G28 W ; home all without mesh bed level
G80 ; mesh bed leveling
G1 Y-3.0 F1000.0 ; go outside print area
G92 E0.0
G1 X60.0 E9.0 F1000.0 ; intro line
G1 X100.0 E12.5 F1000.0 ; intro line
G92 E0.0
M221 S95

; Don't change E values below. Excessive value can damage the printer.
M907 E430 ; set extruder motor current
G21 ; set units to millimeters
G90 ; use absolute coordinates
M83 ; use relative distances for extrusion
M900 K0.05 ; Filament gcode LA 1.5
M900 K30 ; Filament gcode LA 1.0
M107
;LAYER_CHANGE
;Z:0.2
;HEIGHT:0.2
;BEFORE_LAYER_CHANGE
G92 E0.0
;0.2


G1 E-.8 F2100
G1 Z.6 F10800
;AFTER_LAYER_CHANGE
;0.2
G1 X92.995 Y78.196
G1 Z.2
G1 E.8 F2100
M204 S1000
;TYPE:Skirt/Brim
;WIDTH:0.42
G1 F1200
G1 X93.629 Y77.505 E.0294
G1 X94.589 Y76.699 E.03929
G1 X95.832 Y75.96 E.04536
G1 X96.71 Y75.595 E.02981
G1 X97.921 Y75.27 E.0393
G1 X98.851 Y75.148 E.0294
G1 X100.104 Y75.148 E.03929
G1 X101.506 Y75.375 E.04455
G1 X102.439 Y75.666 E.03063
G1 X103.575 Y76.195 E.0393
G1 X104.781 Y77.018 E.04577
G1 X156.438 Y119.81 E2.10322
G1 X156.932 Y120.349 E.02291
G1 X157.665 Y121.365 E.03929
G1 X158.316 Y122.672 E.04578
G1 X158.769 Y124.275 E.05224
G1 X158.899 Y125.73 E.04578
G1 X158.868 Y126.46 E.02291
G1 X158.667 Y127.697 E.03929
G1 X158.204 Y129.081 E.04578
M73 Q1 S19
G1 X157.39 Y130.536 E.05225
G1 X156.453 Y131.655 E.04577
G1 X155.915 Y132.15 E.02291
M73 P1 R19
G1 X154.899 Y132.882 E.03929
G1 X154.073 Y133.327 E.0294
G1 X152.901 Y133.771 E.0393
G1 X152.017 Y133.983 E.0285
G1 X148.977 Y134.463 E.0965
G1 X145.616 Y134.78 E.10586
G1 X142.39 Y134.876 E.10118
G1 X139.165 Y134.769 E.10118
G1 X135.953 Y134.46 E.10118
G1 X132.913 Y133.978 E.0965
G1 X129.763 Y133.278 E.10118
G1 X126.663 Y132.381 E.10118
G1 X123.486 Y131.237 E.10586
G1 X120.527 Y129.951 E.10118
G1 X117.654 Y128.481 E.10118
G1 X114.815 Y126.791 E.10359
G1 X112.213 Y125.016 E.09877
G1 X109.781 Y123.129 E.0965
G1 X107.358 Y120.998 E.10118
G1 X105.073 Y118.719 E.10118
G1 X102.84 Y116.186 E.10586
G1 X100.823 Y113.57 E.10359
G1 X99.057 Y110.962 E.09877
G1 X97.49 Y108.312 E.0965
G1 X95.958 Y105.304 E.10586
G1 X94.736 Y102.479 E.0965
G1 X93.716 Y99.662 E.09394
G1 X92.734 Y96.347 E.10841
G1 X92.025 Y93.199 E.10118
G1 X91.497 Y89.864 E.10586
G1 X91.198 Y86.651 E.10118
G1 X91.125 Y82.873 E.11846
G1 X91.248 Y81.944 E.02941
G1 X91.572 Y80.733 E.03929
G1 X92.276 Y79.223 E.05225
G1 X92.961 Y78.245 E.03741
;WIPE_START
G1 F8640
G1 X93.629 Y77.505 E-.23028
G1 X94.589 Y76.699 E-.28938
G1 X95.483 Y76.167 E-.24035
;WIPE_END
G1 E-.04 F2100
G1 Z.8 F10800
G1 X99.56 Y100.189
G1 Z.2
G1 E.8 F2100
;TYPE:Perimeter
G1 F1200
G1 X99.794 Y100.104 E.0078
G1 X100.079 Y100.054 E.00909
G1 X100.468 Y100.071 E.01222
G1 X100.749 Y100.146 E.00909
G1 X101 Y100.263 E.00869
G1 X101.227 Y100.422 E.00869
G1 X101.423 Y100.618 E.00869
G1 X101.589 Y100.855 E.00909
G1 X101.738 Y101.215 E.01222
G1 X101.791 Y101.514 E.0095
G1 X101.774 Y101.903 E.01222
G1 X101.699 Y102.183 E.00909
G1 X101.581 Y102.434 E.00869
G1 X101.423 Y102.661 E.00869
G1 X101.227 Y102.857 E.00869
G1 X100.989 Y103.023 E.00909
G1 X100.629 Y103.173 E.01222
G1 X100.343 Y103.223 E.00909
G1 X100.066 Y103.223 E.00869
G1 X99.781 Y103.173 E.00909
G1 X99.421 Y103.023 E.01222
G1 X99.183 Y102.857 E.00909
G1 X98.987 Y102.661 E.00869
G1 X98.821 Y102.424 E.00909
G1 X98.672 Y102.064 E.01222
G1 X98.621 Y101.778 E.00909
G1 X98.621 Y101.501 E.00869
G1 X98.672 Y101.215 E.00909
G1 X98.821 Y100.855 E.01222
G1 X98.987 Y100.618 E.00909
G1 X99.192 Y100.413 E.00909
G1 X99.505 Y100.213 E.01163
G1 X99.689 Y100.544 F10800
;TYPE:External perimeter
G1 F1200
G1 X99.891 Y100.47 E.00676
G1 X100.104 Y100.432 E.00676
G1 X100.411 Y100.446 E.00963
G1 X100.619 Y100.501 E.00676
G1 X100.81 Y100.591 E.00662
G1 X100.983 Y100.712 E.00662
G1 X101.133 Y100.861 E.00662
G1 X101.256 Y101.038 E.00676
G1 X101.374 Y101.321 E.00963
G1 X101.412 Y101.538 E.00691
G1 X101.399 Y101.845 E.00963
G1 X101.343 Y102.054 E.00676
G1 X101.254 Y102.245 E.00662
G1 X101.133 Y102.418 E.00662
G1 X100.983 Y102.567 E.00662
G1 X100.807 Y102.691 E.00676
G1 X100.523 Y102.808 E.00963
G1 X100.31 Y102.846 E.00676
G1 X100.099 Y102.846 E.00662
G1 X99.887 Y102.808 E.00676
G1 X99.603 Y102.691 E.00963
G1 X99.426 Y102.567 E.00676
G1 X99.277 Y102.418 E.00662
G1 X99.154 Y102.241 E.00676
G1 X99.036 Y101.957 E.00963
G1 X98.999 Y101.745 E.00676
G1 X98.999 Y101.534 E.00662
G1 X99.036 Y101.321 E.00676
G1 X99.154 Y101.038 E.00963
G1 X99.277 Y100.861 E.00676
G1 X99.43 Y100.709 E.00676
G1 X99.638 Y100.576 E.00775
G1 X99.704 Y100.328 F10800
;WIPE_START
G1 F8640
G1 X99.891 Y100.47 E-.06341
G1 X100.104 Y100.432 E-.04981
G1 X100.411 Y100.446 E-.07091
G1 X100.619 Y100.501 E-.04981
G1 X100.81 Y100.591 E-.04874
G1 X100.983 Y100.712 E-.04874
G1 X101.133 Y100.861 E-.04874
G1 X101.256 Y101.038 E-.04981
G1 X101.374 Y101.321 E-.07091
G1 X101.412 Y101.538 E-.05088
G1 X101.399 Y101.845 E-.07091
G1 X101.343 Y102.054 E-.04981
G1 X101.254 Y102.245 E-.04874
G1 X101.157 Y102.383 E-.03878
;WIPE_END
G1 E-.04 F2100
G1 Z.8 F10800
G1 X98.494 Y97.033
G1 Z.2
G1 E.8 F2100
;TYPE:Perimeter
G1 F1200
G1 X98.209 Y97.083 E.00909
G1 X97.919 Y97.083 E.00909
G1 X97.538 Y96.999 E.01222
G1 X97.275 Y96.877 E.00909
G1 X97.048 Y96.718 E.00869
G1 X96.843 Y96.513 E.00909
G1 X96.634 Y96.184 E.01222
G1 X96.535 Y95.911 E.00909
G1 X96.487 Y95.639 E.00869
G1 X96.487 Y95.349 E.00909
G1 X96.571 Y94.968 E.01222
G1 X96.694 Y94.705 E.00909
G1 X96.853 Y94.478 E.00869
G1 X97.048 Y94.282 E.00869
G1 X97.275 Y94.123 E.00869
G1 X97.538 Y94.001 E.00909
G1 X97.931 Y93.914 E.01263
G1 X98.334 Y93.931 E.01263
G1 X98.614 Y94.006 E.00909
G1 X98.865 Y94.123 E.00869
G1 X99.092 Y94.282 E.00869
G1 X99.288 Y94.478 E.00869
G1 X99.454 Y94.716 E.00909
G1 X99.603 Y95.076 E.01222
G1 X99.654 Y95.361 E.00909
G1 X99.654 Y95.639 E.00869
G1 X99.603 Y95.924 E.00909
G1 X99.454 Y96.284 E.01222
G1 X99.288 Y96.522 E.00909
G1 X99.092 Y96.718 E.00869
G1 X98.854 Y96.884 E.00909
G1 X98.55 Y97.01 E.01034
G1 X98.388 Y96.669 F10800
;TYPE:External perimeter
G1 F1200
G1 X98.176 Y96.706 E.00676
G1 X97.96 Y96.706 E.00676
G1 X97.66 Y96.64 E.00963
G1 X97.465 Y96.549 E.00676
G1 X97.292 Y96.428 E.00662
G1 X97.139 Y96.275 E.00676
G1 X96.974 Y96.016 E.00963
G1 X96.9 Y95.813 E.00676
G1 X96.864 Y95.606 E.00662
G1 X96.864 Y95.39 E.00676
G1 X96.93 Y95.09 E.00963
G1 X97.021 Y94.895 E.00676
G1 X97.142 Y94.722 E.00662
G1 X97.292 Y94.572 E.00662
G1 X97.465 Y94.451 E.00662
G1 X97.66 Y94.36 E.00676
G1 X97.965 Y94.293 E.00977
G1 X98.276 Y94.306 E.00977
G1 X98.484 Y94.362 E.00676
G1 X98.676 Y94.451 E.00662
G1 X98.849 Y94.572 E.00662
G1 X98.998 Y94.722 E.00662
G1 X99.122 Y94.898 E.00676
G1 X99.239 Y95.182 E.00963
G1 X99.277 Y95.394 E.00676
G1 X99.277 Y95.606 E.00662
G1 X99.239 Y95.818 E.00676
G1 X99.122 Y96.102 E.00963
G1 X98.998 Y96.278 E.00676
G1 X98.849 Y96.428 E.00662
G1 X98.672 Y96.551 E.00676
G1 X98.444 Y96.646 E.00775
G1 X98.336 Y96.878 F10800
;WIPE_START
G1 F8640
G1 X98.176 Y96.706 E-.06341
G1 X97.96 Y96.706 E-.04981
G1 X97.66 Y96.64 E-.0709
G1 X97.465 Y96.549 E-.04981
G1 X97.292 Y96.428 E-.04875
G1 X97.139 Y96.275 E-.04981
G1 X96.974 Y96.016 E-.07091
G1 X96.9 Y95.813 E-.04981
G1 X96.864 Y95.606 E-.04874
G1 X96.864 Y95.39 E-.04981
G1 X96.93 Y95.09 E-.07091
G1 X97.021 Y94.895 E-.04981
G1 X97.142 Y94.722 E-.04874
G1 X97.261 Y94.603 E-.03878
;WIPE_END
G1 E-.04 F2100
G1 Z.8 F10800
G1 X98.813 Y92.975
G1 Z.2
G1 E.8 F2100
;TYPE:Perimeter
G1 F1200
G1 X98.683 Y92.96 E.00411
G1 X97.928 Y92.758 E.02451
G1 X97.212 Y92.424 E.02476
G1 X96.565 Y91.971 E.02476
G1 X96.012 Y91.418 E.02451
G1 X95.714 Y91.017 E.01568
G1 X95.416 Y90.501 E.01868
G1 X95.221 Y90.049 E.01543
G1 X95.084 Y89.59 E.01502
G1 X95.016 Y89.282 E.0099
G1 X94.96 Y88.798 E.01527
G1 X94.96 Y88.202 E.01868
G1 X95.017 Y87.705 E.01568
G1 X95.22 Y86.95 E.02451
G1 X95.553 Y86.234 E.02476
G1 X96.006 Y85.588 E.02476
G1 X96.559 Y85.035 E.02451
G1 X96.961 Y84.737 E.01568
G1 X97.477 Y84.439 E.01868
G1 X97.924 Y84.245 E.01527
G1 X98.225 Y84.15 E.0099
G1 X98.691 Y84.039 E.01502
G1 X99.18 Y83.983 E.01543
G1 X99.775 Y83.983 E.01868
G1 X100.272 Y84.04 E.01568
G1 X101.027 Y84.242 E.02451
G1 X101.743 Y84.576 E.02476
G1 X102.39 Y85.029 E.02476
G1 X102.943 Y85.582 E.02451
G1 X103.24 Y85.983 E.01568
G1 X103.538 Y86.499 E.01868
G1 X103.734 Y86.951 E.01542
G1 X103.871 Y87.41 E.01502
G1 X103.939 Y87.718 E.0099
G1 X103.995 Y88.202 E.01527
G1 X103.995 Y88.798 E.01868
G1 X103.937 Y89.295 E.01568
G1 X103.735 Y90.05 E.02451
G1 X103.401 Y90.766 E.02476
G1 X102.948 Y91.412 E.02476
G1 X102.396 Y91.965 E.02451
G1 X101.994 Y92.263 E.01568
G1 X101.478 Y92.561 E.01868
G1 X101.027 Y92.757 E.01542
G1 X100.567 Y92.893 E.01502
G1 X100.259 Y92.962 E.0099
G1 X99.775 Y93.017 E.01527
G1 X99.18 Y93.017 E.01868
G1 X98.873 Y92.982 E.00969
G1 X98.856 Y92.6 F10800
;TYPE:External perimeter
G1 F1200
G1 X98.754 Y92.589 E.00324
G1 X98.057 Y92.402 E.0226
G1 X97.401 Y92.096 E.0227
G1 X96.808 Y91.681 E.02269
G1 X96.298 Y91.171 E.02261
G1 X96.03 Y90.809 E.01413
G1 X95.754 Y90.331 E.01732
G1 X95.576 Y89.92 E.01404
G1 X95.388 Y89.219 E.02275
G1 X95.337 Y88.776 E.01398
G1 X95.337 Y88.224 E.01732
G1 X95.389 Y87.776 E.01413
G1 X95.575 Y87.08 E.0226
G1 X95.881 Y86.424 E.0227
G1 X96.296 Y85.831 E.0227
G1 X96.806 Y85.321 E.0226
G1 X97.168 Y85.053 E.01413
G1 X97.647 Y84.776 E.01732
G1 X98.056 Y84.599 E.01398
G1 X98.756 Y84.411 E.02275
G1 X99.201 Y84.36 E.01404
G1 X99.754 Y84.36 E.01732
G1 X100.201 Y84.411 E.01413
G1 X100.898 Y84.598 E.0226
G1 X101.554 Y84.904 E.0227
G1 X102.147 Y85.319 E.0227
G1 X102.656 Y85.829 E.0226
G1 X102.925 Y86.191 E.01413
G1 X103.201 Y86.669 E.01732
G1 X103.379 Y87.08 E.01404
G1 X103.567 Y87.781 E.02275
G1 X103.618 Y88.224 E.01398
G1 X103.618 Y88.776 E.01732
G1 X103.566 Y89.224 E.01413
G1 X103.379 Y89.92 E.0226
G1 X103.074 Y90.576 E.0227
G1 X102.658 Y91.169 E.02269
G1 X102.149 Y91.679 E.0226
G1 X101.787 Y91.947 E.01413
G1 X101.308 Y92.224 E.01732
G1 X100.897 Y92.402 E.01404
G1 X100.473 Y92.528 E.01389
G1 X100.197 Y92.589 E.00887
G1 X99.754 Y92.64 E.01398
G1 X99.201 Y92.64 E.01732
G1 X98.916 Y92.607 E.00901
G1 X98.797 Y92.685 F10800
;WIPE_START
G1 F8640
G1 X98.754 Y92.589 E-.0377
G1 X98.057 Y92.402 E-.16647
G1 X97.401 Y92.096 E-.16713
G1 X96.808 Y91.681 E-.16713
G1 X96.298 Y91.171 E-.16647
G1 X96.156 Y90.98 E-.05509
;WIPE_END
G1 E-.04 F2100
G1 Z.8 F10800
G1 X136.619 Y128.462
M73 Q2 S19
G1 Z.2
M73 P2 R19
G1 E.8 F2100
;TYPE:Perimeter
G1 F1200
G1 X136.762 Y128.258 E.0078
G1 X136.958 Y128.062 E.00869
G1 X137.196 Y127.896 E.00909
G1 X137.556 Y127.746 E.01222
G1 X137.841 Y127.696 E.00909
G1 X138.118 Y127.696 E.00869
G1 X138.404 Y127.746 E.00909
G1 X138.764 Y127.896 E.01222
G1 X139.001 Y128.062 E.00909
G1 X139.197 Y128.258 E.00869
G1 X139.356 Y128.485 E.00869
G1 X139.479 Y128.748 E.00909
G1 X139.563 Y129.128 E.01222
G1 X139.563 Y129.431 E.0095
G1 X139.479 Y129.812 E.01222
G1 X139.356 Y130.074 E.00909
G1 X139.197 Y130.301 E.00869
G1 X138.992 Y130.506 E.00909
G1 X138.664 Y130.716 E.01222
G1 X138.391 Y130.815 E.00909
G1 X138.118 Y130.863 E.00869
G1 X137.841 Y130.863 E.00869
G1 X137.556 Y130.813 E.00909
G1 X137.196 Y130.664 E.01222
G1 X136.958 Y130.497 E.00909
G1 X136.753 Y130.292 E.00909
G1 X136.544 Y129.963 E.01222
G1 X136.444 Y129.691 E.00909
G1 X136.396 Y129.418 E.00869
G1 X136.396 Y129.141 E.00869
G1 X136.447 Y128.855 E.00909
G1 X136.589 Y128.513 E.01163
G1 X136.928 Y128.678 F10800
;TYPE:External perimeter
G1 F1200
G1 X137.052 Y128.501 E.00676
G1 X137.201 Y128.352 E.00662
G1 X137.378 Y128.228 E.00676
G1 X137.662 Y128.111 E.00963
G1 X137.874 Y128.073 E.00676
G1 X138.085 Y128.073 E.00662
G1 X138.298 Y128.111 E.00676
G1 X138.581 Y128.228 E.00963
G1 X138.758 Y128.352 E.00676
G1 X138.907 Y128.501 E.00662
G1 X139.029 Y128.674 E.00662
G1 X139.12 Y128.87 E.00676
G1 X139.186 Y129.169 E.00963
G1 X139.186 Y129.39 E.00691
G1 X139.12 Y129.69 E.00963
G1 X139.029 Y129.885 E.00676
G1 X138.907 Y130.058 E.00662
G1 X138.755 Y130.211 E.00676
G1 X138.496 Y130.376 E.00963
G1 X138.293 Y130.449 E.00676
G1 X138.085 Y130.486 E.00662
G1 X137.874 Y130.486 E.00662
G1 X137.662 Y130.449 E.00676
G1 X137.378 Y130.331 E.00963
G1 X137.201 Y130.207 E.00676
G1 X137.049 Y130.055 E.00676
G1 X136.884 Y129.796 E.00963
G1 X136.81 Y129.593 E.00676
G1 X136.773 Y129.385 E.00662
G1 X136.773 Y129.174 E.00662
G1 X136.811 Y128.962 E.00676
G1 X136.905 Y128.733 E.00775
G1 X136.818 Y128.493 F10800
;WIPE_START
G1 F8640
G1 X137.052 Y128.501 E-.0634
G1 X137.201 Y128.352 E-.04875
G1 X137.378 Y128.228 E-.04981
G1 X137.662 Y128.111 E-.07091
G1 X137.874 Y128.073 E-.04981
G1 X138.085 Y128.073 E-.04874
G1 X138.298 Y128.111 E-.04981
G1 X138.581 Y128.228 E-.07091
G1 X138.758 Y128.352 E-.0498
G1 X138.907 Y128.501 E-.04874
G1 X139.029 Y128.674 E-.04875
G1 X139.12 Y128.87 E-.04981
G1 X139.186 Y129.169 E-.07091
G1 X139.186 Y129.342 E-.03985
;WIPE_END
G1 E-.04 F2100
G1 Z.8 F10800
G1 X142.937 Y129.073
G1 Z.2
G1 E.8 F2100
;TYPE:Perimeter
G1 F1200
G1 X143.093 Y128.672 E.01349
G1 X143.26 Y128.435 E.00909
G1 X143.456 Y128.239 E.00869
G1 X143.693 Y128.073 E.00909
G1 X144.053 Y127.923 E.01222
G1 X144.339 Y127.873 E.00909
G1 X144.616 Y127.873 E.00869
G1 X144.889 Y127.921 E.00869
G1 X145.161 Y128.02 E.00909
G1 X145.49 Y128.23 E.01222
G1 X145.704 Y128.444 E.0095
G1 X145.914 Y128.773 E.01222
G1 X146.013 Y129.045 E.00909
G1 X146.061 Y129.318 E.00869
G1 X146.061 Y129.608 E.00909
G1 X145.977 Y129.988 E.01222
G1 X145.854 Y130.251 E.00909
G1 X145.695 Y130.478 E.00869
G1 X145.49 Y130.683 E.00909
G1 X145.161 Y130.893 E.01222
G1 X144.889 Y130.992 E.00909
G1 X144.616 Y131.04 E.00869
G1 X144.339 Y131.04 E.00869
G1 X144.053 Y130.99 E.00909
G1 X143.693 Y130.84 E.01222
G1 X143.456 Y130.674 E.00909
G1 X143.251 Y130.469 E.00909
G1 X143.041 Y130.14 E.01222
G1 X142.942 Y129.868 E.00909
G1 X142.894 Y129.595 E.00869
G1 X142.894 Y129.318 E.00869
G1 X142.927 Y129.132 E.00592
G1 X143.308 Y129.139 F10800
;TYPE:External perimeter
G1 F1200
G1 X143.426 Y128.855 E.00963
G1 X143.55 Y128.678 E.00676
G1 X143.699 Y128.529 E.00662
G1 X143.876 Y128.405 E.00676
G1 X144.159 Y128.288 E.00963
G1 X144.372 Y128.25 E.00676
G1 X144.583 Y128.25 E.00662
G1 X144.791 Y128.287 E.00662
G1 X144.993 Y128.361 E.00676
G1 X145.253 Y128.526 E.00963
G1 X145.408 Y128.681 E.00691
G1 X145.573 Y128.94 E.00963
G1 X145.647 Y129.143 E.00676
G1 X145.684 Y129.351 E.00662
G1 X145.684 Y129.567 E.00676
G1 X145.617 Y129.866 E.00963
G1 X145.526 Y130.062 E.00676
G1 X145.405 Y130.235 E.00662
G1 X145.253 Y130.387 E.00676
G1 X144.993 Y130.552 E.00963
G1 X144.791 Y130.626 E.00676
G1 X144.583 Y130.663 E.00662
G1 X144.372 Y130.663 E.00662
G1 X144.159 Y130.625 E.00676
G1 X143.876 Y130.508 E.00963
G1 X143.699 Y130.384 E.00676
G1 X143.546 Y130.232 E.00676
G1 X143.381 Y129.973 E.00963
G1 X143.308 Y129.77 E.00676
G1 X143.271 Y129.562 E.00662
G1 X143.271 Y129.351 E.00662
G1 X143.298 Y129.198 E.00488
G1 X143.098 Y128.915 F10800
;WIPE_START
G1 F8640
G1 X143.426 Y128.855 E-.08449
G1 X143.55 Y128.678 E-.04981
G1 X143.699 Y128.529 E-.04874
G1 X143.876 Y128.405 E-.04981
G1 X144.159 Y128.288 E-.07091
G1 X144.372 Y128.25 E-.04981
G1 X144.583 Y128.25 E-.04874
G1 X144.791 Y128.287 E-.04874
G1 X144.993 Y128.361 E-.04981
G1 X145.253 Y128.526 E-.07091
G1 X145.408 Y128.681 E-.05088
G1 X145.573 Y128.94 E-.07091
G1 X145.647 Y129.143 E-.04981
G1 X145.66 Y129.214 E-.01663
;WIPE_END
G1 E-.04 F2100
G1 Z.8 F10800
G1 X146.427 Y127.519
G1 Z.2
G1 E.8 F2100
;TYPE:Perimeter
G1 F1200
G1 X146.223 Y127.054 E.01595
G1 X146.128 Y126.753 E.0099
G1 X146.016 Y126.287 E.01502
