; generated by PrusaSlicer 2.4.1+win64 on 2022-04-24 at 00:02:56 UTC

; 

; external perimeters extrusion width = 0.45mm
; perimeters extrusion width = 0.45mm
; infill extrusion width = 0.45mm
; solid infill extrusion width = 0.45mm
; top infill extrusion width = 0.40mm
; first layer extrusion width = 0.42mm

M73 P0 R27
M73 Q0 S27
M107
;TYPE:Custom
M862.3 P "MK3S" ; printer model check
M862.1 P0.4 ; nozzle diameter check
M115 U3.9.1 ; tell printer latest fw version
G90 ; use absolute coordinates
M83 ; extruder relative mode
M104 S215 ; set extruder temp
M140 S60 ; set bed temp
M190 S60 ; wait for bed temp
M109 S215 ; wait for extruder temp
G28 W ; home all without mesh bed level
G80 ; mesh bed leveling
G1 Y-3.0 F1000.0 ; go outside print area
G92 E0.0
G1 X60.0 E9.0 F1000.0 ; intro line
G1 X100.0 E12.5 F1000.0 ; intro line
G92 E0.0
M221 S95

; Don't change E values below. Excessive value can damage the printer.
M907 E430 ; set extruder motor current
G21 ; set units to millimeters
G90 ; use absolute coordinates
M83 ; use relative distances for extrusion
M900 K0.05 ; Filament gcode LA 1.5
M900 K30 ; Filament gcode LA 1.0
M107
;LAYER_CHANGE
;Z:0.2
;HEIGHT:0.2
;BEFORE_LAYER_CHANGE
G92 E0.0
;0.2


G1 E-.8 F2100
G1 Z.6 F10800
;AFTER_LAYER_CHANGE
;0.2
G1 X91.283 Y103.047
G1 Z.2
G1 E.8 F2100
M204 S1000
;TYPE:Skirt/Brim
;WIDTH:0.42
G1 F1200
G1 X128.971 Y71.223 E1.54661
G1 X130.121 Y70.431 E.04378
G1 X131.293 Y69.904 E.04031
G1 X132.94 Y69.536 E.05289
G1 X134.258 Y69.514 E.04133
G1 X135.101 Y69.625 E.02667
G1 X136.324 Y69.969 E.03982
G1 X138.724 Y70.945 E.08124
G1 X141.206 Y72.168 E.08675
G1 X143.738 Y73.666 E.09227
G1 X145.865 Y75.146 E.08124
G1 X148.016 Y76.886 E.08675
G1 X150.033 Y78.78 E.08675
G1 X152.018 Y80.952 E.09226
G1 X153.724 Y83.131 E.08675
G1 X155.17 Y85.281 E.08124
G1 X156.547 Y87.681 E.08675
G1 X157.811 Y90.338 E.09226
G1 X158.806 Y92.919 E.08675
G1 X159.563 Y95.398 E.08124
G1 X160.179 Y98.095 E.08675
G1 X160.593 Y100.831 E.08675
G1 X160.811 Y103.765 E.09226
G1 X160.811 Y106.356 E.08124
G1 X160.617 Y109.051 E.08472
G1 X160.211 Y111.853 E.08878
G1 X159.563 Y114.724 E.09226
G1 X158.806 Y117.202 E.08124
G1 X157.811 Y119.783 E.08675
G1 X156.628 Y122.284 E.08675
G1 X155.17 Y124.841 E.09226
G1 X153.724 Y126.99 E.08124
G1 X152.018 Y129.169 E.08675
G1 X150.033 Y131.341 E.09226
G1 X148.149 Y133.119 E.08124
G1 X146.056 Y134.828 E.08472
G1 X143.738 Y136.455 E.08878
G1 X141.206 Y137.953 E.09227
G1 X138.724 Y139.176 E.08675
G1 X136.324 Y140.152 E.08124
G1 X135.299 Y140.431 E.03329
G1 X134.415 Y140.506 E.02781
G1 X118.76 Y139.113 E.49281
G1 X116.086 Y138.636 E.08517
G1 X113.458 Y137.949 E.08517
G1 X110.892 Y137.057 E.08517
G1 X108.405 Y135.965 E.08517
G1 X106.012 Y134.68 E.08517
G1 X103.727 Y133.21 E.08517
G1 X101.566 Y131.564 E.08517
M73 Q1 S27
G1 X99.542 Y129.753 E.08517
G1 X97.667 Y127.787 E.08517
M73 P1 R27
G1 X95.953 Y125.68 E.08517
G1 X94.411 Y123.444 E.08517
G1 X92.963 Y120.926 E.09105
G1 X91.805 Y118.469 E.08517
G1 X90.845 Y115.928 E.08517
G1 X90.089 Y113.319 E.08517
G1 X89.541 Y110.658 E.08517
G1 X89.191 Y107.648 E.09502
G1 X89.223 Y106.929 E.02256
G1 X89.415 Y105.936 E.03172
G1 X89.698 Y105.156 E.02603
G1 X90.194 Y104.26 E.03212
G1 X90.632 Y103.689 E.02256
G1 X91.24 Y103.089 E.02677
;WIPE_START
G1 F8640
G1 X93.755 Y100.966 E-.76
;WIPE_END
G1 E-.04 F2100
G1 Z.8 F10800
G1 X109.054 Y112.894
G1 Z.2
G1 E.8 F2100
;TYPE:External perimeter
G1 F1200
G1 X109.218 Y112.542 E.01218
G1 X109.328 Y112.369 E.00645
G1 X109.575 Y112.075 E.01202
G1 X109.726 Y111.936 E.00645
G1 X110.044 Y111.714 E.01217
G1 X110.396 Y111.55 E.01217
G1 X110.784 Y111.446 E.01259
G1 X111.157 Y111.412 E.01175
G1 X111.561 Y111.446 E.01271
G1 X111.941 Y111.548 E.01233
G1 X112.297 Y111.713 E.01231
G1 X112.618 Y111.939 E.01231
G1 X112.893 Y112.213 E.01217
G1 X113.692 Y113.255 E.04117
G1 X114.443 Y114.075 E.03487
G1 X115.263 Y114.826 E.03487
G1 X116.146 Y115.503 E.03487
G1 X117.084 Y116.101 E.03487
G1 X118.07 Y116.614 E.03487
G1 X119.098 Y117.04 E.03487
G1 X120.158 Y117.374 E.03487
G1 X121.244 Y117.615 E.03487
G1 X122.541 Y117.786 E.04103
G1 X122.738 Y117.829 E.0063
G1 X123.102 Y117.962 E.01217
G1 X123.442 Y118.158 E.01231
G1 X123.744 Y118.411 E.01233
G1 X124.003 Y118.723 E.01271
G1 X124.19 Y119.048 E.01175
G1 X124.268 Y119.238 E.00644
G1 X124.369 Y119.612 E.01217
G1 X124.403 Y120.003 E.01231
G1 X124.369 Y120.39 E.01217
G1 X124.325 Y120.591 E.00645
G1 X124.192 Y120.955 E.01217
G1 X123.996 Y121.295 E.01231
G1 X123.743 Y121.596 E.01231
G1 X123.442 Y121.849 E.01231
G1 X123.103 Y122.045 E.01231
G1 X122.751 Y122.174 E.01175
G1 X122.538 Y122.222 E.00685
G1 X122.155 Y122.256 E.01204
G1 X121.954 Y122.247 E.0063
G1 X120.462 Y122.05 E.04719
G1 X118.993 Y121.725 E.04719
G1 X117.557 Y121.272 E.04719
G1 X116.167 Y120.696 E.04719
G1 X114.832 Y120.001 E.04719
G1 X113.562 Y119.192 E.04719
G1 X112.368 Y118.276 E.04719
G1 X111.259 Y117.259 E.04719
G1 X110.242 Y116.15 E.04719
G1 X109.326 Y114.956 E.04719
G1 X109.218 Y114.786 E.0063
G1 X109.054 Y114.435 E.01217
G1 X108.953 Y114.06 E.01217
G1 X108.918 Y113.66 E.01259
G1 X108.95 Y113.286 E.01175
G1 X109.038 Y112.952 E.01083
G1 X108.804 Y112.597 F10800
;WIPE_START
G1 F8640
G1 X109.218 Y112.542 E-.10337
G1 X109.328 Y112.369 E-.04749
G1 X109.575 Y112.075 E-.08853
G1 X109.726 Y111.936 E-.04749
G1 X110.044 Y111.714 E-.0896
G1 X110.396 Y111.55 E-.0896
G1 X110.784 Y111.446 E-.09271
G1 X111.157 Y111.412 E-.08654
G1 X111.561 Y111.446 E-.09363
G1 X111.649 Y111.469 E-.02106
;WIPE_END
G1 E-.04 F2100
G1 Z.8 F10800
G1 X119.203 Y107.517
G1 Z.2
G1 E.8 F2100
;TYPE:Perimeter
G1 F1200
G1 X119.005 Y107.137 E.01344
G1 X118.841 Y106.741 E.01344
G1 X118.712 Y106.332 E.01344
G1 X118.62 Y105.914 E.01344
G1 X118.564 Y105.489 E.01344
G1 X118.545 Y105.061 E.01344
G1 X118.564 Y104.632 E.01344
G1 X118.62 Y104.207 E.01344
G1 X118.712 Y103.789 E.01344
G1 X118.841 Y103.38 E.01344
G1 X119.005 Y102.984 E.01344
G1 X119.203 Y102.604 E.01344
G1 X119.433 Y102.243 E.01344
G1 X119.694 Y101.903 E.01344
G1 X119.984 Y101.587 E.01344
G1 X120.3 Y101.297 E.01344
G1 X120.64 Y101.036 E.01344
G1 X121.001 Y100.806 E.01344
G1 X121.382 Y100.608 E.01344
G1 X121.777 Y100.444 E.01344
G1 X122.186 Y100.315 E.01344
G1 X122.605 Y100.222 E.01344
G1 X123.03 Y100.166 E.01344
G1 X123.439 Y100.149 E.01285
G1 X123.885 Y100.166 E.01399
G1 X124.311 Y100.222 E.01347
G1 X124.729 Y100.315 E.01344
G1 X125.138 Y100.444 E.01344
G1 X125.534 Y100.608 E.01344
G1 X125.897 Y100.797 E.01285
G1 X126.275 Y101.036 E.01399
G1 X126.616 Y101.297 E.01347
G1 X126.932 Y101.587 E.01344
G1 X127.221 Y101.903 E.01344
G1 X127.482 Y102.243 E.01344
G1 X127.712 Y102.604 E.01344
G1 X127.91 Y102.984 E.01344
G1 X128.074 Y103.38 E.01344
G1 X128.203 Y103.789 E.01344
G1 X128.296 Y104.207 E.01344
G1 X128.349 Y104.614 E.01285
G1 X128.371 Y105.059 E.01399
G1 X128.352 Y105.489 E.01347
G1 X128.296 Y105.914 E.01344
G1 X128.203 Y106.332 E.01344
G1 X128.074 Y106.741 E.01344
G1 X127.91 Y107.137 E.01344
G1 X127.712 Y107.517 E.01344
G1 X127.482 Y107.878 E.01344
G1 X127.221 Y108.218 E.01344
G1 X126.932 Y108.534 E.01344
G1 X126.616 Y108.824 E.01344
G1 X126.276 Y109.085 E.01344
G1 X125.914 Y109.315 E.01344
G1 X125.534 Y109.513 E.01344
G1 X125.156 Y109.67 E.01285
G1 X124.73 Y109.806 E.01399
G1 X124.311 Y109.899 E.01347
G1 X123.886 Y109.955 E.01344
G1 X123.458 Y109.973 E.01344
G1 X123.03 Y109.955 E.01344
G1 X122.605 Y109.899 E.01344
G1 X122.185 Y109.806 E.01347
G1 X121.76 Y109.67 E.01399
G1 X121.382 Y109.513 E.01285
G1 X121.001 Y109.315 E.01344
G1 X120.64 Y109.085 E.01344
G1 X120.3 Y108.824 E.01344
G1 X119.984 Y108.534 E.01344
G1 X119.694 Y108.218 E.01344
G1 X119.433 Y107.878 E.01344
G1 X119.235 Y107.568 E.01156
G1 X119.53 Y107.328 F10800
;TYPE:External perimeter
G1 F1200
G1 X119.347 Y106.977 E.01241
G1 X119.196 Y106.612 E.01241
G1 X119.077 Y106.234 E.01241
G1 X118.991 Y105.848 E.01241
G1 X118.94 Y105.456 E.01241
G1 X118.922 Y105.061 E.01241
G1 X118.94 Y104.665 E.01241
G1 X118.991 Y104.273 E.01241
G1 X119.077 Y103.887 E.01241
G1 X119.196 Y103.509 E.01241
G1 X119.347 Y103.144 E.01241
G1 X119.53 Y102.793 E.01241
G1 X119.743 Y102.459 E.01241
G1 X119.983 Y102.145 E.01241
G1 X120.251 Y101.854 E.01241
G1 X120.542 Y101.586 E.01241
G1 X120.856 Y101.345 E.01241
G1 X121.19 Y101.133 E.01241
G1 X121.541 Y100.95 E.01241
G1 X121.907 Y100.799 E.01241
G1 X122.284 Y100.68 E.01241
G1 X122.67 Y100.594 E.01241
G1 X123.062 Y100.542 E.01241
G1 X123.44 Y100.526 E.01184
G1 X123.853 Y100.542 E.01296
G1 X124.245 Y100.594 E.01242
G1 X124.632 Y100.68 E.01241
G1 X125.009 Y100.799 E.01241
G1 X125.375 Y100.95 E.01241
G1 X125.709 Y101.124 E.01184
G1 X126.059 Y101.345 E.01296
G1 X126.373 Y101.586 E.01242
G1 X126.665 Y101.854 E.01241
G1 X126.932 Y102.145 E.01241
G1 X127.173 Y102.459 E.01241
G1 X127.386 Y102.793 E.01241
G1 X127.568 Y103.144 E.01241
G1 X127.72 Y103.509 E.01241
G1 X127.839 Y103.887 E.01241
G1 X127.924 Y104.273 E.01241
G1 X127.974 Y104.647 E.01184
G1 X127.993 Y105.06 E.01296
G1 X127.976 Y105.456 E.01242
G1 X127.924 Y105.848 E.01241
G1 X127.839 Y106.234 E.01241
G1 X127.72 Y106.612 E.01241
G1 X127.568 Y106.977 E.01241
G1 X127.386 Y107.328 E.01241
G1 X127.173 Y107.662 E.01241
G1 X126.932 Y107.976 E.01241
G1 X126.665 Y108.268 E.01241
G1 X126.373 Y108.535 E.01241
G1 X126.059 Y108.776 E.01241
G1 X125.725 Y108.988 E.01241
G1 X125.375 Y109.171 E.01241
G1 X125.026 Y109.315 E.01184
G1 X124.632 Y109.441 E.01296
G1 X124.245 Y109.527 E.01242
G1 X123.853 Y109.579 E.01241
G1 X123.458 Y109.596 E.01241
G1 X123.062 Y109.579 E.01241
G1 X122.67 Y109.527 E.01241
G1 X122.284 Y109.441 E.01242
G1 X121.89 Y109.316 E.01296
G1 X121.541 Y109.171 E.01184
G1 X121.19 Y108.988 E.01241
G1 X120.856 Y108.776 E.01241
G1 X120.542 Y108.535 E.01241
G1 X120.251 Y108.268 E.01241
G1 X119.983 Y107.976 E.01241
G1 X119.743 Y107.662 E.01241
G1 X119.562 Y107.379 E.01052
G1 X119.134 Y107.328 F10800
;WIPE_START
G1 F8640
G1 X119.347 Y106.977 E-.10517
G1 X119.196 Y106.612 E-.09136
G1 X119.077 Y106.234 E-.09136
G1 X118.991 Y105.848 E-.09136
G1 X118.94 Y105.456 E-.09136
G1 X118.922 Y105.061 E-.09136
G1 X118.94 Y104.665 E-.09136
G1 X118.991 Y104.273 E-.09136
G1 X119.006 Y104.208 E-.01532
;WIPE_END
G1 E-.04 F2100
G1 Z.8 F10800
G1 X101.871 Y119.275
G1 Z.2
G1 E.8 F2100
;TYPE:Perimeter
G1 F1200
G1 X109.142 Y112.004 E.32239
G1 X109.024 Y112.145 E.00577
G1 X108.887 Y112.36 E.008
G1 X108.698 Y112.766 E.01402
G1 X108.578 Y113.222 E.01479
G1 X108.541 Y113.652 E.01354
G1 X108.583 Y114.134 E.01516
G1 X108.698 Y114.564 E.01398
G1 X108.887 Y114.968 E.01398
G1 X109.017 Y115.172 E.00759
G1 X109.953 Y116.392 E.04822
G1 X110.992 Y117.526 E.04822
G1 X112.126 Y118.565 E.04822
G1 X113.346 Y119.502 E.04822
G1 X114.643 Y120.328 E.04822
G1 X116.007 Y121.038 E.04822
G1 X117.428 Y121.627 E.04822
G1 X118.895 Y122.089 E.04822
G1 X120.396 Y122.422 E.04822
G1 X121.921 Y122.623 E.04822
G1 X122.163 Y122.633 E.0076
G1 X122.596 Y122.595 E.01362
G1 X122.858 Y122.536 E.00841
G1 X123.263 Y122.388 E.01352
G1 X123.66 Y122.159 E.01436
G1 X124.011 Y121.864 E.01438
G1 X124.306 Y121.513 E.01438
G1 X124.535 Y121.115 E.01438
G1 X124.687 Y120.697 E.01398
G1 X124.743 Y120.448 E.008
G1 X124.781 Y120.003 E.01398
G1 X124.741 Y119.547 E.01438
G1 X124.626 Y119.116 E.01398
G1 X124.529 Y118.881 E.00798
G1 X124.313 Y118.507 E.01354
G1 X124.012 Y118.144 E.01479
G1 X123.659 Y117.848 E.01442
G1 X123.262 Y117.619 E.01438
G1 X122.843 Y117.467 E.01398
G1 X122.607 Y117.414 E.00759
G1 X121.31 Y117.243 E.04103
G1 X120.256 Y117.01 E.03384
G1 X119.227 Y116.685 E.03384
G1 X118.23 Y116.272 E.03384
G1 X117.272 Y115.774 E.03384
G1 X116.362 Y115.194 E.03384
G1 X115.506 Y114.537 E.03384
G1 X114.71 Y113.808 E.03384
G1 X113.981 Y113.012 E.03384
G1 X113.177 Y111.964 E.04143
G1 X112.862 Y111.649 E.01397
G1 X112.486 Y111.386 E.01438
G1 X112.07 Y111.192 E.01438
G1 X111.626 Y111.073 E.01442
G1 X111.156 Y111.034 E.01479
G1 X110.726 Y111.072 E.01353
G1 X110.259 Y111.197 E.01516
G1 X109.855 Y111.386 E.01398
G1 X109.54 Y111.606 E.01207
G1 X119.76 Y101.386 E.45318
G1 X120.095 Y101.079 E.01425
G1 X120.441 Y100.81 E.01373
G1 X120.808 Y100.572 E.01373
G1 X121.194 Y100.365 E.01373
G1 X121.596 Y100.192 E.01373
G1 X122.011 Y100.053 E.01372
G1 X122.441 Y99.949 E.01386
G1 X122.87 Y99.882 E.01361
G1 X123.306 Y99.851 E.01373
G1 X123.744 Y99.856 E.01373
G1 X124.18 Y99.899 E.01373
G1 X124.611 Y99.978 E.01373
G1 X125.034 Y100.092 E.01373
G1 X125.445 Y100.242 E.01373
G1 X125.843 Y100.426 E.01373
G1 X126.223 Y100.642 E.01373
G1 X126.584 Y100.89 E.01373
G1 X126.923 Y101.167 E.01373
G1 X127.238 Y101.472 E.01373
G1 X127.526 Y101.802 E.01373
G1 X127.785 Y102.155 E.01373
G1 X128.014 Y102.528 E.01373
G1 X128.21 Y102.92 E.01373
G1 X128.373 Y103.326 E.01373
G1 X128.506 Y103.761 E.01425
G1 X130.654 Y111.995 E.2668
G1 X130.12 Y112.252 E.01858
G1 X129.729 Y112.497 E.01446
G1 X129.362 Y112.775 E.01446
G1 X129.019 Y113.085 E.01446
G1 X128.706 Y113.423 E.01446
G1 X128.422 Y113.787 E.01446
G1 X128.172 Y114.174 E.01446
G1 X127.956 Y114.582 E.01446
G1 X127.777 Y115.007 E.01446
G1 X127.635 Y115.446 E.01446
G1 X127.532 Y115.896 E.01446
G1 X127.469 Y116.353 E.01446
G1 X127.446 Y116.814 E.01446
G1 X127.463 Y117.275 E.01446
G1 X127.52 Y117.732 E.01446
G1 X127.617 Y118.183 E.01446
G1 X127.753 Y118.624 E.01446
G1 X127.927 Y119.052 E.01446
G1 X128.137 Y119.462 E.01446
G1 X128.382 Y119.853 E.01446
G1 X128.661 Y120.221 E.01446
G1 X128.97 Y120.563 E.01446
G1 X129.308 Y120.877 E.01446
G1 X129.672 Y121.16 E.01446
G1 X130.059 Y121.41 E.01446
G1 X130.467 Y121.626 E.01446
G1 X130.892 Y121.805 E.01446
G1 X131.331 Y121.947 E.01446
G1 X131.781 Y122.05 E.01446
G1 X132.238 Y122.113 E.01446
G1 X132.699 Y122.136 E.01446
G1 X133.29 Y122.1 E.01858
G1 X134.893 Y128.245 E.19911
G1 X137.645 Y126.595 E.1006
G1 X139.422 Y125.313 E.06871
G1 X141.084 Y123.884 E.06871
G1 X142.618 Y122.32 E.06871
G1 X144.014 Y120.631 E.06871
G1 X145.262 Y118.83 E.06871
G1 X146.352 Y116.929 E.06871
G1 X147.277 Y114.942 E.06871
G1 X148.03 Y112.885 E.06871
G1 X148.606 Y110.77 E.06871
G1 X148.999 Y108.615 E.06871
G1 X149.209 Y106.433 E.06871
G1 X149.233 Y104.242 E.06871
G1 X149.07 Y102.057 E.06871
G1 X148.723 Y99.893 E.06871
G1 X148.193 Y97.767 E.06871
G1 X147.484 Y95.694 E.06871
G1 X146.602 Y93.688 E.06871
G1 X145.553 Y91.764 E.06871
G1 X144.344 Y89.936 E.06871
G1 X142.985 Y88.217 E.06871
G1 X141.485 Y86.62 E.06871
G1 X139.854 Y85.156 E.06871
M73 Q2 S27
G1 X138.105 Y83.836 E.06871
G1 X136.25 Y82.669 E.06871
G1 X134.303 Y81.664 E.0687
M73 P2 R27
G1 X131.938 Y80.687 E.08024
G1 X131.612 Y80.518 E.01151
G1 X131.302 Y80.32 E.01152
G1 X131.011 Y80.096 E.01152
G1 X130.74 Y79.848 E.01152
G1 X130.492 Y79.577 E.01152
G1 X130.268 Y79.286 E.01152
G1 X130.071 Y78.976 E.01152
G1 X129.901 Y78.65 E.01152
G1 X129.76 Y78.31 E.01152
G1 X129.65 Y77.96 E.01152
G1 X129.57 Y77.601 E.01152
G1 X129.522 Y77.237 E.01152
G1 X129.506 Y76.87 E.01152
G1 X129.522 Y76.503 E.01152
G1 X129.57 Y76.138 E.01152
G1 X129.649 Y75.782 E.01146
G1 X129.76 Y75.429 E.01159
G1 X129.901 Y75.09 E.01152
G1 X130.071 Y74.764 E.01152
G1 X130.268 Y74.454 E.01152
G1 X130.492 Y74.162 E.01152
G1 X130.74 Y73.891 E.01152
G1 X131.011 Y73.643 E.01152
G1 X131.302 Y73.419 E.01152
G1 X131.612 Y73.222 E.01152
G1 X131.938 Y73.052 E.01152
G1 X132.278 Y72.912 E.01152
G1 X132.628 Y72.801 E.01152
G1 X132.987 Y72.722 E.01152
G1 X133.351 Y72.674 E.01152
G1 X133.718 Y72.658 E.01152
G1 X134.083 Y72.674 E.01146
G1 X134.45 Y72.722 E.01159
G1 X134.809 Y72.801 E.01152
G1 X135.162 Y72.912 E.0116
M73 P2 R26
G1 X137.505 Y73.865 E.07933
G1 X139.775 Y74.99 E.07941
G1 X141.954 Y76.279 E.07941
G1 X144.033 Y77.726 E.07941
G1 X145.999 Y79.323 E.07941
G1 X147.841 Y81.061 E.07941
G1 X149.549 Y82.931 E.07941
G1 X151.115 Y84.922 E.07941
G1 X152.529 Y87.023 E.07941
G1 X153.784 Y89.223 E.07941
G1 X154.872 Y91.51 E.07941
G1 X155.789 Y93.871 E.07941
G1 X156.528 Y96.293 E.07941
G1 X157.086 Y98.764 E.07941
G1 X157.459 Y101.269 E.07941
G1 X157.647 Y103.794 E.07941
G1 X157.647 Y106.327 E.07941
G1 X157.459 Y108.853 E.07941
G1 X157.086 Y111.358 E.07941
G1 X156.528 Y113.828 E.07941
G1 X155.788 Y116.25 E.07941
G1 X154.872 Y118.611 E.07941
