; generated by PrusaSlicer 2.4.1+win64 on 2022-04-23 at 21:59:22 UTC

; 

; external perimeters extrusion width = 0.45mm
; perimeters extrusion width = 0.45mm
; infill extrusion width = 0.45mm
; solid infill extrusion width = 0.45mm
; top infill extrusion width = 0.40mm
; first layer extrusion width = 0.42mm

M73 P0 R11
M73 Q0 S11
M107
;TYPE:Custom
M862.3 P "MK3S" ; printer model check
M862.1 P0.4 ; nozzle diameter check
M115 U3.9.1 ; tell printer latest fw version
G90 ; use absolute coordinates
M83 ; extruder relative mode
M104 S215 ; set extruder temp
M140 S60 ; set bed temp
M190 S60 ; wait for bed temp
M109 S215 ; wait for extruder temp
G28 W ; home all without mesh bed level
G80 ; mesh bed leveling
G1 Y-3.0 F1000.0 ; go outside print area
G92 E0.0
G1 X60.0 E9.0 F1000.0 ; intro line
G1 X100.0 E12.5 F1000.0 ; intro line
G92 E0.0
M221 S95

; Don't change E values below. Excessive value can damage the printer.
M907 E430 ; set extruder motor current
G21 ; set units to millimeters
G90 ; use absolute coordinates
M83 ; use relative distances for extrusion
M900 K0.05 ; Filament gcode LA 1.5
M900 K30 ; Filament gcode LA 1.0
M107
;LAYER_CHANGE
;Z:0.2
;HEIGHT:0.2
;BEFORE_LAYER_CHANGE
G92 E0.0
;0.2


G1 E-.8 F2100
G1 Z.6 F10800
;AFTER_LAYER_CHANGE
;0.2
G1 X111.147 Y89.607
G1 Z.2
M73 P1 R11
M73 Q1 S11
G1 E.8 F2100
M204 S1000
;TYPE:Skirt/Brim
;WIDTH:0.42
G1 F1200
G1 X111.863 Y88.811 E.03356
G1 X112.533 Y88.233 E.02775
G1 X113.448 Y87.628 E.0344
G1 X114.743 Y87.046 E.0445
G1 X129.033 Y82.177 E.47334
G1 X130.489 Y81.838 E.04689
G1 X132.021 Y81.752 E.04811
G1 X133.526 Y81.931 E.0475
G1 X134.261 Y82.117 E.02378
G1 X135.449 Y82.57 E.03986
G1 X136.944 Y83.46 E.05455
G1 X138.093 Y84.476 E.04809
G1 X139.037 Y85.661 E.04751
G1 X139.428 Y86.31 E.02377
G1 X139.949 Y87.456 E.03945
G1 X140.355 Y88.935 E.0481
G1 X140.494 Y90.663 E.05437
G1 X137.472 Y123.039 E1.01953
G1 X137.324 Y123.895 E.02725
G1 X137.098 Y124.602 E.02325
G1 X136.656 Y125.492 E.03117
G1 X136.068 Y126.293 E.03117
G1 X135.35 Y126.981 E.03117
G1 X134.525 Y127.535 E.03117
G1 X133.617 Y127.939 E.03117
G1 X132.652 Y128.18 E.03117
G1 X131.673 Y128.252 E.03079
G1 X130.424 Y128.099 E.03944
G1 X129.026 Y127.57 E.04688
G1 X127.821 Y126.707 E.04648
G1 X126.872 Y125.559 E.0467
G1 X110.542 Y98.261 E.99737
G1 X110.068 Y97.29 E.03389
G1 X109.782 Y96.446 E.02793
G1 X109.567 Y95.387 E.03389
G1 X109.503 Y94.499 E.02793
G1 X109.562 Y93.419 E.03389
G1 X109.723 Y92.543 E.02792
G1 X110.135 Y91.314 E.04066
G1 X110.637 Y90.344 E.03424
G1 X111.113 Y89.656 E.02622
G1 X111.422 Y89.87 F10800
G1 F1200
G1 X112.132 Y89.075 E.03342
G1 X112.754 Y88.539 E.02577
M73 Q2 S11
G1 X113.642 Y87.951 E.03337
G1 X114.864 Y87.403 E.042
G1 X129.041 Y82.57 E.4696
G1 X130.551 Y82.209 E.04868
M73 P2 R11
G1 X131.998 Y82.128 E.04546
G1 X132.722 Y82.181 E.02275
G1 X133.944 Y82.418 E.03902
G1 X135.304 Y82.919 E.04546
G1 X136.558 Y83.646 E.04546
G1 X137.668 Y84.58 E.04546
G1 X138.716 Y85.86 E.05189
G1 X139.412 Y87.132 E.04546
G1 X139.878 Y88.505 E.04546
G1 X140.02 Y89.216 E.02275
G1 X140.119 Y90.457 E.03902
G1 X137.097 Y123.004 E1.02486
G1 X136.964 Y123.781 E.02472
G1 X136.751 Y124.456 E.0222
G1 X136.335 Y125.294 E.02933
G1 X135.79 Y126.038 E.02892
G1 X135.121 Y126.682 E.02912
G1 X134.35 Y127.201 E.02913
G1 X133.502 Y127.58 E.02912
G1 X132.601 Y127.807 E.02912
G1 X131.686 Y127.875 E.02877
G1 X130.503 Y127.73 E.03738
G1 X129.196 Y127.234 E.04382
G1 X128.072 Y126.426 E.04342
G1 X127.186 Y125.351 E.04366
G1 X110.874 Y98.081 E.99633
G1 X110.413 Y97.139 E.03289
G1 X110.148 Y96.356 E.02592
G1 X109.94 Y95.328 E.03288
G1 X109.88 Y94.503 E.02593
G1 X109.937 Y93.456 E.03289
G1 X110.087 Y92.643 E.02592
G1 X110.477 Y91.473 E.03868
G1 X110.964 Y90.531 E.03324
G1 X111.388 Y89.919 E.02332
;WIPE_START
G1 F8640
G1 X112.132 Y89.075 E-.25987
G1 X112.754 Y88.539 E-.18977
G1 X113.642 Y87.951 E-.24577
G1 X113.897 Y87.837 E-.0646
;WIPE_END
G1 E-.04 F2100
G1 Z.8 F10800
G1 X115.262 Y92.667
G1 Z.2
G1 E.8 F2100
;TYPE:Perimeter
G1 F1200
G1 X115.563 Y92.366 E.01335
G1 X115.928 Y92.111 E.01397
G1 X116.155 Y91.993 E.008
G1 X116.561 Y91.845 E.01357
G1 X116.81 Y91.79 E.00798
G1 X117.24 Y91.751 E.01353
G1 X117.71 Y91.79 E.01478
G1 X118.128 Y91.902 E.01356
G1 X118.364 Y91.998 E.00801
G1 X118.581 Y92.111 E.00765
G1 X118.935 Y92.359 E.01357
G1 X119.123 Y92.531 E.008
G1 X119.41 Y92.873 E.01398
G1 X119.633 Y93.259 E.01398
G1 X119.725 Y93.483 E.00759
G1 X120.119 Y94.731 E.04103
G1 X120.532 Y95.728 E.03384
G1 X121.03 Y96.684 E.03382
M73 Q3 S11
G1 X121.622 Y97.611 E.03446
G1 X122.267 Y98.451 E.03323
G1 X122.996 Y99.247 E.03384
G1 X123.792 Y99.976 E.03384
G1 X124.648 Y100.633 E.03384
M73 P3 R11
G1 X125.558 Y101.213 E.03384
G1 X126.719 Y101.817 E.04103
G1 X126.923 Y101.947 E.00759
G1 X127.265 Y102.234 E.01397
G1 X127.551 Y102.575 E.01398
G1 X127.688 Y102.79 E.008
G1 X127.876 Y103.194 E.01398
G1 X127.995 Y103.637 E.01438
G1 X128.035 Y104.094 E.01438
G1 X127.995 Y104.551 E.01438
G1 X127.876 Y104.994 E.01438
G1 X127.683 Y105.41 E.01438
G1 X127.427 Y105.775 E.01398
G1 X127.255 Y105.963 E.008
G1 X126.913 Y106.249 E.01397
G1 X126.527 Y106.472 E.01398
G1 X126.292 Y106.57 E.008
G1 X125.861 Y106.685 E.01398
G1 X125.404 Y106.725 E.01438
G1 X124.947 Y106.685 E.01438
G1 X124.517 Y106.57 E.01398
G1 X124.293 Y106.477 E.0076
G1 X122.929 Y105.767 E.04822
G1 X121.632 Y104.941 E.04822
G1 X120.411 Y104.004 E.04822
G1 X119.278 Y102.965 E.04822
G1 X118.239 Y101.831 E.04822
G1 X117.302 Y100.611 E.04822
G1 X116.476 Y99.314 E.04822
G1 X115.766 Y97.95 E.04822
G1 X115.177 Y96.529 E.04822
G1 X114.711 Y95.05 E.04862
G1 X114.634 Y94.611 E.01397
G1 X114.634 Y94.153 E.01438
G1 X114.711 Y93.714 E.01398
G1 X114.788 Y93.47 E.008
G1 X114.976 Y93.066 E.01398
G1 X115.224 Y92.713 E.01353
G1 X115.529 Y92.934 F10800
;TYPE:External perimeter
G1 F1200
G1 X115.807 Y92.656 E.01231
G1 X116.124 Y92.434 E.01217
G1 X116.307 Y92.339 E.00645
G1 X116.667 Y92.208 E.01202
G1 X116.868 Y92.163 E.00644
G1 X117.241 Y92.13 E.01175
G1 X117.645 Y92.163 E.01271
G1 X118.008 Y92.26 E.01176
G1 X118.206 Y92.341 E.00671
G1 X118.385 Y92.434 E.00632
G1 X118.699 Y92.654 E.01202
G1 X118.85 Y92.793 E.00645
G1 X119.1 Y93.09 E.01217
G1 X119.294 Y93.426 E.01217
G1 X119.371 Y93.612 E.0063
G1 X119.764 Y94.86 E.04103
G1 X120.19 Y95.887 E.03487
G1 X120.703 Y96.873 E.03486
G1 X121.313 Y97.827 E.03549
G1 X121.978 Y98.694 E.03425
G1 X122.729 Y99.514 E.03487
G1 X123.549 Y100.265 E.03487
G1 X124.431 Y100.942 E.03487
G1 X125.369 Y101.54 E.03487
G1 X126.53 Y102.144 E.04103
G1 X126.7 Y102.252 E.0063
G1 X126.997 Y102.501 E.01217
G1 X127.246 Y102.799 E.01217
G1 X127.357 Y102.972 E.00645
G1 X127.521 Y103.324 E.01217
G1 X127.622 Y103.703 E.01231
G1 X127.657 Y104.094 E.01231
G1 X127.622 Y104.485 E.01231
G1 X127.521 Y104.865 E.01231
G1 X127.355 Y105.22 E.01231
G1 X127.132 Y105.538 E.01217
G1 X126.993 Y105.69 E.00645
G1 X126.696 Y105.939 E.01217
G1 X126.36 Y106.133 E.01217
G1 X126.17 Y106.212 E.00645
G1 X125.795 Y106.312 E.01217
G1 X125.404 Y106.347 E.01231
G1 X125.013 Y106.312 E.01231
G1 X124.638 Y106.212 E.01217
G1 X124.452 Y106.135 E.0063
G1 X123.117 Y105.44 E.04719
G1 X121.848 Y104.631 E.04719
G1 X120.654 Y103.715 E.04719
G1 X119.544 Y102.698 E.04719
G1 X118.528 Y101.589 E.04719
G1 X117.611 Y100.395 E.04719
G1 X116.803 Y99.125 E.04719
G1 X116.108 Y97.791 E.04719
G1 X115.532 Y96.4 E.04719
G1 X115.078 Y94.96 E.04733
G1 X115.011 Y94.578 E.01217
G1 X115.011 Y94.186 E.01231
G1 X115.078 Y93.803 E.01217
G1 X115.14 Y93.607 E.00645
G1 X115.304 Y93.256 E.01217
G1 X115.495 Y92.983 E.01043
G1 X115.395 Y92.565 F10800
;WIPE_START
G1 F8640
G1 X115.807 Y92.656 E-.10433
G1 X116.124 Y92.434 E-.08959
G1 X116.307 Y92.339 E-.04749
G1 X116.667 Y92.208 E-.08853
G1 X116.868 Y92.163 E-.04744
G1 X117.241 Y92.13 E-.08653
G1 X117.645 Y92.163 E-.09359
G1 X118.008 Y92.26 E-.08663
G1 X118.206 Y92.341 E-.04939
G1 X118.385 Y92.434 E-.04657
G1 X118.455 Y92.483 E-.01991
;WIPE_END
G1 E-.04 F2100
G1 Z.8 F10800
G1 X126.905 Y91.353
G1 Z.2
G1 E.8 F2100
;TYPE:Perimeter
G1 F1200
G1 X126.849 Y90.928 E.01344
G1 X126.831 Y90.5 E.01344
G1 X126.849 Y90.071 E.01344
G1 X126.905 Y89.645 E.01347
M73 P3 R10
G1 X127.004 Y89.21 E.01399
G1 X127.127 Y88.819 E.01285
G1 X127.291 Y88.423 E.01344
G1 X127.489 Y88.043 E.01344
G1 X127.719 Y87.682 E.01344
G1 X127.98 Y87.342 E.01344
G1 X128.27 Y87.026 E.01344
G1 X128.585 Y86.736 E.01344
G1 X128.926 Y86.475 E.01344
G1 X129.287 Y86.245 E.01344
G1 X129.667 Y86.047 E.01344
G1 X130.063 Y85.883 E.01344
G1 X130.472 Y85.754 E.01344
G1 X130.891 Y85.661 E.01347
G1 X131.334 Y85.605 E.01399
G1 X131.743 Y85.587 E.01285
G1 X132.172 Y85.605 E.01344
G1 X132.596 Y85.661 E.01344
G1 X133.015 Y85.754 E.01344
G1 X133.424 Y85.883 E.01344
G1 X133.82 Y86.047 E.01344
G1 X134.2 Y86.245 E.01344
G1 X134.561 Y86.475 E.01344
G1 X134.901 Y86.736 E.01344
G1 X135.217 Y87.026 E.01344
G1 X135.507 Y87.342 E.01344
G1 X135.768 Y87.682 E.01344
G1 X135.998 Y88.043 E.01344
G1 X136.196 Y88.423 E.01344
G1 X136.36 Y88.819 E.01344
G1 X136.489 Y89.228 E.01344
G1 X136.582 Y89.646 E.01344
G1 X136.638 Y90.071 E.01344
G1 X136.656 Y90.5 E.01344
G1 X136.638 Y90.928 E.01344
G1 X136.582 Y91.353 E.01344
G1 X136.489 Y91.771 E.01344
G1 X136.36 Y92.18 E.01344
G1 X136.196 Y92.576 E.01344
G1 X135.998 Y92.956 E.01344
G1 X135.768 Y93.317 E.01344
G1 X135.507 Y93.657 E.01344
G1 X135.217 Y93.973 E.01344
G1 X134.901 Y94.263 E.01344
G1 X134.561 Y94.524 E.01344
G1 X134.2 Y94.754 E.01344
G1 X133.82 Y94.952 E.01344
G1 X133.424 Y95.116 E.01344
G1 X133.015 Y95.245 E.01344
G1 X132.615 Y95.334 E.01285
G1 X132.173 Y95.394 E.01399
G1 X131.743 Y95.412 E.01347
G1 X131.315 Y95.394 E.01344
G1 X130.89 Y95.338 E.01344
G1 X130.472 Y95.245 E.01344
G1 X130.063 Y95.116 E.01344
G1 X129.667 Y94.952 E.01344
G1 X129.287 Y94.754 E.01344
G1 X128.926 Y94.524 E.01344
G1 X128.585 Y94.263 E.01344
G1 X128.269 Y93.973 E.01344
G1 X127.98 Y93.657 E.01344
G1 X127.719 Y93.317 E.01344
G1 X127.489 Y92.956 E.01344
G1 X127.291 Y92.576 E.01344
G1 X127.127 Y92.18 E.01344
G1 X126.998 Y91.771 E.01344
G1 X126.918 Y91.411 E.01156
G1 X127.277 Y91.287 F10800
;TYPE:External perimeter
G1 F1200
G1 X127.225 Y90.895 E.01241
G1 X127.208 Y90.5 E.01241
G1 X127.225 Y90.104 E.01241
G1 X127.277 Y89.712 E.01242
G1 X127.368 Y89.308 E.01296
G1 X127.482 Y88.948 E.01184
G1 X127.633 Y88.583 E.01241
G1 X127.816 Y88.232 E.01241
G1 X128.028 Y87.898 E.01241
G1 X128.269 Y87.584 E.01241
G1 X128.536 Y87.293 E.01241
G1 X128.828 Y87.025 E.01241
G1 X129.142 Y86.784 E.01241
G1 X129.476 Y86.572 E.01241
G1 X129.827 Y86.389 E.01241
G1 X130.192 Y86.238 E.01241
G1 X130.57 Y86.119 E.01241
G1 X130.956 Y86.033 E.01242
G1 X131.366 Y85.981 E.01296
G1 X131.743 Y85.964 E.01184
G1 X132.139 Y85.981 E.01241
G1 X132.531 Y86.033 E.01241
G1 X132.917 Y86.119 E.01241
G1 X133.295 Y86.238 E.01241
G1 X133.66 Y86.389 E.01241
M73 Q3 S10
G1 X134.011 Y86.572 E.01241
G1 X134.345 Y86.784 E.01241
G1 X134.659 Y87.025 E.01241
G1 X134.95 Y87.293 E.01241
G1 X135.218 Y87.584 E.01241
G1 X135.459 Y87.898 E.01241
G1 X135.671 Y88.232 E.01241
G1 X135.854 Y88.583 E.01241
G1 X136.005 Y88.948 E.01241
G1 X136.124 Y89.326 E.01241
G1 X136.21 Y89.712 E.01241
G1 X136.262 Y90.104 E.01241
G1 X136.279 Y90.5 E.01241
G1 X136.262 Y90.895 E.01241
G1 X136.21 Y91.287 E.01241
G1 X136.124 Y91.673 E.01241
G1 X136.005 Y92.051 E.01241
G1 X135.854 Y92.416 E.01241
G1 X135.671 Y92.767 E.01241
G1 X135.459 Y93.101 E.01241
G1 X135.218 Y93.415 E.01241
G1 X134.95 Y93.707 E.01241
M73 Q4 S10
G1 X134.659 Y93.974 E.01241
G1 X134.345 Y94.215 E.01241
G1 X134.011 Y94.427 E.01241
G1 X133.66 Y94.61 E.01241
G1 X133.295 Y94.761 E.01241
G1 X132.917 Y94.88 E.01241
G1 X132.549 Y94.962 E.01184
G1 X132.139 Y95.018 E.01296
G1 X131.743 Y95.035 E.01242
G1 X131.348 Y95.018 E.01241
G1 X130.956 Y94.966 E.01241
G1 X130.57 Y94.88 E.01241
G1 X130.192 Y94.761 E.01241
G1 X129.827 Y94.61 E.01241
M73 P4 R10
G1 X129.476 Y94.427 E.01241
G1 X129.142 Y94.215 E.01241
G1 X128.828 Y93.974 E.01241
G1 X128.536 Y93.707 E.01241
G1 X128.269 Y93.415 E.01241
G1 X128.028 Y93.101 E.01241
G1 X127.816 Y92.767 E.01241
G1 X127.633 Y92.416 E.01241
G1 X127.482 Y92.051 E.01241
G1 X127.363 Y91.673 E.01241
G1 X127.29 Y91.346 E.01052
G1 X126.905 Y91.152 F10800
;WIPE_START
G1 F8640
G1 X127.225 Y90.895 E-.10517
G1 X127.208 Y90.5 E-.09136
G1 X127.225 Y90.104 E-.09136
G1 X127.277 Y89.712 E-.09146
G1 X127.368 Y89.308 E-.09544
G1 X127.482 Y88.948 E-.08717
G1 X127.633 Y88.583 E-.09136
G1 X127.816 Y88.232 E-.09136
G1 X127.851 Y88.176 E-.01533
;WIPE_END
G1 E-.04 F2100
G1 Z.8 F10800
G1 X136.134 Y99.477
G1 Z.2
G1 E.8 F2100
;TYPE:Perimeter
G1 F1200
G1 X135.544 Y99.536 E.01858
G1 X135.093 Y99.633 E.01446
G1 X134.653 Y99.768 E.01446
G1 X134.225 Y99.942 E.01446
G1 X133.815 Y100.152 E.01446
G1 X133.424 Y100.398 E.01446
G1 X133.056 Y100.676 E.01446
G1 X132.714 Y100.985 E.01446
G1 X132.4 Y101.324 E.01446
G1 X132.117 Y101.688 E.01446
G1 X131.866 Y102.075 E.01446
G1 X131.651 Y102.483 E.01446
G1 X131.471 Y102.908 E.01446
G1 X131.33 Y103.347 E.01446
G1 X131.227 Y103.797 E.01446
G1 X131.164 Y104.253 E.01446
G1 X131.14 Y104.714 E.01446
G1 X131.157 Y105.175 E.01446
G1 X131.215 Y105.633 E.01446
G1 X131.312 Y106.084 E.01446
G1 X131.447 Y106.525 E.01446
G1 X131.621 Y106.952 E.01446
G1 X131.831 Y107.363 E.01446
G1 X132.077 Y107.753 E.01446
G1 X132.355 Y108.121 E.01446
G1 X132.664 Y108.463 E.01446
G1 X133.002 Y108.777 E.01446
G1 X133.367 Y109.061 E.01446
G1 X133.754 Y109.311 E.01446
G1 X134.162 Y109.527 E.01446
G1 X134.587 Y109.706 E.01446
G1 X135.155 Y109.874 E.01858
G1 X133.949 Y122.677 E.40321
G1 X133.876 Y123.083 E.01291
G1 X133.743 Y123.441 E.01197
G1 X133.552 Y123.771 E.01198
G1 X133.306 Y124.063 E.01198
G1 X133.013 Y124.309 E.01198
G1 X132.683 Y124.501 E.01198
G1 X132.324 Y124.632 E.01198
G1 X131.936 Y124.703 E.01238
G1 X131.77 Y124.711 E.0052
G1 X131.364 Y124.678 E.01278
G1 X131.019 Y124.589 E.01119
G1 X130.659 Y124.426 E.01238
G1 X130.333 Y124.203 E.01238
G1 X130.209 Y124.093 E.0052
G1 X129.943 Y123.784 E.01278
G1 X129.836 Y123.621 E.00613
G1 X113.648 Y96.559 E.98873
G1 X113.469 Y96.23 E.01172
G1 X113.326 Y95.903 E.0112
G1 X113.212 Y95.564 E.0112
G1 X113.126 Y95.218 E.0112
G1 X113.07 Y94.865 E.0112
G1 X113.044 Y94.509 E.0112
G1 X113.049 Y94.152 E.0112
G1 X113.083 Y93.796 E.0112
G1 X113.148 Y93.445 E.0112
G1 X113.242 Y93.1 E.0112
G1 X113.365 Y92.765 E.0112
G1 X113.515 Y92.443 E.01114
G1 X113.694 Y92.131 E.01127
G1 X113.897 Y91.838 E.0112
G1 X114.125 Y91.562 E.0112
G1 X114.375 Y91.307 E.0112
G1 X114.646 Y91.075 E.0112
G1 X114.936 Y90.865 E.0112
G1 X115.242 Y90.682 E.0112
G1 X115.563 Y90.524 E.0112
G1 X115.911 Y90.389 E.01172
G1 X130.045 Y85.571 E.46821
G1 X130.495 Y85.439 E.01469
G1 X130.938 Y85.35 E.01416
G1 X131.386 Y85.3 E.01416
G1 X131.838 Y85.288 E.01416
G1 X132.289 Y85.316 E.01416
G1 X132.735 Y85.383 E.01416
G1 X133.174 Y85.488 E.01416
G1 X133.603 Y85.63 E.01416
G1 X134.017 Y85.809 E.01416
G1 X134.415 Y86.024 E.01416
G1 X134.792 Y86.272 E.01416
G1 X135.146 Y86.552 E.01416
G1 X135.475 Y86.861 E.01416
G1 X135.776 Y87.198 E.01416
G1 X136.047 Y87.559 E.01416
G1 X136.285 Y87.943 E.01416
G1 X136.49 Y88.345 E.01416
G1 X136.657 Y88.76 E.01403
G1 X136.79 Y89.196 E.01429
G1 X136.884 Y89.638 E.01415
G1 X136.939 Y90.086 E.01416
G1 X136.955 Y90.537 E.01416
G1 X136.932 Y91.005 E.01469
G1 X136.14 Y99.417 E.26491
G1 X136.478 Y99.851 F10800
;TYPE:External perimeter
G1 F1200
G1 X136.036 Y99.854 E.01386
G1 X135.607 Y99.908 E.01353
G1 X135.189 Y99.998 E.01343
G1 X134.779 Y100.124 E.01343
G1 X134.382 Y100.285 E.01343
G1 X134.001 Y100.481 E.01343
G1 X133.638 Y100.708 E.01343
G1 X133.297 Y100.967 E.01343
G1 X132.979 Y101.254 E.01343
G1 X132.688 Y101.568 E.01343
G1 X132.424 Y101.906 E.01343
G1 X132.192 Y102.266 E.01343
G1 X131.992 Y102.645 E.01343
G1 X131.825 Y103.039 E.01343
G1 X131.694 Y103.447 E.01343
G1 X131.598 Y103.865 E.01343
G1 X131.539 Y104.289 E.01343
G1 X131.518 Y104.717 E.01343
M73 Q5 S10
G1 X131.534 Y105.145 E.01343
G1 X131.587 Y105.57 E.01343
G1 X131.677 Y105.989 E.01343
G1 X131.803 Y106.398 E.01343
G1 X131.964 Y106.795 E.01343
G1 X132.159 Y107.176 E.01343
G1 X132.387 Y107.539 E.01343
G1 X132.646 Y107.881 E.01343
